; pcb2gcode 2.0.0 
; Software-independent Gcode 

; This file uses only one drill bit. Forced by 'onedrill' option 

G94       ;Millimeters per minute feed rate.
G21       ;Units == Millimeters.
G90       ;Absolute coordinates.
;G1 F3000 S10000     ;RPM spindle speed.

G1 F3000 Z3.00000 ;Retract
;T1
;M5      ;Spindle stop.
;G04 P1.00000
;MSG, Change tool bit to drill size 0.8 mm
;M6      ;Tool change.
;M0      ;Temporary machine stop.
;M3      ;Spindle on clockwise.
G1 F3000 Z3.00000
;G04 P1.00000

;F1000.00000
G1 F3000 X7.48800 Y1.36100
G1 F300 Z-2.50000
G1 F300 Z3.00000
G1 F3000 X13.14500 Y4.14500
G1 F300 Z-2.50000
G1 F300 Z3.00000
G1 F3000 X9.16900 Y14.59700
G1 F300 Z-2.50000
G1 F300 Z3.00000
G1 F3000 X16.44500 Y7.59300
G1 F300 Z-2.50000
G1 F300 Z3.00000
G1 F3000 X22.74100 Y1.62700
G1 F300 Z-2.50000
G1 F300 Z3.00000
G1 F3000 X25.84500 Y2.09500
G1 F300 Z-2.50000
G1 F300 Z3.00000
G1 F3000 X25.84500 Y18.19500
G1 F300 Z-2.50000
G1 F300 Z3.00000
G1 F3000 X25.84500 Y20.59500
G1 F300 Z-2.50000
G1 F300 Z3.00000
G1 F3000 X16.51700 Y24.93500
G1 F300 Z-2.50000
G1 F300 Z3.00000
G1 F3000 X15.38600 Y26.91700
G1 F300 Z-2.50000
G1 F300 Z3.00000
G1 F3000 X12.07300 Y31.40000
G1 F300 Z-2.50000
G1 F300 Z3.00000
G1 F3000 X9.82300 Y30.58100
G1 F300 Z-2.50000
G1 F300 Z3.00000
G1 F3000 X9.16300 Y36.78200
G1 F300 Z-2.50000
G1 F300 Z3.00000
G1 F3000 X1.91300 Y48.36300
G1 F300 Z-2.50000
G1 F300 Z3.00000
G1 F3000 X4.45300 Y48.36300
G1 F300 Z-2.50000
G1 F300 Z3.00000
G1 F3000 X13.59700 Y46.96700
G1 F300 Z-2.50000
G1 F300 Z3.00000
G1 F3000 X19.95000 Y38.36900
G1 F300 Z-2.50000
G1 F300 Z3.00000
G1 F3000 X25.84500 Y36.69500
G1 F300 Z-2.50000
G1 F300 Z3.00000

G1 F3000 Z3.000 ; All done -- retract 

;M5      ;Spindle off.
;G04 P1.000000
;M9      ;Coolant off.
M0      ;Program end.

