; pcb2gcode 2.0.0 
; Software-independent Gcode 

G94 ; Millimeters per minute feed rate. 
G21 ; Units == Millimeters. 

G90 ; Absolute coordinates. 
;G1 F3000 S10000 ; RPM spindle speed. 
G1 F300 F600.00000 ; Feedrate. 


G1 F3000 Z3.00000 ;Retract to tool change height
;T0
;M5      ;Spindle stop.
;G04 P1.00000 ;Wait for spindle to stop
;MSG, Change tool bit to mill diameter 0.12000mm
;M6      ;Tool change.
;M0      ;Temporary machine stop.
;M3 ; Spindle on clockwise. 
;G04 P1.00000 ;Wait for spindle to get up to speed
;G04 P0 ; dwell for no time -- G64 should not smooth over this point 
G1 F3000 Z3.00000 ; retract 

G1 F3000 X2.22699 Y47.15611 ; rapid move to begin. 
G1 F300 F300.00000
G1 F300 Z-0.07000
;G04 P0 ; dwell for no time -- G64 should not smooth over this point 
G1 F300 F600.00000
G1 F300 X2.22699 Y47.15611
G1 F300 X2.22699 Y47.51390
G1 F300 X2.36774 Y47.57529
G1 F300 X2.52633 Y47.69170
G1 F300 X2.65262 Y47.83388
G1 F300 X2.74147 Y47.98778
G1 F300 X2.78044 Y48.10351
G1 F300 X2.90327 Y48.10351
G1 F300 X2.90327 Y47.51600
G1 F300 X2.78712 Y47.40516
G1 F300 X2.58285 Y47.25278
G1 F300 X2.28915 Y47.12329
G1 F300 X2.22699 Y47.15611
;G04 P0 ; dwell for no time -- G64 should not smooth over this point 
G1 F3000 Z3.00000 ; retract 

G1 F3000 X3.54299 Y47.51351 ; rapid move to begin. 
G1 F300 F300.00000
G1 F300 Z-0.07000
;G04 P0 ; dwell for no time -- G64 should not smooth over this point 
G1 F300 F600.00000
G1 F300 X3.54299 Y47.51351
G1 F300 X3.54299 Y49.21351
G1 F300 X3.55310 Y49.24684
G1 F300 X3.59128 Y49.27236
G1 F300 X5.32595 Y49.26893
G1 F300 X5.35287 Y49.24684
G1 F300 X5.36298 Y49.21351
G1 F300 X5.36298 Y48.62352
G1 F300 X5.70329 Y48.62352
G1 F300 X5.80809 Y48.60119
G1 F300 X5.88711 Y48.54737
G1 F300 X6.24647 Y48.18804
G1 F300 X6.80448 Y48.18804
G1 F300 X6.81187 Y48.31920
G1 F300 X6.86023 Y48.42997
G1 F300 X6.94350 Y48.51158
G1 F300 X7.08990 Y48.56180
G1 F300 X8.01441 Y48.56302
G1 F300 X8.12757 Y48.54140
G1 F300 X8.22932 Y48.47617
G1 F300 X8.29838 Y48.37696
G1 F300 X8.32282 Y48.28504
G1 F300 X8.32414 Y48.12454
G1 F300 X8.96396 Y48.12454
G1 F300 X8.97539 Y48.27379
G1 F300 X9.03033 Y48.38146
G1 F300 X9.10631 Y48.45029
G1 F300 X9.21883 Y48.49441
G1 F300 X10.17349 Y48.49952
G1 F300 X10.26348 Y48.48616
G1 F300 X10.39665 Y48.40434
G1 F300 X10.47158 Y48.27379
G1 F300 X10.48227 Y48.21412
G1 F300 X10.47722 Y47.47849
G1 F300 X12.94762 Y45.00808
G1 F300 X13.00145 Y44.92904
G1 F300 X13.02377 Y44.82424
G1 F300 X13.02377 Y42.14652
G1 F300 X15.91348 Y42.14652
G1 F300 X15.92359 Y42.22485
G1 F300 X15.97347 Y42.25152
G1 F300 X17.62348 Y42.25152
G1 F300 X17.66590 Y42.23395
G1 F300 X17.68234 Y42.20321
G1 F300 X17.68348 Y41.58152
G1 F300 X17.67337 Y41.54817
G1 F300 X17.64645 Y41.52607
G1 F300 X15.97347 Y41.52150
G1 F300 X15.92359 Y41.54817
G1 F300 X15.91348 Y41.62651
G1 F300 X15.83319 Y41.62651
G1 F300 X15.83319 Y40.87652
G1 F300 X15.91348 Y40.87652
G1 F300 X15.92359 Y40.95485
G1 F300 X15.97347 Y40.98152
G1 F300 X17.64645 Y40.97695
G1 F300 X17.67337 Y40.95485
G1 F300 X17.68348 Y40.92150
G1 F300 X17.68348 Y40.31152
G1 F300 X17.67337 Y40.27817
G1 F300 X17.63519 Y40.25267
G1 F300 X15.97347 Y40.25150
G1 F300 X15.92359 Y40.27817
G1 F300 X15.91348 Y40.35651
G1 F300 X15.56730 Y40.35681
G1 F300 X15.43378 Y40.39730
G1 F300 X15.35397 Y40.47710
G1 F300 X15.31348 Y40.61063
G1 F300 X15.31318 Y41.62651
G1 F300 X12.42349 Y41.62651
G1 F300 X12.41339 Y41.54817
G1 F300 X12.36350 Y41.52150
G1 F300 X10.71349 Y41.52150
G1 F300 X10.66360 Y41.54817
G1 F300 X10.65350 Y41.62651
G1 F300 X10.57318 Y41.62651
G1 F300 X10.57318 Y40.87652
G1 F300 X10.65350 Y40.87652
G1 F300 X10.66360 Y40.95485
G1 F300 X10.71349 Y40.98152
G1 F300 X12.38644 Y40.97695
G1 F300 X12.41339 Y40.95485
G1 F300 X12.42349 Y40.92150
G1 F300 X12.41339 Y40.27817
G1 F300 X12.36350 Y40.25150
G1 F300 X10.71349 Y40.25150
G1 F300 X10.66360 Y40.27817
G1 F300 X10.65350 Y40.35651
G1 F300 X10.31319 Y40.35651
G1 F300 X10.21923 Y40.37431
G1 F300 X10.12538 Y40.43702
G1 F300 X10.05959 Y40.56009
G1 F300 X10.05317 Y41.07002
G1 F300 X8.01309 Y41.07002
G1 F300 X8.00283 Y40.99636
G1 F300 X7.95299 Y40.96976
G1 F300 X5.84200 Y40.96976
G1 F300 X5.00418 Y40.13192
G1 F300 X5.00418 Y27.19491
G1 F300 X5.77258 Y26.42654
G1 F300 X5.88800 Y26.40985
G1 F300 X5.97789 Y26.35150
G1 F300 X6.40382 Y25.91970
G1 F300 X6.43339 Y25.86448
G1 F300 X6.45119 Y25.77050
G1 F300 X6.44705 Y19.91583
G1 F300 X6.42887 Y19.85591
G1 F300 X6.37502 Y19.77687
G1 F300 X5.61266 Y19.01451
G1 F300 X5.61266 Y18.85703
G1 F300 X5.69295 Y18.85703
G1 F300 X5.70311 Y18.93034
G1 F300 X5.75300 Y18.95701
G1 F300 X7.96470 Y18.95586
G1 F300 X8.00288 Y18.93034
G1 F300 X8.01299 Y18.89701
G1 F300 X8.01299 Y18.29701
G1 F300 X8.00288 Y18.26369
G1 F300 X7.96470 Y18.23816
G1 F300 X5.74129 Y18.23816
G1 F300 X5.69755 Y18.27405
G1 F300 X5.69295 Y18.33702
G1 F300 X5.35269 Y18.33702
G1 F300 X5.24787 Y18.35934
G1 F300 X5.13999 Y18.44784
G1 F300 X5.09681 Y18.55213
G1 F300 X5.09267 Y19.12221
G1 F300 X5.13347 Y19.26163
G1 F300 X5.93118 Y20.06841
G1 F300 X5.93118 Y25.66281
G1 F300 X5.68528 Y25.90871
G1 F300 X5.56981 Y25.92542
G1 F300 X5.47992 Y25.98376
G1 F300 X4.56031 Y26.90340
G1 F300 X4.50649 Y26.98241
G1 F300 X4.48828 Y27.04236
G1 F300 X4.48828 Y40.28452
G1 F300 X4.50649 Y40.34444
G1 F300 X4.56031 Y40.42349
G1 F300 X5.69280 Y41.54764
G1 F300 X5.69752 Y41.65330
G1 F300 X5.74121 Y41.68912
G1 F300 X7.95299 Y41.69026
G1 F300 X8.00283 Y41.66369
G1 F300 X8.01309 Y41.59003
G1 F300 X10.05317 Y41.59003
G1 F300 X10.05731 Y41.93141
G1 F300 X10.07549 Y41.99133
G1 F300 X10.12538 Y42.06600
G1 F300 X10.17377 Y42.10573
G1 F300 X10.26828 Y42.14238
G1 F300 X10.65350 Y42.14652
G1 F300 X10.65804 Y42.21446
G1 F300 X10.70178 Y42.25035
G1 F300 X12.36350 Y42.25152
G1 F300 X12.41339 Y42.22485
G1 F300 X12.42349 Y42.14652
G1 F300 X12.50376 Y42.14652
G1 F300 X12.50376 Y44.71654
G1 F300 X9.99081 Y47.22952
G1 F300 X9.27349 Y47.22952
G1 F300 X9.16041 Y47.25113
G1 F300 X9.09653 Y47.28527
G1 F300 X9.01271 Y47.37234
G1 F300 X8.96648 Y47.50043
G1 F300 X8.96396 Y47.60452
G1 F300 X8.32449 Y47.60452
G1 F300 X8.30288 Y47.48992
G1 F300 X8.23765 Y47.38817
G1 F300 X8.18167 Y47.34222
G1 F300 X8.06915 Y47.29810
G1 F300 X7.07827 Y47.29538
G1 F300 X6.94350 Y47.34445
G1 F300 X6.86023 Y47.42606
G1 F300 X6.81187 Y47.53683
G1 F300 X6.80448 Y47.66802
G1 F300 X6.08236 Y47.67445
G1 F300 X5.95930 Y47.74023
G1 F300 X5.59559 Y48.10351
G1 F300 X5.36298 Y48.10351
G1 F300 X5.36298 Y47.51351
G1 F300 X5.35287 Y47.48019
G1 F300 X5.32595 Y47.45809
G1 F300 X3.60299 Y47.45352
G1 F300 X3.56057 Y47.47110
G1 F300 X3.54299 Y47.51351
;G04 P0 ; dwell for no time -- G64 should not smooth over this point 
G1 F3000 Z3.00000 ; retract 

G1 F3000 X2.70190 Y43.03923 ; rapid move to begin. 
G1 F300 F300.00000
G1 F300 Z-0.07000
;G04 P0 ; dwell for no time -- G64 should not smooth over this point 
G1 F300 F600.00000
G1 F300 X2.70190 Y43.03923
G1 F300 X2.71145 Y44.91784
G1 F300 X2.77868 Y45.08014
G1 F300 X2.83464 Y45.14834
G1 F300 X2.98071 Y45.24593
G1 F300 X3.16215 Y45.28108
G1 F300 X5.74378 Y45.28108
G1 F300 X5.92521 Y45.24593
G1 F300 X6.00309 Y45.20432
G1 F300 X6.13854 Y45.08560
G1 F300 X6.24418 Y45.06104
G1 F300 X6.32495 Y45.08548
G1 F300 X6.39526 Y45.15662
G1 F300 X6.41810 Y45.23094
G1 F300 X6.41385 Y45.34382
G1 F300 X6.88840 Y45.34382
G1 F300 X6.96331 Y45.28263
G1 F300 X7.04146 Y45.25299
G1 F300 X7.04146 Y44.55104
G1 F300 X6.93740 Y44.54852
G1 F300 X6.80931 Y44.50229
G1 F300 X6.72224 Y44.41847
G1 F300 X6.67387 Y44.30770
G1 F300 X6.66648 Y43.52422
G1 F300 X5.72120 Y42.57895
G1 F300 X5.37746 Y42.57779
G1 F300 X5.31759 Y42.56471
G1 F300 X5.25694 Y42.52417
G1 F300 X5.21640 Y42.46351
G1 F300 X5.20215 Y42.39155
G1 F300 X5.20385 Y42.13186
G1 F300 X5.21861 Y42.07634
G1 F300 X3.80680 Y40.66453
G1 F300 X3.30373 Y40.66453
G1 F300 X3.30063 Y42.42981
G1 F300 X3.25887 Y42.51685
G1 F300 X3.20086 Y42.56257
G1 F300 X2.98071 Y42.61411
G1 F300 X2.83464 Y42.71172
G1 F300 X2.73708 Y42.85777
G1 F300 X2.70190 Y43.03923
;G04 P0 ; dwell for no time -- G64 should not smooth over this point 
G1 F3000 Z3.00000 ; retract 

G1 F3000 X3.09273 Y43.03001 ; rapid move to begin. 
G1 F300 F300.00000
G1 F300 Z-0.07000
;G04 P0 ; dwell for no time -- G64 should not smooth over this point 
G1 F300 F600.00000
G1 F300 X3.09273 Y43.03001
G1 F300 X3.09286 Y44.83023
G1 F300 X3.11953 Y44.88012
G1 F300 X5.75320 Y44.89015
G1 F300 X5.80309 Y44.86348
G1 F300 X5.81312 Y43.02980
G1 F300 X5.78645 Y42.97992
G1 F300 X3.15272 Y42.97001
G1 F300 X3.11031 Y42.98759
G1 F300 X3.09273 Y43.03001
;G04 P0 ; dwell for no time -- G64 should not smooth over this point 
G1 F3000 Z3.00000 ; retract 

G1 F3000 X5.69277 Y40.63014 ; rapid move to begin. 
G1 F300 F300.00000
G1 F300 Z-0.07000
;G04 P0 ; dwell for no time -- G64 should not smooth over this point 
G1 F300 F600.00000
G1 F300 X5.69277 Y40.63014
G1 F300 X5.69293 Y40.02976
G1 F300 X5.70304 Y39.99641
G1 F300 X5.74121 Y39.97091
G1 F300 X7.95299 Y39.96977
G1 F300 X8.00283 Y39.99633
G1 F300 X8.01309 Y40.07002
G1 F300 X8.65215 Y40.07002
G1 F300 X11.88829 Y36.83434
G1 F300 X11.96297 Y36.78445
G1 F300 X12.02289 Y36.76627
G1 F300 X12.42990 Y36.76213
G1 F300 X17.20527 Y31.99582
G1 F300 X17.33880 Y31.95533
G1 F300 X17.68498 Y31.95502
G1 F300 X17.68955 Y31.84204
G1 F300 X17.71165 Y31.81512
G1 F300 X17.74500 Y31.80501
G1 F300 X20.94499 Y31.80501
G1 F300 X20.99488 Y31.83168
G1 F300 X21.00499 Y32.56500
G1 F300 X20.99488 Y32.59835
G1 F300 X20.95670 Y32.62386
G1 F300 X17.74500 Y32.62503
G1 F300 X17.71165 Y32.61489
G1 F300 X17.68955 Y32.58797
G1 F300 X17.68498 Y32.47504
G1 F300 X17.45236 Y32.47504
G1 F300 X12.72144 Y37.20599
G1 F300 X12.64239 Y37.25981
G1 F300 X12.58247 Y37.27800
G1 F300 X12.17546 Y37.28214
G1 F300 X8.89927 Y40.54924
G1 F300 X8.75985 Y40.59003
G1 F300 X8.01309 Y40.59003
G1 F300 X8.00283 Y40.66369
G1 F300 X7.95299 Y40.69026
G1 F300 X5.75274 Y40.69016
G1 F300 X5.71035 Y40.67258
G1 F300 X5.69277 Y40.63014
;G04 P0 ; dwell for no time -- G64 should not smooth over this point 
G1 F3000 Z3.00000 ; retract 

G1 F3000 X5.69295 Y39.03002 ; rapid move to begin. 
G1 F300 F300.00000
G1 F300 Z-0.07000
;G04 P0 ; dwell for no time -- G64 should not smooth over this point 
G1 F300 F600.00000
G1 F300 X5.69295 Y39.03002
G1 F300 X5.69295 Y39.63001
G1 F300 X5.71055 Y39.67243
G1 F300 X5.74129 Y39.68887
G1 F300 X7.95299 Y39.69001
G1 F300 X8.00288 Y39.66334
G1 F300 X8.01299 Y39.59004
G1 F300 X8.91098 Y39.59004
G1 F300 X9.05037 Y39.54924
G1 F300 X11.92685 Y36.68184
G1 F300 X12.17430 Y36.67541
G1 F300 X12.30173 Y36.60569
G1 F300 X17.45236 Y31.45502
G1 F300 X17.68498 Y31.45502
G1 F300 X17.68955 Y31.56798
G1 F300 X17.71165 Y31.59490
G1 F300 X17.74500 Y31.60501
G1 F300 X20.95670 Y31.60387
G1 F300 X20.99488 Y31.57834
G1 F300 X21.00499 Y31.54502
G1 F300 X20.99488 Y30.81167
G1 F300 X20.94499 Y30.78502
G1 F300 X17.74500 Y30.78502
G1 F300 X17.71165 Y30.79513
G1 F300 X17.68955 Y30.82206
G1 F300 X17.68498 Y30.93501
G1 F300 X17.33880 Y30.93532
G1 F300 X17.20527 Y30.97580
G1 F300 X12.01019 Y36.16182
G1 F300 X11.76274 Y36.16825
G1 F300 X11.63531 Y36.23797
G1 F300 X8.80328 Y39.07002
G1 F300 X8.01299 Y39.07002
G1 F300 X8.00288 Y38.99667
G1 F300 X7.95299 Y38.97002
G1 F300 X5.75300 Y38.97002
G1 F300 X5.71055 Y38.98760
G1 F300 X5.69295 Y39.03002
;G04 P0 ; dwell for no time -- G64 should not smooth over this point 
G1 F3000 Z3.00000 ; retract 

G1 F3000 X5.69295 Y38.03002 ; rapid move to begin. 
G1 F300 F300.00000
G1 F300 Z-0.07000
;G04 P0 ; dwell for no time -- G64 should not smooth over this point 
G1 F300 F600.00000
G1 F300 X5.69295 Y38.03002
G1 F300 X5.69295 Y38.63002
G1 F300 X5.71055 Y38.67243
G1 F300 X5.74129 Y38.68887
G1 F300 X7.95299 Y38.69001
G1 F300 X7.98632 Y38.67990
G1 F300 X8.01184 Y38.64173
G1 F300 X8.01299 Y38.03002
G1 F300 X8.00288 Y37.99667
G1 F300 X7.96470 Y37.97117
G1 F300 X5.75300 Y37.97002
G1 F300 X5.71055 Y37.98757
G1 F300 X5.69295 Y38.03002
;G04 P0 ; dwell for no time -- G64 should not smooth over this point 
G1 F3000 Z3.00000 ; retract 

G1 F3000 X5.69295 Y37.03002 ; rapid move to begin. 
G1 F300 F300.00000
G1 F300 Z-0.07000
;G04 P0 ; dwell for no time -- G64 should not smooth over this point 
G1 F300 F600.00000
G1 F300 X5.69295 Y37.03002
G1 F300 X5.69295 Y37.63002
G1 F300 X5.71055 Y37.67244
G1 F300 X5.74129 Y37.68887
G1 F300 X7.95299 Y37.69001
G1 F300 X8.00288 Y37.66334
G1 F300 X8.01299 Y37.59004
G1 F300 X8.48213 Y37.59004
G1 F300 X8.63907 Y37.70246
G1 F300 X8.83592 Y37.78973
G1 F300 X9.05269 Y37.83581
G1 F300 X9.27428 Y37.83581
G1 F300 X9.49104 Y37.78973
G1 F300 X9.68789 Y37.70246
G1 F300 X9.87278 Y37.56934
G1 F300 X10.01710 Y37.40955
G1 F300 X10.13186 Y37.21275
G1 F300 X10.19871 Y37.00807
G1 F300 X10.22317 Y36.77533
G1 F300 X10.19871 Y36.55517
G1 F300 X10.13186 Y36.35047
G1 F300 X10.01710 Y36.15367
G1 F300 X9.87278 Y35.99388
G1 F300 X9.69876 Y35.86706
G1 F300 X9.49104 Y35.77348
G1 F300 X9.27428 Y35.72743
G1 F300 X9.05269 Y35.72743
G1 F300 X8.83592 Y35.77348
G1 F300 X8.62823 Y35.86706
G1 F300 X8.45421 Y35.99388
G1 F300 X8.30250 Y36.16383
G1 F300 X8.19513 Y36.35047
G1 F300 X8.12566 Y36.56744
G1 F300 X8.10349 Y36.78161
G1 F300 X8.12566 Y36.99581
G1 F300 X8.14842 Y37.07003
G1 F300 X8.01299 Y37.07003
G1 F300 X8.00288 Y36.99667
G1 F300 X7.95299 Y36.97003
G1 F300 X5.75300 Y36.97003
G1 F300 X5.71055 Y36.98758
G1 F300 X5.69295 Y37.03002
;G04 P0 ; dwell for no time -- G64 should not smooth over this point 
G1 F3000 Z3.00000 ; retract 

G1 F3000 X5.69295 Y35.03002 ; rapid move to begin. 
G1 F300 F300.00000
G1 F300 Z-0.07000
;G04 P0 ; dwell for no time -- G64 should not smooth over this point 
G1 F300 F600.00000
G1 F300 X5.69295 Y35.03002
G1 F300 X5.69295 Y35.63002
G1 F300 X5.71055 Y35.67244
G1 F300 X5.75300 Y35.69002
G1 F300 X7.95299 Y35.69002
G1 F300 X8.00288 Y35.66335
G1 F300 X8.01299 Y35.59004
G1 F300 X12.18969 Y35.59004
G1 F300 X12.28362 Y35.57224
G1 F300 X12.37353 Y35.51389
G1 F300 X17.45236 Y30.43504
G1 F300 X17.68498 Y30.43504
G1 F300 X17.68955 Y30.54797
G1 F300 X17.71165 Y30.57489
G1 F300 X17.74500 Y30.58502
G1 F300 X20.95670 Y30.58386
G1 F300 X20.99488 Y30.55835
G1 F300 X21.00499 Y30.52500
G1 F300 X21.00041 Y29.80204
G1 F300 X20.97832 Y29.77512
G1 F300 X20.94499 Y29.76501
G1 F300 X17.74500 Y29.76501
G1 F300 X17.71165 Y29.77512
G1 F300 X17.68955 Y29.80204
G1 F300 X17.68498 Y29.91502
G1 F300 X17.33880 Y29.91533
G1 F300 X17.20527 Y29.95582
G1 F300 X12.08199 Y35.07003
G1 F300 X8.01299 Y35.07003
G1 F300 X8.00288 Y34.99667
G1 F300 X7.95299 Y34.97000
G1 F300 X5.75300 Y34.97000
G1 F300 X5.71055 Y34.98758
G1 F300 X5.69295 Y35.03002
;G04 P0 ; dwell for no time -- G64 should not smooth over this point 
G1 F3000 Z3.00000 ; retract 

G1 F3000 X5.69295 Y34.03000 ; rapid move to begin. 
G1 F300 F300.00000
G1 F300 Z-0.07000
;G04 P0 ; dwell for no time -- G64 should not smooth over this point 
G1 F300 F600.00000
G1 F300 X5.69295 Y34.03000
G1 F300 X5.69295 Y34.63002
G1 F300 X5.71055 Y34.67244
G1 F300 X5.75300 Y34.69002
G1 F300 X7.95299 Y34.69002
G1 F300 X8.00288 Y34.66335
G1 F300 X8.01299 Y34.59002
G1 F300 X12.08989 Y34.59002
G1 F300 X12.18382 Y34.57221
G1 F300 X12.27374 Y34.51387
G1 F300 X17.37256 Y29.41502
G1 F300 X17.68498 Y29.41502
G1 F300 X17.68955 Y29.52798
G1 F300 X17.71165 Y29.55490
G1 F300 X17.74500 Y29.56501
G1 F300 X20.95670 Y29.56387
G1 F300 X20.99488 Y29.53834
G1 F300 X21.00499 Y29.50502
G1 F300 X21.00041 Y28.78206
G1 F300 X20.97832 Y28.75513
G1 F300 X20.94499 Y28.74502
G1 F300 X17.74500 Y28.74502
G1 F300 X17.71165 Y28.75513
G1 F300 X17.68955 Y28.78206
G1 F300 X17.68498 Y28.89501
G1 F300 X17.25899 Y28.89531
G1 F300 X17.12547 Y28.93580
G1 F300 X11.98220 Y34.07001
G1 F300 X8.01299 Y34.07001
G1 F300 X8.00288 Y33.99668
G1 F300 X7.95299 Y33.97001
G1 F300 X5.75300 Y33.97001
G1 F300 X5.71055 Y33.98758
G1 F300 X5.69295 Y34.03000
;G04 P0 ; dwell for no time -- G64 should not smooth over this point 
G1 F3000 Z3.00000 ; retract 

G1 F3000 X5.69295 Y32.03000 ; rapid move to begin. 
G1 F300 F300.00000
G1 F300 Z-0.07000
;G04 P0 ; dwell for no time -- G64 should not smooth over this point 
G1 F300 F600.00000
G1 F300 X5.69295 Y32.03000
G1 F300 X5.69295 Y32.63000
G1 F300 X5.71055 Y32.67245
G1 F300 X5.74129 Y32.68886
G1 F300 X7.95299 Y32.69002
G1 F300 X8.00288 Y32.66335
G1 F300 X8.01299 Y32.59002
G1 F300 X11.14836 Y32.58972
G1 F300 X11.23643 Y32.57222
G1 F300 X11.29167 Y32.54270
G1 F300 X11.53081 Y32.30940
G1 F300 X11.74524 Y32.40783
G1 F300 X11.96825 Y32.45424
G1 F300 X12.18359 Y32.45391
G1 F300 X12.39428 Y32.40946
G1 F300 X12.60805 Y32.31428
G1 F300 X12.78651 Y32.18301
G1 F300 X12.93376 Y32.01751
G1 F300 X13.03830 Y31.83646
G1 F300 X13.11062 Y31.61390
G1 F300 X13.13246 Y31.39343
G1 F300 X13.10800 Y31.17326
G1 F300 X13.04115 Y30.96856
G1 F300 X12.93376 Y30.78192
G1 F300 X12.78207 Y30.61197
G1 F300 X12.60805 Y30.48515
G1 F300 X12.40036 Y30.39160
G1 F300 X12.18359 Y30.34553
G1 F300 X11.96198 Y30.34553
G1 F300 X11.74524 Y30.39160
G1 F300 X11.53752 Y30.48515
G1 F300 X11.35906 Y30.61642
G1 F300 X11.21181 Y30.78192
G1 F300 X11.10729 Y30.96298
G1 F300 X11.03757 Y31.17326
G1 F300 X11.01311 Y31.40598
G1 F300 X11.03757 Y31.62617
G1 F300 X11.10442 Y31.83084
G1 F300 X11.16625 Y31.93856
G1 F300 X11.03480 Y32.07001
G1 F300 X8.01299 Y32.07001
G1 F300 X8.00288 Y31.99668
G1 F300 X7.95299 Y31.97001
G1 F300 X5.75300 Y31.97001
G1 F300 X5.71055 Y31.98759
G1 F300 X5.69295 Y32.03000
;G04 P0 ; dwell for no time -- G64 should not smooth over this point 
G1 F3000 Z3.00000 ; retract 

G1 F3000 X5.69295 Y31.03001 ; rapid move to begin. 
G1 F300 F300.00000
G1 F300 Z-0.07000
;G04 P0 ; dwell for no time -- G64 should not smooth over this point 
G1 F300 F600.00000
G1 F300 X5.69295 Y31.03001
G1 F300 X5.69295 Y31.63001
G1 F300 X5.71055 Y31.67245
G1 F300 X5.74129 Y31.68886
G1 F300 X7.95299 Y31.69000
G1 F300 X8.00288 Y31.66336
G1 F300 X8.01299 Y31.59003
G1 F300 X9.08065 Y31.58972
G1 F300 X9.17958 Y31.56770
G1 F300 X9.28129 Y31.49119
G1 F300 X9.50178 Y31.59127
G1 F300 X9.71248 Y31.63569
G1 F300 X9.93409 Y31.63569
G1 F300 X10.15085 Y31.58964
G1 F300 X10.34768 Y31.50234
G1 F300 X10.53257 Y31.36925
G1 F300 X10.67689 Y31.20946
G1 F300 X10.79165 Y31.01266
G1 F300 X10.85850 Y30.80796
G1 F300 X10.88329 Y30.58152
G1 F300 X10.86112 Y30.36732
G1 F300 X10.78880 Y30.14477
G1 F300 X10.67689 Y29.95358
G1 F300 X10.52769 Y29.78983
G1 F300 X10.34768 Y29.66067
G1 F300 X10.15085 Y29.57339
G1 F300 X9.93409 Y29.52732
G1 F300 X9.71248 Y29.52732
G1 F300 X9.49574 Y29.57339
G1 F300 X9.28802 Y29.66694
G1 F300 X9.10956 Y29.79821
G1 F300 X8.96968 Y29.95358
G1 F300 X8.85779 Y30.14477
G1 F300 X8.78807 Y30.35505
G1 F300 X8.76328 Y30.58152
G1 F300 X8.78807 Y30.80796
G1 F300 X8.85269 Y31.00679
G1 F300 X8.88766 Y31.07001
G1 F300 X8.01299 Y31.07001
G1 F300 X8.00288 Y30.99668
G1 F300 X7.95299 Y30.97001
G1 F300 X5.75300 Y30.97001
G1 F300 X5.71055 Y30.98759
G1 F300 X5.69295 Y31.03001
;G04 P0 ; dwell for no time -- G64 should not smooth over this point 
G1 F3000 Z3.00000 ; retract 

G1 F3000 X5.69295 Y29.03001 ; rapid move to begin. 
G1 F300 F300.00000
G1 F300 Z-0.07000
;G04 P0 ; dwell for no time -- G64 should not smooth over this point 
G1 F300 F600.00000
G1 F300 X5.69295 Y29.03001
G1 F300 X5.69295 Y29.63001
G1 F300 X5.71055 Y29.67243
G1 F300 X5.75300 Y29.69000
G1 F300 X7.95299 Y29.69000
G1 F300 X8.00288 Y29.66336
G1 F300 X8.01299 Y29.59003
G1 F300 X8.35330 Y29.59003
G1 F300 X8.44723 Y29.57222
G1 F300 X8.53277 Y29.51782
G1 F300 X8.62706 Y29.42394
G1 F300 X16.32166 Y29.42363
G1 F300 X16.42059 Y29.40161
G1 F300 X16.49964 Y29.34779
G1 F300 X17.45236 Y28.39504
G1 F300 X17.68498 Y28.39504
G1 F300 X17.68955 Y28.50796
G1 F300 X17.71165 Y28.53489
G1 F300 X17.74500 Y28.54502
G1 F300 X20.96795 Y28.54045
G1 F300 X20.99488 Y28.51835
G1 F300 X21.00499 Y28.48500
G1 F300 X21.00499 Y27.78500
G1 F300 X20.98741 Y27.74259
G1 F300 X20.94499 Y27.72501
G1 F300 X17.73329 Y27.72618
G1 F300 X17.68955 Y27.76204
G1 F300 X17.68498 Y27.87502
G1 F300 X17.33880 Y27.87533
G1 F300 X17.25074 Y27.89283
G1 F300 X17.19549 Y27.92234
G1 F300 X16.20809 Y28.90392
G1 F300 X8.51936 Y28.90392
G1 F300 X8.37997 Y28.94472
G1 F300 X8.24560 Y29.07002
G1 F300 X8.01299 Y29.07002
G1 F300 X8.00288 Y28.99669
G1 F300 X7.95299 Y28.97002
G1 F300 X5.75300 Y28.97002
G1 F300 X5.71055 Y28.98759
G1 F300 X5.69295 Y29.03001
;G04 P0 ; dwell for no time -- G64 should not smooth over this point 
G1 F3000 Z3.00000 ; retract 

G1 F3000 X5.69295 Y28.03001 ; rapid move to begin. 
G1 F300 F300.00000
G1 F300 Z-0.07000
;G04 P0 ; dwell for no time -- G64 should not smooth over this point 
G1 F300 F600.00000
G1 F300 X5.69295 Y28.03001
G1 F300 X5.69295 Y28.63001
G1 F300 X5.71055 Y28.67243
G1 F300 X5.75300 Y28.69001
G1 F300 X7.95299 Y28.69001
G1 F300 X8.00288 Y28.66334
G1 F300 X8.01299 Y28.59003
G1 F300 X15.96466 Y28.58973
G1 F300 X16.06359 Y28.56771
G1 F300 X16.14264 Y28.51388
G1 F300 X17.28147 Y27.37502
G1 F300 X17.68498 Y27.37502
G1 F300 X17.68955 Y27.48798
G1 F300 X17.71165 Y27.51490
G1 F300 X17.74500 Y27.52501
G1 F300 X20.96795 Y27.52044
G1 F300 X20.99488 Y27.49834
G1 F300 X21.00499 Y27.46502
G1 F300 X21.00499 Y26.76502
G1 F300 X20.98741 Y26.72262
G1 F300 X20.94499 Y26.70502
G1 F300 X17.74500 Y26.70502
G1 F300 X17.71165 Y26.71513
G1 F300 X17.68955 Y26.74208
G1 F300 X17.68498 Y26.85501
G1 F300 X17.11734 Y26.86143
G1 F300 X16.98991 Y26.93116
G1 F300 X15.85107 Y28.07002
G1 F300 X8.01299 Y28.07002
G1 F300 X8.00288 Y27.99669
G1 F300 X7.95299 Y27.97002
G1 F300 X5.75300 Y27.97002
G1 F300 X5.71055 Y27.98759
G1 F300 X5.69295 Y28.03001
;G04 P0 ; dwell for no time -- G64 should not smooth over this point 
G1 F3000 Z3.00000 ; retract 

G1 F3000 X5.09267 Y27.33004 ; rapid move to begin. 
G1 F300 F300.00000
G1 F300 Z-0.07000
;G04 P0 ; dwell for no time -- G64 should not smooth over this point 
G1 F300 F600.00000
G1 F300 X5.09267 Y27.33004
G1 F300 X5.09267 Y36.33002
G1 F300 X5.11048 Y36.42398
G1 F300 X5.16486 Y36.50952
G1 F300 X5.25871 Y36.57224
G1 F300 X5.35269 Y36.59004
G1 F300 X5.69295 Y36.59004
G1 F300 X5.70311 Y36.66335
G1 F300 X5.75300 Y36.69002
G1 F300 X7.97595 Y36.68544
G1 F300 X8.00288 Y36.66335
G1 F300 X8.01299 Y36.63002
G1 F300 X8.01299 Y36.03002
G1 F300 X8.00288 Y35.99667
G1 F300 X7.96470 Y35.97117
G1 F300 X5.75300 Y35.97000
G1 F300 X5.70311 Y35.99667
G1 F300 X5.69295 Y36.07003
G1 F300 X5.61266 Y36.07003
G1 F300 X5.61266 Y33.59002
G1 F300 X5.69295 Y33.59002
G1 F300 X5.70311 Y33.66335
G1 F300 X5.75300 Y33.69002
G1 F300 X7.95299 Y33.69002
G1 F300 X8.00288 Y33.66335
G1 F300 X8.01299 Y33.58578
G1 F300 X8.19282 Y33.64052
G1 F300 X8.35474 Y33.64379
G1 F300 X8.46724 Y33.68202
G1 F300 X11.74402 Y33.68202
G1 F300 X11.81557 Y33.66777
G1 F300 X11.87623 Y33.62723
G1 F300 X12.33652 Y33.16693
G1 F300 X12.38049 Y33.09503
G1 F300 X12.38707 Y32.99536
G1 F300 X12.35979 Y32.93082
G1 F300 X12.31730 Y32.88670
G1 F300 X12.24102 Y32.85136
G1 F300 X11.93018 Y32.84776
G1 F300 X11.65918 Y32.79797
G1 F300 X11.57011 Y32.82129
G1 F300 X11.39165 Y32.93160
G1 F300 X11.26952 Y32.96866
G1 F300 X11.14204 Y32.98118
G1 F300 X8.46724 Y32.97801
G1 F300 X8.35474 Y33.01624
G1 F300 X8.19277 Y33.01951
G1 F300 X8.01299 Y33.07427
G1 F300 X8.00288 Y32.99668
G1 F300 X7.95299 Y32.97001
G1 F300 X5.75300 Y32.97001
G1 F300 X5.70311 Y32.99668
G1 F300 X5.69295 Y33.07001
G1 F300 X5.61266 Y33.07001
G1 F300 X5.61266 Y30.59003
G1 F300 X5.69295 Y30.59003
G1 F300 X5.70311 Y30.66336
G1 F300 X5.75300 Y30.69000
G1 F300 X7.95299 Y30.69000
G1 F300 X7.99541 Y30.67245
G1 F300 X8.01299 Y30.63001
G1 F300 X8.01299 Y30.03001
G1 F300 X8.00288 Y29.99668
G1 F300 X7.96470 Y29.97116
G1 F300 X5.75300 Y29.97001
G1 F300 X5.70311 Y29.99668
G1 F300 X5.69295 Y30.07001
G1 F300 X5.61266 Y30.07001
G1 F300 X5.61266 Y27.59006
G1 F300 X5.69295 Y27.59006
G1 F300 X5.70311 Y27.66334
G1 F300 X5.75300 Y27.69001
G1 F300 X7.95299 Y27.69001
G1 F300 X8.00288 Y27.66334
G1 F300 X8.01299 Y27.59006
G1 F300 X8.19970 Y27.64185
G1 F300 X8.35474 Y27.64381
G1 F300 X8.46724 Y27.68203
G1 F300 X13.85562 Y27.68203
G1 F300 X13.92443 Y27.66885
G1 F300 X14.00939 Y27.60131
G1 F300 X14.04262 Y27.49501
G1 F300 X13.99342 Y27.33908
G1 F300 X13.93779 Y27.05938
G1 F300 X13.93779 Y26.77411
G1 F300 X13.99342 Y26.49435
G1 F300 X14.10259 Y26.23085
G1 F300 X14.26103 Y25.99372
G1 F300 X14.46273 Y25.79202
G1 F300 X14.69989 Y25.63352
G1 F300 X15.00370 Y25.51224
G1 F300 X15.08219 Y25.44897
G1 F300 X15.11724 Y25.34061
G1 F300 X15.06868 Y25.07808
G1 F300 X15.06868 Y24.79253
G1 F300 X15.12433 Y24.51275
G1 F300 X15.23347 Y24.24925
G1 F300 X15.39194 Y24.01209
G1 F300 X15.59362 Y23.81039
G1 F300 X15.83080 Y23.65194
G1 F300 X16.09433 Y23.54277
G1 F300 X16.37403 Y23.48712
G1 F300 X16.65930 Y23.48712
G1 F300 X16.93903 Y23.54277
G1 F300 X17.20256 Y23.65194
G1 F300 X17.43974 Y23.81039
G1 F300 X17.64162 Y24.01229
G1 F300 X17.78226 Y24.21727
G1 F300 X17.87982 Y24.27036
G1 F300 X21.02383 Y24.27952
G1 F300 X21.13021 Y24.23581
G1 F300 X21.17760 Y24.17467
G1 F300 X21.19648 Y24.09324
G1 F300 X21.20295 Y21.55710
G1 F300 X21.27026 Y21.39464
G1 F300 X21.39457 Y21.27031
G1 F300 X21.47252 Y21.22865
G1 F300 X21.64791 Y21.19406
G1 F300 X24.49573 Y21.19292
G1 F300 X24.56317 Y21.16498
G1 F300 X24.61476 Y21.11331
G1 F300 X24.64201 Y21.04875
G1 F300 X24.64097 Y20.97018
G1 F300 X24.67590 Y20.90902
G1 F300 X25.04427 Y20.90902
G1 F300 X25.08605 Y21.00201
G1 F300 X25.18212 Y21.13480
G1 F300 X25.31252 Y21.25355
G1 F300 X25.46576 Y21.34090
G1 F300 X25.62794 Y21.39221
G1 F300 X25.79098 Y21.40902
G1 F300 X27.29898 Y21.40902
G1 F300 X27.47429 Y21.38959
G1 F300 X27.63007 Y21.33864
G1 F300 X27.78232 Y21.24961
G1 F300 X27.90787 Y21.13480
G1 F300 X28.00393 Y21.00201
G1 F300 X28.04569 Y20.90902
G1 F300 X28.41406 Y20.90902
G1 F300 X28.44896 Y20.97016
G1 F300 X28.44792 Y21.04870
G1 F300 X28.47515 Y21.11329
G1 F300 X28.52676 Y21.16495
G1 F300 X28.59413 Y21.19289
G1 F300 X29.48480 Y21.19652
G1 F300 X29.58638 Y21.16658
G1 F300 X29.65219 Y21.09144
G1 F300 X29.67197 Y21.00950
G1 F300 X29.66496 Y17.73278
G1 F300 X29.61505 Y17.64626
G1 F300 X29.55653 Y17.60776
G1 F300 X29.49666 Y17.59468
G1 F300 X28.60576 Y17.59597
G1 F300 X28.52676 Y17.62508
G1 F300 X28.47515 Y17.67674
G1 F300 X28.44792 Y17.74134
G1 F300 X28.44896 Y17.81990
G1 F300 X28.41409 Y17.88101
G1 F300 X28.04569 Y17.88101
G1 F300 X28.00393 Y17.78802
G1 F300 X27.90787 Y17.65523
G1 F300 X27.77218 Y17.53306
G1 F300 X27.63007 Y17.45140
G1 F300 X27.47429 Y17.40042
G1 F300 X27.29898 Y17.38101
G1 F300 X25.79098 Y17.38101
G1 F300 X25.61567 Y17.40042
G1 F300 X25.45989 Y17.45140
G1 F300 X25.30764 Y17.54042
G1 F300 X25.18212 Y17.65523
G1 F300 X25.08605 Y17.78802
G1 F300 X25.04427 Y17.88101
G1 F300 X24.67587 Y17.88101
G1 F300 X24.64097 Y17.81987
G1 F300 X24.64201 Y17.74129
G1 F300 X24.61476 Y17.67669
G1 F300 X24.56317 Y17.62506
G1 F300 X24.48400 Y17.59595
G1 F300 X21.55703 Y17.58703
G1 F300 X21.39460 Y17.51975
G1 F300 X21.32630 Y17.46369
G1 F300 X21.22861 Y17.31749
G1 F300 X21.20295 Y17.23293
G1 F300 X21.19648 Y14.69682
G1 F300 X21.17760 Y14.61538
G1 F300 X21.13021 Y14.55425
G1 F300 X21.02795 Y14.51068
G1 F300 X17.75417 Y14.51609
G1 F300 X17.58663 Y14.48851
G1 F300 X17.51056 Y14.49654
G1 F300 X17.43397 Y14.54216
G1 F300 X13.92344 Y18.05716
G1 F300 X13.82443 Y18.13841
G1 F300 X13.71186 Y18.19861
G1 F300 X13.58974 Y18.23565
G1 F300 X13.46223 Y18.24819
G1 F300 X8.55746 Y18.24812
G1 F300 X8.45883 Y18.29981
G1 F300 X8.41631 Y18.36600
G1 F300 X8.39450 Y18.98484
G1 F300 X8.32729 Y19.14712
G1 F300 X8.20306 Y19.27133
G1 F300 X8.04080 Y19.33854
G1 F300 X7.94380 Y19.34809
G1 F300 X6.91048 Y19.34809
G1 F300 X6.84131 Y19.36158
G1 F300 X6.77756 Y19.40384
G1 F300 X6.73610 Y19.46810
G1 F300 X6.72485 Y19.55589
G1 F300 X6.82980 Y19.83371
G1 F300 X6.84235 Y19.96119
G1 F300 X6.84235 Y25.77007
G1 F300 X6.82980 Y25.89756
G1 F300 X6.79275 Y26.01975
G1 F300 X6.73260 Y26.13228
G1 F300 X6.52518 Y26.35290
G1 F300 X6.47540 Y26.44294
G1 F300 X6.48355 Y26.55397
G1 F300 X6.53897 Y26.63002
G1 F300 X6.53897 Y26.97005
G1 F300 X5.75300 Y26.97005
G1 F300 X5.70311 Y26.99669
G1 F300 X5.69295 Y27.07004
G1 F300 X5.29625 Y27.07650
G1 F300 X5.20349 Y27.11737
G1 F300 X5.13999 Y27.18087
G1 F300 X5.11048 Y27.23611
G1 F300 X5.09267 Y27.33004
;G04 P0 ; dwell for no time -- G64 should not smooth over this point 
G1 F3000 Z3.00000 ; retract 

G1 F3000 X7.16699 Y26.63123 ; rapid move to begin. 
G1 F300 F300.00000
G1 F300 Z-0.07000
;G04 P0 ; dwell for no time -- G64 should not smooth over this point 
G1 F300 F600.00000
G1 F300 X7.16699 Y26.63123
G1 F300 X7.16699 Y26.97005
G1 F300 X7.95299 Y26.97005
G1 F300 X7.98632 Y26.98013
G1 F300 X8.01113 Y27.01604
G1 F300 X8.29963 Y27.01604
G1 F300 X8.38959 Y26.92608
G1 F300 X8.32729 Y26.77993
G1 F300 X8.27131 Y26.71173
G1 F300 X8.12523 Y26.61411
G1 F300 X8.04080 Y26.58851
G1 F300 X7.21649 Y26.58173
G1 F300 X7.16699 Y26.63123
;G04 P0 ; dwell for no time -- G64 should not smooth over this point 
G1 F3000 Z3.00000 ; retract 

G1 F3000 X3.09273 Y23.83002 ; rapid move to begin. 
G1 F300 F300.00000
G1 F300 Z-0.07000
;G04 P0 ; dwell for no time -- G64 should not smooth over this point 
G1 F300 F600.00000
G1 F300 X3.09273 Y23.83002
G1 F300 X3.09286 Y25.63022
G1 F300 X3.11953 Y25.68011
G1 F300 X5.75320 Y25.69016
G1 F300 X5.80309 Y25.66349
G1 F300 X5.81312 Y23.82979
G1 F300 X5.78645 Y23.77991
G1 F300 X3.15272 Y23.77000
G1 F300 X3.11031 Y23.78758
G1 F300 X3.09273 Y23.83002
;G04 P0 ; dwell for no time -- G64 should not smooth over this point 
G1 F3000 Z3.00000 ; retract 

G1 F3000 X3.09273 Y20.29701 ; rapid move to begin. 
G1 F300 F300.00000
G1 F300 Z-0.07000
;G04 P0 ; dwell for no time -- G64 should not smooth over this point 
G1 F300 F600.00000
G1 F300 X3.09273 Y20.29701
G1 F300 X3.09286 Y22.09723
G1 F300 X3.11953 Y22.14712
G1 F300 X5.75320 Y22.15715
G1 F300 X5.80309 Y22.13048
G1 F300 X5.81312 Y20.29680
G1 F300 X5.78645 Y20.24692
G1 F300 X3.15272 Y20.23701
G1 F300 X3.11031 Y20.25459
G1 F300 X3.09273 Y20.29701
;G04 P0 ; dwell for no time -- G64 should not smooth over this point 
G1 F3000 Z3.00000 ; retract 

G1 F3000 X5.69295 Y17.29701 ; rapid move to begin. 
G1 F300 F300.00000
G1 F300 Z-0.07000
;G04 P0 ; dwell for no time -- G64 should not smooth over this point 
G1 F300 F600.00000
G1 F300 X5.69295 Y17.29701
G1 F300 X5.69295 Y17.89701
G1 F300 X5.71055 Y17.93943
G1 F300 X5.75300 Y17.95701
G1 F300 X7.95299 Y17.95701
G1 F300 X8.00288 Y17.93034
G1 F300 X8.01299 Y17.85703
G1 F300 X13.51910 Y17.85061
G1 F300 X13.64653 Y17.78088
G1 F300 X17.45236 Y13.97502
G1 F300 X17.68498 Y13.97502
G1 F300 X17.68955 Y14.08798
G1 F300 X17.71165 Y14.11490
G1 F300 X17.74500 Y14.12501
G1 F300 X20.95670 Y14.12387
G1 F300 X20.99488 Y14.09834
G1 F300 X21.00499 Y14.06502
G1 F300 X21.00384 Y13.35331
G1 F300 X20.98741 Y13.32257
G1 F300 X20.94499 Y13.30502
G1 F300 X17.74500 Y13.30502
G1 F300 X17.71165 Y13.31513
G1 F300 X17.68955 Y13.34206
G1 F300 X17.68498 Y13.45501
G1 F300 X17.34469 Y13.45501
G1 F300 X17.23987 Y13.47734
G1 F300 X17.16082 Y13.53116
G1 F300 X13.35499 Y17.33702
G1 F300 X8.01299 Y17.33702
G1 F300 X8.00288 Y17.26369
G1 F300 X7.95299 Y17.23702
G1 F300 X5.75300 Y17.23702
G1 F300 X5.71055 Y17.25460
G1 F300 X5.69295 Y17.29701
;G04 P0 ; dwell for no time -- G64 should not smooth over this point 
G1 F3000 Z3.00000 ; retract 

G1 F3000 X5.69275 Y16.89709 ; rapid move to begin. 
G1 F300 F300.00000
G1 F300 Z-0.07000
;G04 P0 ; dwell for no time -- G64 should not smooth over this point 
G1 F300 F600.00000
G1 F300 X5.69275 Y16.89709
G1 F300 X5.69293 Y16.29674
G1 F300 X5.71053 Y16.25432
G1 F300 X5.74121 Y16.23791
G1 F300 X7.95299 Y16.23677
G1 F300 X8.00283 Y16.26334
G1 F300 X8.01309 Y16.33702
G1 F300 X10.70480 Y16.33702
G1 F300 X14.53063 Y12.51117
G1 F300 X14.65806 Y12.44145
G1 F300 X17.68498 Y12.43502
G1 F300 X17.68955 Y12.32204
G1 F300 X17.71165 Y12.29512
G1 F300 X17.74500 Y12.28501
G1 F300 X20.94499 Y12.28501
G1 F300 X20.97832 Y12.29512
G1 F300 X21.00384 Y12.33330
G1 F300 X21.00499 Y13.04500
G1 F300 X20.99488 Y13.07835
G1 F300 X20.95670 Y13.10386
G1 F300 X17.74500 Y13.10502
G1 F300 X17.71165 Y13.09489
G1 F300 X17.68955 Y13.06796
G1 F300 X17.68498 Y12.95504
G1 F300 X14.82217 Y12.95504
G1 F300 X10.99634 Y16.78089
G1 F300 X10.86891 Y16.85061
G1 F300 X8.01309 Y16.85704
G1 F300 X8.00283 Y16.93067
G1 F300 X7.95299 Y16.95726
G1 F300 X5.75274 Y16.95711
G1 F300 X5.71030 Y16.93953
G1 F300 X5.69275 Y16.89709
;G04 P0 ; dwell for no time -- G64 should not smooth over this point 
G1 F3000 Z3.00000 ; retract 

G1 F3000 X5.69295 Y15.29702 ; rapid move to begin. 
G1 F300 F300.00000
G1 F300 Z-0.07000
;G04 P0 ; dwell for no time -- G64 should not smooth over this point 
G1 F300 F600.00000
G1 F300 X5.69295 Y15.29702
G1 F300 X5.69295 Y15.89702
G1 F300 X5.71055 Y15.93943
G1 F300 X5.74129 Y15.95587
G1 F300 X7.95299 Y15.95701
G1 F300 X7.98632 Y15.94690
G1 F300 X8.01184 Y15.90873
G1 F300 X8.01299 Y15.29702
G1 F300 X8.00288 Y15.26367
G1 F300 X7.96470 Y15.23817
G1 F300 X5.75300 Y15.23702
G1 F300 X5.71055 Y15.25457
G1 F300 X5.69295 Y15.29702
;G04 P0 ; dwell for no time -- G64 should not smooth over this point 
G1 F3000 Z3.00000 ; retract 

G1 F3000 X5.69295 Y14.29702 ; rapid move to begin. 
G1 F300 F300.00000
G1 F300 Z-0.07000
;G04 P0 ; dwell for no time -- G64 should not smooth over this point 
G1 F300 F600.00000
G1 F300 X5.69295 Y14.29702
G1 F300 X5.69295 Y14.89702
G1 F300 X5.70311 Y14.93034
G1 F300 X5.73004 Y14.95244
G1 F300 X7.95299 Y14.95701
G1 F300 X8.00288 Y14.93034
G1 F300 X8.01299 Y14.85704
G1 F300 X8.14596 Y14.85704
G1 F300 X8.20044 Y15.02796
G1 F300 X8.30791 Y15.21480
G1 F300 X8.45962 Y15.38475
G1 F300 X8.63361 Y15.51157
G1 F300 X8.83547 Y15.60288
G1 F300 X9.06437 Y15.65153
G1 F300 X9.28588 Y15.65023
G1 F300 X9.49645 Y15.60512
G1 F300 X9.69330 Y15.51785
G1 F300 X9.87816 Y15.38475
G1 F300 X10.02645 Y15.22006
G1 F300 X10.13724 Y15.02816
G1 F300 X10.20409 Y14.82346
G1 F300 X10.22855 Y14.60329
G1 F300 X10.20671 Y14.38282
G1 F300 X10.13724 Y14.16588
G1 F300 X10.02645 Y13.97396
G1 F300 X9.88261 Y13.81371
G1 F300 X9.69330 Y13.67617
G1 F300 X9.49645 Y13.58889
G1 F300 X9.27341 Y13.54249
G1 F300 X9.06437 Y13.54249
G1 F300 X8.84740 Y13.58727
G1 F300 X8.63361 Y13.68244
G1 F300 X8.45962 Y13.80929
G1 F300 X8.31134 Y13.97396
G1 F300 X8.20044 Y14.16608
G1 F300 X8.14596 Y14.33702
G1 F300 X8.01299 Y14.33702
G1 F300 X8.00288 Y14.26367
G1 F300 X7.95299 Y14.23703
G1 F300 X5.75300 Y14.23703
G1 F300 X5.71055 Y14.25458
G1 F300 X5.69295 Y14.29702
;G04 P0 ; dwell for no time -- G64 should not smooth over this point 
G1 F3000 Z3.00000 ; retract 

G1 F3000 X5.69295 Y12.29702 ; rapid move to begin. 
G1 F300 F300.00000
G1 F300 Z-0.07000
;G04 P0 ; dwell for no time -- G64 should not smooth over this point 
G1 F300 F600.00000
G1 F300 X5.69295 Y12.29702
G1 F300 X5.69295 Y12.89702
G1 F300 X5.71055 Y12.93944
G1 F300 X5.74129 Y12.95585
G1 F300 X7.95299 Y12.95702
G1 F300 X8.00288 Y12.93035
G1 F300 X8.01299 Y12.85704
G1 F300 X8.35916 Y12.85674
G1 F300 X8.44725 Y12.83924
G1 F300 X8.50247 Y12.80970
G1 F300 X9.38299 Y11.93502
G1 F300 X17.68498 Y11.93502
G1 F300 X17.68955 Y12.04798
G1 F300 X17.71165 Y12.07490
G1 F300 X17.74500 Y12.08501
G1 F300 X20.94499 Y12.08501
G1 F300 X20.98741 Y12.06743
G1 F300 X21.00499 Y12.02502
G1 F300 X21.00499 Y11.32502
G1 F300 X20.98741 Y11.28260
G1 F300 X20.94499 Y11.26502
G1 F300 X17.74500 Y11.26502
G1 F300 X17.71165 Y11.27513
G1 F300 X17.68955 Y11.30206
G1 F300 X17.68498 Y11.41501
G1 F300 X9.26940 Y11.41531
G1 F300 X9.18131 Y11.43281
G1 F300 X9.09579 Y11.48722
G1 F300 X8.24558 Y12.33703
G1 F300 X8.01299 Y12.33703
G1 F300 X8.00288 Y12.26367
G1 F300 X7.95299 Y12.23700
G1 F300 X5.75300 Y12.23700
G1 F300 X5.71055 Y12.25458
G1 F300 X5.69295 Y12.29702
;G04 P0 ; dwell for no time -- G64 should not smooth over this point 
G1 F3000 Z3.00000 ; retract 

G1 F3000 X5.69295 Y11.29700 ; rapid move to begin. 
G1 F300 F300.00000
G1 F300 Z-0.07000
;G04 P0 ; dwell for no time -- G64 should not smooth over this point 
G1 F300 F600.00000
G1 F300 X5.69295 Y11.29700
G1 F300 X5.69295 Y11.89702
G1 F300 X5.71055 Y11.93944
G1 F300 X5.74129 Y11.95585
G1 F300 X7.95299 Y11.95702
G1 F300 X8.00288 Y11.93035
G1 F300 X8.01299 Y11.85702
G1 F300 X8.35916 Y11.85672
G1 F300 X8.44723 Y11.83921
G1 F300 X8.50247 Y11.80970
G1 F300 X9.40295 Y10.91504
G1 F300 X17.68498 Y10.91504
G1 F300 X17.68955 Y11.02796
G1 F300 X17.71165 Y11.05491
G1 F300 X17.74500 Y11.06502
G1 F300 X20.94499 Y11.06502
G1 F300 X20.98741 Y11.04745
G1 F300 X21.00499 Y11.00500
G1 F300 X21.00499 Y10.30500
G1 F300 X20.98741 Y10.26259
G1 F300 X20.94499 Y10.24501
G1 F300 X17.74500 Y10.24501
G1 F300 X17.71165 Y10.25512
G1 F300 X17.68955 Y10.28204
G1 F300 X17.68498 Y10.39502
G1 F300 X9.28939 Y10.39533
G1 F300 X9.19046 Y10.41735
G1 F300 X9.11141 Y10.47117
G1 F300 X8.24558 Y11.33701
G1 F300 X8.01299 Y11.33701
G1 F300 X8.00288 Y11.26368
G1 F300 X7.95299 Y11.23701
G1 F300 X5.75300 Y11.23701
G1 F300 X5.71055 Y11.25458
G1 F300 X5.69295 Y11.29700
;G04 P0 ; dwell for no time -- G64 should not smooth over this point 
G1 F3000 Z3.00000 ; retract 

G1 F3000 X5.69295 Y6.29701 ; rapid move to begin. 
G1 F300 F300.00000
G1 F300 Z-0.07000
;G04 P0 ; dwell for no time -- G64 should not smooth over this point 
G1 F300 F600.00000
G1 F300 X5.69295 Y6.29701
G1 F300 X5.69295 Y6.89701
G1 F300 X5.71055 Y6.93943
G1 F300 X5.74129 Y6.95586
G1 F300 X7.95299 Y6.95700
G1 F300 X8.00288 Y6.93036
G1 F300 X8.01299 Y6.85703
G1 F300 X8.24560 Y6.85703
G1 F300 X11.20742 Y9.81887
G1 F300 X11.33485 Y9.88860
G1 F300 X17.68498 Y9.89502
G1 F300 X17.68955 Y10.00798
G1 F300 X17.71165 Y10.03490
G1 F300 X17.74500 Y10.04501
G1 F300 X20.94499 Y10.04501
G1 F300 X20.97832 Y10.03490
G1 F300 X21.00384 Y9.99672
G1 F300 X21.00499 Y9.28502
G1 F300 X20.98741 Y9.24260
G1 F300 X20.94499 Y9.22502
G1 F300 X17.74500 Y9.22502
G1 F300 X17.71165 Y9.23513
G1 F300 X17.68955 Y9.26205
G1 F300 X17.68498 Y9.37501
G1 F300 X11.49896 Y9.37501
G1 F300 X8.53714 Y6.41316
G1 F300 X8.45810 Y6.35934
G1 F300 X8.35327 Y6.33702
G1 F300 X8.01299 Y6.33702
G1 F300 X8.00288 Y6.26369
G1 F300 X7.95299 Y6.23702
G1 F300 X5.75300 Y6.23702
G1 F300 X5.71055 Y6.25459
G1 F300 X5.69295 Y6.29701
;G04 P0 ; dwell for no time -- G64 should not smooth over this point 
G1 F3000 Z3.00000 ; retract 

G1 F3000 X0.61796 Y1.17284 ; rapid move to begin. 
G1 F300 F300.00000
G1 F300 Z-0.07000
;G04 P0 ; dwell for no time -- G64 should not smooth over this point 
G1 F300 F600.00000
G1 F300 X0.61796 Y1.17284
G1 F300 X0.63688 Y1.02052
G1 F300 X0.71587 Y0.84576
G1 F300 X0.86228 Y0.70485
G1 F300 X0.96413 Y0.65415
G1 F300 X1.17726 Y0.61803
G1 F300 X1.93220 Y0.61836
G1 F300 X2.03025 Y0.65008
G1 F300 X2.09039 Y0.71643
G1 F300 X2.11206 Y0.78694
G1 F300 X2.10137 Y0.93118
G1 F300 X2.10139 Y6.99650
G1 F300 X2.11394 Y7.12398
G1 F300 X2.15100 Y7.24608
G1 F300 X2.21117 Y7.35868
G1 F300 X2.29245 Y7.45771
G1 F300 X4.89186 Y10.05712
G1 F300 X4.99092 Y10.13841
G1 F300 X5.10352 Y10.19860
G1 F300 X5.28167 Y10.24415
G1 F300 X5.35249 Y10.28324
G1 F300 X5.50629 Y10.28519
G1 F300 X5.66011 Y10.33701
G1 F300 X5.69295 Y10.33701
G1 F300 X5.70311 Y10.26368
G1 F300 X5.75300 Y10.23701
G1 F300 X7.95299 Y10.23701
G1 F300 X8.00288 Y10.26368
G1 F300 X8.01299 Y10.33701
G1 F300 X8.09328 Y10.33701
G1 F300 X8.09328 Y7.85703
G1 F300 X8.01299 Y7.85703
G1 F300 X8.00288 Y7.93036
G1 F300 X7.95299 Y7.95700
G1 F300 X5.75300 Y7.95700
G1 F300 X5.70311 Y7.93036
G1 F300 X5.69295 Y7.85703
G1 F300 X5.34680 Y7.85672
G1 F300 X5.21327 Y7.81624
G1 F300 X5.13347 Y7.73643
G1 F300 X5.09267 Y7.59701
G1 F300 X5.09267 Y4.59701
G1 F300 X5.11048 Y4.50308
G1 F300 X5.16486 Y4.41754
G1 F300 X5.21327 Y4.37781
G1 F300 X5.30779 Y4.34116
G1 F300 X5.69295 Y4.33702
G1 F300 X5.70311 Y4.26369
G1 F300 X5.75300 Y4.23702
G1 F300 X7.95299 Y4.23702
G1 F300 X7.98632 Y4.24713
G1 F300 X8.01184 Y4.28531
G1 F300 X8.01299 Y4.89701
G1 F300 X8.00288 Y4.93034
G1 F300 X7.96470 Y4.95587
G1 F300 X5.75300 Y4.95701
G1 F300 X5.70311 Y4.93034
G1 F300 X5.69295 Y4.85703
G1 F300 X5.61266 Y4.85703
G1 F300 X5.61266 Y7.33701
G1 F300 X5.69295 Y7.33701
G1 F300 X5.70311 Y7.26368
G1 F300 X5.75300 Y7.23701
G1 F300 X7.95299 Y7.23701
G1 F300 X8.00288 Y7.26368
G1 F300 X8.01299 Y7.33701
G1 F300 X8.35327 Y7.33701
G1 F300 X8.44723 Y7.35482
G1 F300 X8.53277 Y7.40923
G1 F300 X8.59096 Y7.49221
G1 F300 X8.61329 Y7.59701
G1 F300 X8.60915 Y10.64191
G1 F300 X8.56597 Y10.74620
G1 F300 X8.45810 Y10.83470
G1 F300 X8.35327 Y10.85702
G1 F300 X8.01299 Y10.85702
G1 F300 X8.00288 Y10.93035
G1 F300 X7.95299 Y10.95702
G1 F300 X5.75300 Y10.95702
G1 F300 X5.70311 Y10.93035
G1 F300 X5.69295 Y10.85702
G1 F300 X5.61266 Y10.87208
G1 F300 X5.61266 Y13.32196
G1 F300 X5.69288 Y13.33695
G1 F300 X5.70316 Y13.26334
G1 F300 X5.75300 Y13.23675
G1 F300 X7.96473 Y13.23792
G1 F300 X7.99546 Y13.25432
G1 F300 X8.01304 Y13.29674
G1 F300 X8.01207 Y13.90881
G1 F300 X7.99566 Y13.93954
G1 F300 X7.95322 Y13.95712
G1 F300 X5.75300 Y13.95727
G1 F300 X5.70316 Y13.93068
G1 F300 X5.69288 Y13.85696
G1 F300 X5.66034 Y13.85696
G1 F300 X5.51322 Y13.90754
G1 F300 X5.40664 Y13.91069
G1 F300 X5.31767 Y13.99966
G1 F300 X5.33623 Y14.11457
G1 F300 X5.30189 Y14.30616
G1 F300 X5.30189 Y14.88790
G1 F300 X5.33623 Y15.11457
G1 F300 X5.30189 Y15.30616
G1 F300 X5.30189 Y15.88790
G1 F300 X5.33623 Y16.11457
G1 F300 X5.30189 Y16.30616
G1 F300 X5.30189 Y16.88790
G1 F300 X5.33623 Y17.11457
G1 F300 X5.30189 Y17.30616
G1 F300 X5.30189 Y17.74454
G1 F300 X5.28767 Y17.81609
G1 F300 X5.21632 Y17.90158
G1 F300 X5.12079 Y17.93123
G1 F300 X3.30373 Y17.93153
G1 F300 X3.30063 Y19.69681
G1 F300 X3.25887 Y19.78385
G1 F300 X3.20086 Y19.82957
G1 F300 X2.99669 Y19.87628
G1 F300 X2.99669 Y22.51778
G1 F300 X3.16212 Y22.54808
G1 F300 X5.35620 Y22.54808
G1 F300 X5.41647 Y22.55890
G1 F300 X5.49587 Y22.61196
G1 F300 X5.52894 Y22.66353
G1 F300 X5.54202 Y22.72339
G1 F300 X5.54075 Y23.21704
G1 F300 X5.48838 Y23.32418
G1 F300 X5.38978 Y23.37587
G1 F300 X3.16215 Y23.37897
G1 F300 X2.99669 Y23.40927
G1 F300 X2.99669 Y26.05082
G1 F300 X3.16217 Y26.08112
G1 F300 X4.41894 Y26.08470
G1 F300 X4.51665 Y26.13799
G1 F300 X4.55516 Y26.19656
G1 F300 X4.56938 Y26.26809
G1 F300 X4.55518 Y26.33964
G1 F300 X4.52211 Y26.39123
G1 F300 X4.20278 Y26.72547
G1 F300 X4.14259 Y26.83804
G1 F300 X4.10553 Y26.96019
G1 F300 X4.09298 Y27.08765
G1 F300 X4.09486 Y40.21719
G1 F300 X5.95874 Y42.08109
G1 F300 X7.94382 Y42.08109
G1 F300 X8.04080 Y42.07154
G1 F300 X8.23938 Y41.98782
G1 F300 X8.29912 Y41.97802
G1 F300 X9.52510 Y41.97802
G1 F300 X9.59680 Y41.99252
G1 F300 X9.67123 Y42.04840
G1 F300 X9.77201 Y42.24870
G1 F300 X9.86531 Y42.36806
G1 F300 X9.88626 Y42.43743
G1 F300 X9.87913 Y42.51004
G1 F300 X9.85126 Y42.56463
G1 F300 X9.77745 Y42.62521
G1 F300 X9.71245 Y42.64218
G1 F300 X9.03562 Y42.64045
G1 F300 X8.88987 Y42.65480
G1 F300 X8.75855 Y42.69465
G1 F300 X8.63737 Y42.75942
G1 F300 X8.48111 Y42.88513
G1 F300 X8.41141 Y42.90621
G1 F300 X8.33882 Y42.89905
G1 F300 X8.28429 Y42.87121
G1 F300 X8.12658 Y42.71723
G1 F300 X7.96430 Y42.65000
G1 F300 X7.66549 Y42.64268
G1 F300 X7.61548 Y42.69272
G1 F300 X7.61548 Y43.03151
G1 F300 X7.69267 Y43.03890
G1 F300 X7.80344 Y43.08726
G1 F300 X7.88728 Y43.17433
G1 F300 X7.92909 Y43.27532
G1 F300 X7.93648 Y44.24151
G1 F300 X7.90240 Y44.38233
G1 F300 X7.80567 Y44.49384
G1 F300 X7.69267 Y44.54413
G1 F300 X7.56148 Y44.55152
G1 F300 X7.56148 Y45.24301
G1 F300 X8.08068 Y45.25040
G1 F300 X8.18792 Y45.29609
G1 F300 X8.28484 Y45.40183
G1 F300 X8.32449 Y45.55312
G1 F300 X8.32327 Y46.22761
G1 F300 X8.27659 Y46.36757
G1 F300 X8.21228 Y46.44171
G1 F300 X8.11002 Y46.49769
G1 F300 X8.01449 Y46.51301
G1 F300 X7.05983 Y46.50793
G1 F300 X6.94731 Y46.46381
G1 F300 X6.86023 Y46.37996
G1 F300 X6.81187 Y46.26919
G1 F300 X6.80448 Y46.19203
G1 F300 X6.46567 Y46.19203
G1 F300 X6.41566 Y46.24204
G1 F300 X6.42295 Y46.54087
G1 F300 X6.49018 Y46.70313
G1 F300 X6.63801 Y46.85154
G1 F300 X6.67916 Y46.96307
G1 F300 X6.67205 Y47.02390
G1 F300 X6.63727 Y47.08875
G1 F300 X6.52681 Y47.21923
G1 F300 X6.48424 Y47.25436
G1 F300 X6.41731 Y47.27783
G1 F300 X6.13923 Y47.27686
G1 F300 X6.01172 Y47.28938
G1 F300 X5.80794 Y47.33632
G1 F300 X5.71236 Y47.29827
G1 F300 X5.62170 Y47.19558
G1 F300 X5.47522 Y47.09761
G1 F300 X5.29382 Y47.06246
G1 F300 X3.81615 Y47.06246
G1 F300 X3.42328 Y47.45532
G1 F300 X3.42298 Y48.36939
G1 F300 X3.40548 Y48.45745
G1 F300 X3.35107 Y48.54300
G1 F300 X3.30268 Y48.58273
G1 F300 X3.20817 Y48.61938
G1 F300 X2.78044 Y48.62352
G1 F300 X2.74147 Y48.73924
G1 F300 X2.65262 Y48.89314
G1 F300 X2.51701 Y49.04374
G1 F300 X2.36799 Y49.15159
G1 F300 X2.20005 Y49.22672
G1 F300 X2.00182 Y49.26886
G1 F300 X1.81788 Y49.26853
G1 F300 X1.63784 Y49.23061
G1 F300 X1.45798 Y49.15159
G1 F300 X1.30896 Y49.04374
G1 F300 X1.17335 Y48.89314
G1 F300 X1.07942 Y48.72779
G1 F300 X1.02189 Y48.54651
G1 F300 X1.00299 Y48.36350
G1 F300 X1.02189 Y48.18052
G1 F300 X1.07942 Y47.99924
G1 F300 X1.17678 Y47.82863
G1 F300 X1.29964 Y47.69170
G1 F300 X1.45824 Y47.57529
G1 F300 X1.59898 Y47.51390
G1 F300 X1.59898 Y47.15611
G1 F300 X1.53680 Y47.12329
G1 F300 X1.24307 Y47.25281
G1 F300 X1.03891 Y47.40508
G1 F300 X0.91816 Y47.53427
G1 F300 X0.84262 Y47.56843
G1 F300 X0.74361 Y47.56190
G1 F300 X0.67958 Y47.52390
G1 F300 X0.63546 Y47.46393
G1 F300 X0.61796 Y47.38545
G1 F300 X0.61796 Y1.17284
;G04 P0 ; dwell for no time -- G64 should not smooth over this point 
G1 F3000 Z3.00000 ; retract 

G1 F3000 X2.49258 Y0.93131 ; rapid move to begin. 
G1 F300 F300.00000
G1 F300 Z-0.07000
;G04 P0 ; dwell for no time -- G64 should not smooth over this point 
G1 F300 F600.00000
G1 F300 X2.49258 Y0.93131
G1 F300 X2.51038 Y0.83738
G1 F300 X2.53990 Y0.78214
G1 F300 X2.80342 Y0.51277
G1 F300 X2.89334 Y0.45443
G1 F300 X2.98729 Y0.43662
G1 F300 X6.82389 Y0.43662
G1 F300 X6.93209 Y0.46080
G1 F300 X7.16630 Y0.35077
G1 F300 X7.38327 Y0.30599
G1 F300 X7.59231 Y0.30599
G1 F300 X7.81535 Y0.35239
G1 F300 X8.01220 Y0.43967
G1 F300 X8.19706 Y0.57279
G1 F300 X8.34878 Y0.74272
G1 F300 X8.45840 Y0.93522
G1 F300 X8.52561 Y1.14632
G1 F300 X8.54745 Y1.35425
G1 F300 X8.52561 Y1.57469
G1 F300 X8.45614 Y1.79166
G1 F300 X8.34138 Y1.98843
G1 F300 X8.19706 Y2.14825
G1 F300 X8.02305 Y2.27507
G1 F300 X7.81535 Y2.36862
G1 F300 X7.59231 Y2.41503
G1 F300 X7.37077 Y2.41373
G1 F300 X7.15437 Y2.36639
G1 F300 X6.95251 Y2.27507
G1 F300 X6.77850 Y2.14825
G1 F300 X6.63417 Y1.98843
G1 F300 X6.51942 Y1.79166
G1 F300 X6.44997 Y1.57469
G1 F300 X6.42810 Y1.35425
G1 F300 X6.44997 Y1.14632
G1 F300 X6.51022 Y0.95664
G1 F300 X3.09496 Y0.95664
G1 F300 X3.01259 Y1.03901
G1 F300 X3.01259 Y6.88924
G1 F300 X5.46036 Y9.33701
G1 F300 X5.69295 Y9.33701
G1 F300 X5.70311 Y9.26368
G1 F300 X5.75300 Y9.23701
G1 F300 X7.96470 Y9.23818
G1 F300 X8.00288 Y9.26368
G1 F300 X8.01299 Y9.29700
G1 F300 X8.01299 Y9.89700
G1 F300 X7.98632 Y9.94689
G1 F300 X5.75300 Y9.95702
G1 F300 X5.70311 Y9.93035
G1 F300 X5.69295 Y9.85702
G1 F300 X5.35269 Y9.85702
G1 F300 X5.24787 Y9.83470
G1 F300 X5.16882 Y9.78087
G1 F300 X2.53337 Y7.13633
G1 F300 X2.49258 Y6.99691
G1 F300 X2.49258 Y0.93131
;G04 P0 ; dwell for no time -- G64 should not smooth over this point 
G1 F3000 Z3.00000 ; retract 

G1 F3000 X3.09273 Y1.09702 ; rapid move to begin. 
G1 F300 F300.00000
G1 F300 Z-0.07000
;G04 P0 ; dwell for no time -- G64 should not smooth over this point 
G1 F300 F600.00000
G1 F300 X3.09273 Y1.09702
G1 F300 X3.11031 Y1.05458
G1 F300 X3.15272 Y1.03700
G1 F300 X5.78645 Y1.04691
G1 F300 X5.81312 Y1.09679
G1 F300 X5.80309 Y2.93049
G1 F300 X5.75320 Y2.95716
G1 F300 X3.11953 Y2.94711
G1 F300 X3.09286 Y2.89722
G1 F300 X3.09273 Y1.09702
;G04 P0 ; dwell for no time -- G64 should not smooth over this point 
G1 F3000 Z3.00000 ; retract 

G1 F3000 X6.18609 Y3.02915 ; rapid move to begin. 
G1 F300 F300.00000
G1 F300 Z-0.07000
;G04 P0 ; dwell for no time -- G64 should not smooth over this point 
G1 F300 F600.00000
G1 F300 X6.18609 Y3.02915
G1 F300 X6.20408 Y2.88762
G1 F300 X6.20766 Y2.53933
G1 F300 X6.26097 Y2.44175
G1 F300 X6.34888 Y2.39405
G1 F300 X6.42757 Y2.39262
G1 F300 X6.49430 Y2.42011
G1 F300 X6.56404 Y2.48483
G1 F300 X6.80189 Y2.64373
G1 F300 X7.06542 Y2.75287
G1 F300 X7.34517 Y2.80852
G1 F300 X7.63039 Y2.80852
G1 F300 X7.91014 Y2.75287
G1 F300 X8.17364 Y2.64373
G1 F300 X8.41080 Y2.48526
G1 F300 X8.61250 Y2.28356
G1 F300 X8.77097 Y2.04640
G1 F300 X8.88012 Y1.78290
G1 F300 X8.93577 Y1.50314
G1 F300 X8.93577 Y1.21793
G1 F300 X8.84156 Y0.79331
G1 F300 X8.85464 Y0.73345
G1 F300 X8.89518 Y0.67279
G1 F300 X8.95584 Y0.63228
G1 F300 X9.02739 Y0.61803
G1 F300 X22.42203 Y0.61803
G1 F300 X22.63008 Y0.57332
G1 F300 X22.84552 Y0.57299
G1 F300 X23.05995 Y0.61803
G1 F300 X25.27838 Y0.61803
G1 F300 X25.37744 Y0.64665
G1 F300 X25.43411 Y0.70154
G1 F300 X25.46190 Y0.76921
G1 F300 X25.46213 Y0.83944
G1 F300 X25.44516 Y0.88783
G1 F300 X25.40980 Y0.93807
G1 F300 X25.35916 Y0.97281
G1 F300 X25.22951 Y1.02669
G1 F300 X25.03190 Y1.15676
G1 F300 X24.86342 Y1.32288
G1 F300 X24.73058 Y1.51869
G1 F300 X24.64364 Y1.72453
G1 F300 X24.69068 Y1.78102
G1 F300 X25.04427 Y1.78102
G1 F300 X25.08946 Y1.68275
G1 F300 X25.18212 Y1.55521
G1 F300 X25.30764 Y1.44043
G1 F300 X25.45989 Y1.35138
G1 F300 X25.62794 Y1.29781
G1 F300 X25.79098 Y1.28102
G1 F300 X27.29898 Y1.28102
G1 F300 X27.47429 Y1.30042
G1 F300 X27.63007 Y1.35138
G1 F300 X27.77218 Y1.43306
G1 F300 X27.90787 Y1.55521
G1 F300 X28.00050 Y1.68275
G1 F300 X28.04571 Y1.78102
G1 F300 X28.41409 Y1.78102
G1 F300 X28.44632 Y1.72455
G1 F300 X28.35935 Y1.51866
G1 F300 X28.22654 Y1.32285
G1 F300 X28.05806 Y1.15676
G1 F300 X27.86045 Y1.02669
G1 F300 X27.68933 Y0.94548
G1 F300 X27.63919 Y0.87746
G1 F300 X27.62458 Y0.80578
G1 F300 X27.64414 Y0.72359
G1 F300 X27.68818 Y0.66558
G1 F300 X27.73985 Y0.63235
G1 F300 X27.79984 Y0.61920
G1 F300 X29.13045 Y0.61874
G1 F300 X29.32923 Y0.65539
G1 F300 X29.50195 Y0.76260
G1 F300 X29.57617 Y0.84879
G1 F300 X29.65394 Y1.02405
G1 F300 X29.67096 Y1.15788
G1 F300 X29.67081 Y2.52122
G1 F300 X29.65772 Y2.58109
G1 F300 X29.61719 Y2.64175
G1 F300 X29.55653 Y2.68229
G1 F300 X29.49666 Y2.69537
G1 F300 X28.59413 Y2.69290
G1 F300 X28.52676 Y2.66496
G1 F300 X28.47515 Y2.61330
G1 F300 X28.44792 Y2.54871
G1 F300 X28.44896 Y2.47015
G1 F300 X28.41409 Y2.40903
G1 F300 X28.04569 Y2.40903
G1 F300 X28.00393 Y2.50202
G1 F300 X27.90787 Y2.63481
G1 F300 X27.78232 Y2.74960
G1 F300 X27.63007 Y2.83865
G1 F300 X27.47429 Y2.88960
G1 F300 X27.29898 Y2.90901
G1 F300 X25.78471 Y2.90868
G1 F300 X25.62794 Y2.89222
G1 F300 X25.46576 Y2.84088
G1 F300 X25.31252 Y2.75356
G1 F300 X25.18212 Y2.63481
G1 F300 X25.08605 Y2.50202
G1 F300 X25.04427 Y2.40903
G1 F300 X24.67587 Y2.40903
G1 F300 X24.64097 Y2.47017
G1 F300 X24.64201 Y2.54876
G1 F300 X24.61476 Y2.61335
G1 F300 X24.56317 Y2.66499
G1 F300 X24.48989 Y2.69379
G1 F300 X21.64791 Y2.69407
G1 F300 X21.55706 Y2.70301
G1 F300 X21.39457 Y2.77032
G1 F300 X21.27026 Y2.89463
G1 F300 X21.20295 Y3.05711
G1 F300 X21.19615 Y5.59958
G1 F300 X21.18266 Y5.66326
G1 F300 X21.13943 Y5.72747
G1 F300 X21.09803 Y5.75777
G1 F300 X21.02787 Y5.77938
G1 F300 X19.50867 Y5.77118
G1 F300 X19.44883 Y5.74984
G1 F300 X19.32513 Y5.65190
G1 F300 X19.21225 Y5.59155
G1 F300 X19.09011 Y5.55449
G1 F300 X18.96267 Y5.54194
G1 F300 X15.02242 Y5.54515
G1 F300 X14.95085 Y5.53090
G1 F300 X14.89019 Y5.49036
G1 F300 X14.84965 Y5.42970
G1 F300 X14.83964 Y5.31878
G1 F300 X14.95989 Y5.11512
G1 F300 X15.11427 Y4.74240
G1 F300 X15.19296 Y4.34672
G1 F300 X15.19296 Y3.94332
G1 F300 X15.11427 Y3.54764
G1 F300 X14.95989 Y3.17494
G1 F300 X14.73576 Y2.83951
G1 F300 X14.45052 Y2.55424
G1 F300 X14.11503 Y2.33009
G1 F300 X13.74236 Y2.17573
G1 F300 X13.34671 Y2.09704
G1 F300 X12.94325 Y2.09704
G1 F300 X12.54760 Y2.17573
G1 F300 X12.17488 Y2.33011
G1 F300 X11.83947 Y2.55424
G1 F300 X11.55418 Y2.83951
G1 F300 X11.33008 Y3.17494
G1 F300 X11.17569 Y3.54764
G1 F300 X11.08154 Y4.03242
G1 F300 X11.01860 Y4.11015
G1 F300 X10.94646 Y4.14157
G1 F300 X10.86777 Y4.14014
G1 F300 X10.77775 Y4.09039
G1 F300 X10.10912 Y3.41726
G1 F300 X10.01014 Y3.33603
G1 F300 X9.89757 Y3.27586
G1 F300 X9.77539 Y3.23880
G1 F300 X9.64793 Y3.22625
G1 F300 X6.36615 Y3.22910
G1 F300 X6.29376 Y3.21203
G1 F300 X6.23776 Y3.17210
G1 F300 X6.19554 Y3.10316
G1 F300 X6.18609 Y3.02915
;G04 P0 ; dwell for no time -- G64 should not smooth over this point 
G1 F3000 Z3.00000 ; retract 

G1 F3000 X4.48805 Y4.31612 ; rapid move to begin. 
G1 F300 F300.00000
G1 F300 Z-0.07000
;G04 P0 ; dwell for no time -- G64 should not smooth over this point 
G1 F300 F600.00000
G1 F300 X4.48805 Y4.31612
G1 F300 X4.50588 Y4.22219
G1 F300 X4.56423 Y4.13230
G1 F300 X5.00725 Y3.68962
G1 F300 X5.08195 Y3.63974
G1 F300 X5.14187 Y3.62155
G1 F300 X9.69327 Y3.62155
G1 F300 X9.75319 Y3.63974
G1 F300 X9.83224 Y3.69356
G1 F300 X12.07178 Y5.93313
G1 F300 X19.00796 Y5.93727
G1 F300 X19.11223 Y5.98045
G1 F300 X19.30265 Y6.16501
G1 F300 X20.96795 Y6.16958
G1 F300 X20.99488 Y6.19168
G1 F300 X21.00499 Y6.22500
G1 F300 X21.00384 Y6.93671
G1 F300 X20.97832 Y6.97491
G1 F300 X20.94499 Y6.98502
G1 F300 X17.73329 Y6.98385
G1 F300 X17.69509 Y6.95835
G1 F300 X17.68498 Y6.92500
G1 F300 X17.68498 Y6.45314
G1 F300 X11.91918 Y6.44900
G1 F300 X11.85926 Y6.43082
G1 F300 X11.78021 Y6.37700
G1 F300 X9.54067 Y4.13743
G1 F300 X5.29448 Y4.13743
G1 F300 X5.00807 Y4.42381
G1 F300 X5.00807 Y7.88471
G1 F300 X5.46039 Y8.33701
G1 F300 X5.69295 Y8.33701
G1 F300 X5.70311 Y8.26368
G1 F300 X5.75300 Y8.23701
G1 F300 X7.95299 Y8.23701
G1 F300 X7.99541 Y8.25459
G1 F300 X8.01299 Y8.29701
G1 F300 X8.01299 Y8.89701
G1 F300 X8.00288 Y8.93036
G1 F300 X7.96470 Y8.95586
G1 F300 X5.74129 Y8.95586
G1 F300 X5.69755 Y8.91997
G1 F300 X5.69295 Y8.85703
G1 F300 X5.34680 Y8.85672
G1 F300 X5.25871 Y8.83922
G1 F300 X5.20349 Y8.80971
G1 F300 X4.56423 Y8.17628
G1 F300 X4.49450 Y8.04885
G1 F300 X4.48805 Y4.31612
;G04 P0 ; dwell for no time -- G64 should not smooth over this point 
G1 F3000 Z3.00000 ; retract 

G1 F3000 X5.69295 Y5.29701 ; rapid move to begin. 
G1 F300 F300.00000
G1 F300 Z-0.07000
;G04 P0 ; dwell for no time -- G64 should not smooth over this point 
G1 F300 F600.00000
G1 F300 X5.69295 Y5.29701
G1 F300 X5.71055 Y5.25459
G1 F300 X5.75300 Y5.23702
G1 F300 X7.95299 Y5.23702
G1 F300 X8.00288 Y5.26369
G1 F300 X8.01299 Y5.33702
G1 F300 X10.21885 Y5.33702
G1 F300 X10.32368 Y5.35934
G1 F300 X10.40272 Y5.41317
G1 F300 X13.72326 Y8.73371
G1 F300 X16.91739 Y8.73371
G1 F300 X17.26440 Y8.39581
G1 F300 X17.39791 Y8.35532
G1 F300 X17.68498 Y8.35502
G1 F300 X17.68955 Y8.24204
G1 F300 X17.71165 Y8.21512
G1 F300 X17.74500 Y8.20501
G1 F300 X20.94499 Y8.20501
G1 F300 X20.98741 Y8.22258
G1 F300 X21.00499 Y8.26500
G1 F300 X21.00384 Y8.97671
G1 F300 X20.97832 Y9.01491
G1 F300 X20.94499 Y9.02502
G1 F300 X17.74500 Y9.02502
G1 F300 X17.71165 Y9.01491
G1 F300 X17.68955 Y8.98796
G1 F300 X17.68498 Y8.87503
G1 F300 X17.51147 Y8.87503
G1 F300 X17.17423 Y9.20640
G1 F300 X17.11901 Y9.23592
G1 F300 X17.03095 Y9.25342
G1 F300 X13.55915 Y9.24730
G1 F300 X13.43172 Y9.17757
G1 F300 X10.11118 Y5.85703
G1 F300 X8.01299 Y5.85703
G1 F300 X8.00288 Y5.93034
G1 F300 X7.95299 Y5.95701
G1 F300 X5.74129 Y5.95586
G1 F300 X5.71055 Y5.93943
G1 F300 X5.69295 Y5.89701
G1 F300 X5.69295 Y5.29701
;G04 P0 ; dwell for no time -- G64 should not smooth over this point 
G1 F3000 Z3.00000 ; retract 

G1 F3000 X15.38498 Y7.59340 ; rapid move to begin. 
G1 F300 F300.00000
G1 F300 Z-0.07000
;G04 P0 ; dwell for no time -- G64 should not smooth over this point 
G1 F300 F600.00000
G1 F300 X15.38498 Y7.59340
G1 F300 X15.40716 Y7.37923
G1 F300 X15.47663 Y7.16226
G1 F300 X15.58742 Y6.97036
G1 F300 X15.73571 Y6.80567
G1 F300 X15.90972 Y6.67885
G1 F300 X16.11742 Y6.58530
G1 F300 X16.32798 Y6.54019
G1 F300 X16.54952 Y6.53889
G1 F300 X16.77840 Y6.58754
G1 F300 X16.98025 Y6.67885
G1 F300 X17.15427 Y6.80567
G1 F300 X17.30596 Y6.97562
G1 F300 X17.41345 Y7.16252
G1 F300 X17.46814 Y7.33501
G1 F300 X17.68498 Y7.33501
G1 F300 X17.68955 Y7.22205
G1 F300 X17.71165 Y7.19513
G1 F300 X17.74500 Y7.18502
G1 F300 X20.96795 Y7.18959
G1 F300 X20.99488 Y7.21169
G1 F300 X21.00499 Y7.24501
G1 F300 X21.00499 Y7.94501
G1 F300 X20.98741 Y7.98743
G1 F300 X20.94499 Y8.00501
G1 F300 X17.74500 Y8.00501
G1 F300 X17.71165 Y7.99490
G1 F300 X17.68955 Y7.96797
G1 F300 X17.68498 Y7.85502
G1 F300 X17.46768 Y7.85502
G1 F300 X17.41343 Y8.02439
G1 F300 X17.30256 Y8.21646
G1 F300 X17.15427 Y8.38116
G1 F300 X16.98025 Y8.50798
G1 F300 X16.76649 Y8.60315
G1 F300 X16.54952 Y8.64793
G1 F300 X16.34045 Y8.64793
G1 F300 X16.11157 Y8.59929
G1 F300 X15.90972 Y8.50798
G1 F300 X15.73126 Y8.37671
G1 F300 X15.58742 Y8.21646
G1 F300 X15.47663 Y8.02457
G1 F300 X15.40716 Y7.80760
G1 F300 X15.38498 Y7.59340
;G04 P0 ; dwell for no time -- G64 should not smooth over this point 
G1 F3000 Z3.00000 ; retract 

G1 F3000 X26.85897 Y19.00902 ; rapid move to begin. 
G1 F300 F300.00000
G1 F300 Z-0.07000
;G04 P0 ; dwell for no time -- G64 should not smooth over this point 
G1 F300 F600.00000
G1 F300 X26.85897 Y19.00902
G1 F300 X27.29898 Y19.00902
G1 F300 X27.47429 Y18.98959
G1 F300 X27.63007 Y18.93864
G1 F300 X27.78232 Y18.84959
G1 F300 X27.90787 Y18.73481
G1 F300 X28.00393 Y18.60202
G1 F300 X28.04569 Y18.50903
G1 F300 X28.41406 Y18.50903
G1 F300 X28.44632 Y18.56552
G1 F300 X28.35935 Y18.77136
G1 F300 X28.22654 Y18.96719
G1 F300 X28.05783 Y19.13351
G1 F300 X27.86880 Y19.26229
G1 F300 X27.82798 Y19.32297
G1 F300 X27.81353 Y19.39500
G1 F300 X27.82798 Y19.46706
G1 F300 X27.86880 Y19.52774
G1 F300 X28.05783 Y19.65650
G1 F300 X28.22654 Y19.82287
G1 F300 X28.35935 Y20.01865
G1 F300 X28.44632 Y20.22454
G1 F300 X28.41409 Y20.28101
G1 F300 X28.04569 Y20.28101
G1 F300 X28.00393 Y20.18802
G1 F300 X27.90787 Y20.05523
G1 F300 X27.78232 Y19.94042
G1 F300 X27.63007 Y19.85139
G1 F300 X27.47429 Y19.80044
G1 F300 X27.29898 Y19.78101
G1 F300 X26.85897 Y19.78101
G1 F300 X26.85897 Y19.00902
;G04 P0 ; dwell for no time -- G64 should not smooth over this point 
G1 F3000 Z3.00000 ; retract 

G1 F3000 X24.89667 Y18.50903 ; rapid move to begin. 
G1 F300 F300.00000
G1 F300 Z-0.07000
;G04 P0 ; dwell for no time -- G64 should not smooth over this point 
G1 F300 F600.00000
G1 F300 X24.89667 Y18.50903
G1 F300 X25.04427 Y18.50903
G1 F300 X25.08605 Y18.60202
G1 F300 X25.19050 Y18.74413
G1 F300 X25.31252 Y18.85355
G1 F300 X25.46576 Y18.94090
G1 F300 X25.62794 Y18.99221
G1 F300 X25.78471 Y19.00869
G1 F300 X26.23096 Y19.00902
G1 F300 X26.23096 Y19.78101
G1 F300 X25.78471 Y19.78134
G1 F300 X25.62794 Y19.79782
G1 F300 X25.46576 Y19.84913
G1 F300 X25.31780 Y19.93305
G1 F300 X25.18605 Y20.05035
G1 F300 X25.08605 Y20.18802
G1 F300 X25.04427 Y20.28101
G1 F300 X24.89667 Y20.28101
G1 F300 X24.89667 Y19.79010
G1 F300 X25.03213 Y19.65650
G1 F300 X25.22116 Y19.52774
G1 F300 X25.26198 Y19.46706
G1 F300 X25.27643 Y19.39500
G1 F300 X25.26198 Y19.32297
G1 F300 X25.22116 Y19.26229
G1 F300 X25.03213 Y19.13354
G1 F300 X24.89667 Y18.99996
G1 F300 X24.89667 Y18.50903
;G04 P0 ; dwell for no time -- G64 should not smooth over this point 
G1 F3000 Z3.00000 ; retract 

G1 F3000 X15.45669 Y24.93515 ; rapid move to begin. 
G1 F300 F300.00000
G1 F300 Z-0.07000
;G04 P0 ; dwell for no time -- G64 should not smooth over this point 
G1 F300 F600.00000
G1 F300 X15.45669 Y24.93515
G1 F300 X15.47886 Y24.72093
G1 F300 X15.54833 Y24.50396
G1 F300 X15.65572 Y24.31732
G1 F300 X15.80741 Y24.14737
G1 F300 X15.99227 Y24.01427
G1 F300 X16.18912 Y23.92700
G1 F300 X16.39969 Y23.88191
G1 F300 X16.62123 Y23.88059
G1 F300 X16.85010 Y23.92923
G1 F300 X17.05196 Y24.02055
G1 F300 X17.22597 Y24.14737
G1 F300 X17.37766 Y24.31732
G1 F300 X17.48505 Y24.50396
G1 F300 X17.55191 Y24.70866
G1 F300 X17.56440 Y24.81501
G1 F300 X17.68498 Y24.81501
G1 F300 X17.68955 Y24.70205
G1 F300 X17.71165 Y24.67513
G1 F300 X17.74500 Y24.66502
G1 F300 X20.96795 Y24.66959
G1 F300 X20.99488 Y24.69169
G1 F300 X21.00499 Y24.72502
G1 F300 X21.00499 Y25.42501
G1 F300 X20.98741 Y25.46743
G1 F300 X20.94499 Y25.48503
G1 F300 X17.74500 Y25.48503
G1 F300 X17.71165 Y25.47490
G1 F300 X17.68955 Y25.44800
G1 F300 X17.68498 Y25.33502
G1 F300 X17.49554 Y25.33502
G1 F300 X17.37030 Y25.56304
G1 F300 X17.22597 Y25.72285
G1 F300 X17.05196 Y25.84968
G1 F300 X16.83817 Y25.94485
G1 F300 X16.63370 Y25.98836
G1 F300 X16.41216 Y25.98963
G1 F300 X16.18912 Y25.94325
G1 F300 X15.99227 Y25.85595
G1 F300 X15.80296 Y25.71841
G1 F300 X15.65572 Y25.55290
G1 F300 X15.54833 Y25.36626
G1 F300 X15.47886 Y25.14932
G1 F300 X15.45669 Y24.93515
;G04 P0 ; dwell for no time -- G64 should not smooth over this point 
G1 F3000 Z3.00000 ; retract 

G1 F3000 X14.32578 Y26.91671 ; rapid move to begin. 
G1 F300 F300.00000
G1 F300 Z-0.07000
;G04 P0 ; dwell for no time -- G64 should not smooth over this point 
G1 F300 F600.00000
G1 F300 X14.32578 Y26.91671
G1 F300 X14.34798 Y26.70253
G1 F300 X14.41518 Y26.49143
G1 F300 X14.53218 Y26.28879
G1 F300 X14.67650 Y26.12898
G1 F300 X14.85052 Y26.00215
G1 F300 X15.05824 Y25.90863
G1 F300 X15.26878 Y25.86352
G1 F300 X15.50279 Y25.86352
G1 F300 X15.71335 Y25.90863
G1 F300 X15.92105 Y26.00215
G1 F300 X16.09506 Y26.12898
G1 F300 X16.23939 Y26.28879
G1 F300 X16.35425 Y26.48577
G1 F300 X16.41528 Y26.65671
G1 F300 X17.19552 Y25.88239
G1 F300 X17.25074 Y25.85285
G1 F300 X17.33880 Y25.83535
G1 F300 X17.68498 Y25.83505
G1 F300 X17.68955 Y25.72204
G1 F300 X17.73329 Y25.68618
G1 F300 X20.94499 Y25.68501
G1 F300 X20.97832 Y25.69512
G1 F300 X21.00384 Y25.73334
G1 F300 X21.00499 Y26.44503
G1 F300 X20.99488 Y26.47835
G1 F300 X20.95670 Y26.50385
G1 F300 X17.74500 Y26.50502
G1 F300 X17.71165 Y26.49491
G1 F300 X17.68955 Y26.46796
G1 F300 X17.68498 Y26.35506
G1 F300 X17.45236 Y26.35506
G1 F300 X16.67213 Y27.12943
G1 F300 X16.56786 Y27.17261
G1 F300 X16.40870 Y27.17672
G1 F300 X16.35425 Y27.34764
G1 F300 X16.24675 Y27.53451
G1 F300 X16.09506 Y27.70444
G1 F300 X15.91020 Y27.83756
G1 F300 X15.71335 Y27.92483
G1 F300 X15.50279 Y27.96992
G1 F300 X15.27497 Y27.97091
G1 F300 X15.05824 Y27.92483
G1 F300 X14.85052 Y27.83128
G1 F300 X14.67650 Y27.70444
G1 F300 X14.52481 Y27.53451
G1 F300 X14.41742 Y27.34784
G1 F300 X14.35057 Y27.14317
G1 F300 X14.32578 Y26.91671
;G04 P0 ; dwell for no time -- G64 should not smooth over this point 
G1 F3000 Z3.00000 ; retract 

G1 F3000 X24.64364 Y37.06553 ; rapid move to begin. 
G1 F300 F300.00000
G1 F300 Z-0.07000
;G04 P0 ; dwell for no time -- G64 should not smooth over this point 
G1 F300 F600.00000
G1 F300 X24.64364 Y37.06553
G1 F300 X24.67587 Y37.00904
G1 F300 X25.04430 Y37.00904
G1 F300 X25.08605 Y37.10200
G1 F300 X25.19050 Y37.24412
G1 F300 X25.31252 Y37.35357
G1 F300 X25.45989 Y37.43863
G1 F300 X25.62794 Y37.49220
G1 F300 X25.79098 Y37.50901
G1 F300 X26.03716 Y37.50901
G1 F300 X26.34696 Y37.81882
G1 F300 X26.34696 Y37.89702
G1 F300 X25.68171 Y37.89702
G1 F300 X25.44872 Y37.85237
G1 F300 X25.22951 Y37.76337
G1 F300 X25.03190 Y37.63330
G1 F300 X24.86342 Y37.46715
G1 F300 X24.73058 Y37.27137
G1 F300 X24.64364 Y37.06553
;G04 P0 ; dwell for no time -- G64 should not smooth over this point 
G1 F3000 Z3.00000 ; retract 

G1 F3000 X26.77254 Y37.50901 ; rapid move to begin. 
G1 F300 F300.00000
G1 F300 Z-0.07000
;G04 P0 ; dwell for no time -- G64 should not smooth over this point 
G1 F300 F600.00000
G1 F300 X26.77254 Y37.50901
G1 F300 X26.82618 Y37.57173
G1 F300 X26.86055 Y37.65471
G1 F300 X26.86698 Y37.89702
G1 F300 X27.40822 Y37.89702
G1 F300 X27.64124 Y37.85237
G1 F300 X27.86045 Y37.76337
G1 F300 X28.05806 Y37.63330
G1 F300 X28.22654 Y37.46715
G1 F300 X28.35935 Y37.27140
G1 F300 X28.44632 Y37.06550
G1 F300 X28.41409 Y37.00904
G1 F300 X28.04569 Y37.00904
G1 F300 X28.00393 Y37.10200
G1 F300 X27.90787 Y37.23479
G1 F300 X27.78232 Y37.34960
G1 F300 X27.63007 Y37.43863
G1 F300 X27.47429 Y37.48961
G1 F300 X27.29898 Y37.50901
G1 F300 X26.77254 Y37.50901
;G04 P0 ; dwell for no time -- G64 should not smooth over this point 
G1 F3000 Z3.00000 ; retract 

G1 F3000 X26.92098 Y41.78173 ; rapid move to begin. 
G1 F300 F300.00000
G1 F300 Z-0.07000
;G04 P0 ; dwell for no time -- G64 should not smooth over this point 
G1 F300 F600.00000
G1 F300 X26.92098 Y41.78173
G1 F300 X26.92098 Y42.12051
G1 F300 X28.16164 Y42.12562
G1 F300 X28.27416 Y42.16974
G1 F300 X28.34053 Y42.22747
G1 F300 X28.41005 Y42.36651
G1 F300 X28.75577 Y42.36651
G1 F300 X28.80609 Y42.31619
G1 F300 X28.79849 Y42.09270
G1 F300 X28.73129 Y41.93044
G1 F300 X28.60708 Y41.80624
G1 F300 X28.44477 Y41.73900
G1 F300 X26.97033 Y41.73235
G1 F300 X26.92098 Y41.78173
;G04 P0 ; dwell for no time -- G64 should not smooth over this point 
G1 F3000 Z3.00000 ; retract 

G1 F3000 X19.09699 Y39.83057 ; rapid move to begin. 
G1 F300 F300.00000
G1 F300 Z-0.07000
;G04 P0 ; dwell for no time -- G64 should not smooth over this point 
G1 F300 F600.00000
G1 F300 X19.09699 Y39.83057
G1 F300 X19.09864 Y40.86240
G1 F300 X19.12059 Y40.94914
G1 F300 X19.16643 Y41.02602
G1 F300 X19.29389 Y41.11889
G1 F300 X19.40702 Y41.14050
G1 F300 X22.33153 Y41.13931
G1 F300 X22.42426 Y41.11746
G1 F300 X22.48395 Y41.08475
G1 F300 X22.56124 Y41.00746
G1 F300 X22.59538 Y40.94360
G1 F300 X22.61700 Y40.83044
G1 F300 X22.61532 Y39.79862
G1 F300 X22.59340 Y39.71188
G1 F300 X22.54755 Y39.63499
G1 F300 X22.42007 Y39.54213
G1 F300 X22.30699 Y39.52052
G1 F300 X19.39818 Y39.52115
G1 F300 X19.31700 Y39.53385
G1 F300 X19.24243 Y39.56839
G1 F300 X19.17344 Y39.62745
G1 F300 X19.12117 Y39.71053
G1 F300 X19.09699 Y39.83057
;G04 P0 ; dwell for no time -- G64 should not smooth over this point 
G1 F3000 Z3.00000 ; retract 

G1 F3000 X18.89018 Y38.36860 ; rapid move to begin. 
G1 F300 F300.00000
G1 F300 Z-0.07000
;G04 P0 ; dwell for no time -- G64 should not smooth over this point 
G1 F300 F600.00000
G1 F300 X18.89018 Y38.36860
G1 F300 X18.91236 Y38.58280
G1 F300 X18.98183 Y38.79976
G1 F300 X19.08922 Y38.98640
G1 F300 X19.23646 Y39.15191
G1 F300 X19.42579 Y39.28945
G1 F300 X19.62262 Y39.37673
G1 F300 X19.83938 Y39.42280
G1 F300 X20.06100 Y39.42280
G1 F300 X20.27169 Y39.37835
G1 F300 X20.48545 Y39.28318
G1 F300 X20.65947 Y39.15636
G1 F300 X20.80379 Y38.99654
G1 F300 X20.91863 Y38.79954
G1 F300 X20.97311 Y38.62862
G1 F300 X21.73028 Y38.62862
G1 F300 X23.23417 Y40.13250
G1 F300 X23.23417 Y42.32310
G1 F300 X23.25197 Y42.41706
G1 F300 X23.31032 Y42.50697
G1 F300 X24.96066 Y44.15729
G1 F300 X24.84620 Y44.26333
G1 F300 X24.79820 Y44.40600
G1 F300 X24.79934 Y44.96673
G1 F300 X24.83663 Y45.08169
G1 F300 X24.91148 Y45.17108
G1 F300 X24.99390 Y45.21890
G1 F300 X25.10698 Y45.24052
G1 F300 X28.10698 Y45.24052
G1 F300 X28.23350 Y45.21293
G1 F300 X28.30365 Y45.17014
G1 F300 X28.36474 Y45.10275
G1 F300 X28.40365 Y45.02050
G1 F300 X28.41633 Y44.93933
G1 F300 X28.41671 Y44.42462
G1 F300 X28.38038 Y44.28439
G1 F300 X28.27797 Y44.17197
G1 F300 X28.19697 Y44.13387
G1 F300 X28.10698 Y44.12051
G1 F300 X25.65926 Y44.12051
G1 F300 X23.75418 Y42.21543
G1 F300 X23.75418 Y40.02481
G1 F300 X23.73185 Y39.92001
G1 F300 X23.67803 Y39.84096
G1 F300 X21.98715 Y38.15593
G1 F300 X21.93191 Y38.12641
G1 F300 X21.83795 Y38.10861
G1 F300 X20.97311 Y38.10861
G1 F300 X20.91863 Y37.93769
G1 F300 X20.80379 Y37.74069
G1 F300 X20.65947 Y37.58087
G1 F300 X20.48545 Y37.45405
G1 F300 X20.27169 Y37.35887
G1 F300 X20.06100 Y37.31442
G1 F300 X19.83938 Y37.31442
G1 F300 X19.62262 Y37.36050
G1 F300 X19.42579 Y37.44777
G1 F300 X19.23646 Y37.58531
G1 F300 X19.08922 Y37.75082
G1 F300 X18.98183 Y37.93746
G1 F300 X18.91236 Y38.15443
G1 F300 X18.89018 Y38.36860
;G04 P0 ; dwell for no time -- G64 should not smooth over this point 
G1 F3000 Z3.00000 ; retract 

G1 F3000 X18.05457 Y38.91935 ; rapid move to begin. 
G1 F300 F300.00000
G1 F300 Z-0.07000
;G04 P0 ; dwell for no time -- G64 should not smooth over this point 
G1 F300 F600.00000
G1 F300 X18.05457 Y38.91935
G1 F300 X18.06821 Y38.98656
G1 F300 X18.05457 Y39.00022
G1 F300 X18.05457 Y38.91935
;G04 P0 ; dwell for no time -- G64 should not smooth over this point 
G1 F3000 Z3.00000 ; retract 

G1 F3000 X17.11249 Y38.64274 ; rapid move to begin. 
G1 F300 F300.00000
G1 F300 Z-0.07000
;G04 P0 ; dwell for no time -- G64 should not smooth over this point 
G1 F300 F600.00000
G1 F300 X17.11249 Y38.64274
G1 F300 X17.11249 Y38.98150
G1 F300 X17.53456 Y38.98150
G1 F300 X17.53456 Y38.59098
G1 F300 X17.16212 Y38.59309
G1 F300 X17.11249 Y38.64274
;G04 P0 ; dwell for no time -- G64 should not smooth over this point 
G1 F3000 Z3.00000 ; retract 

G1 F3000 X15.52872 Y38.98656 ; rapid move to begin. 
G1 F300 F300.00000
G1 F300 Z-0.07000
;G04 P0 ; dwell for no time -- G64 should not smooth over this point 
G1 F300 F600.00000
G1 F300 X15.52872 Y38.98656
G1 F300 X15.55758 Y38.86923
G1 F300 X15.59918 Y38.79141
G1 F300 X15.72336 Y38.66723
G1 F300 X15.80119 Y38.62562
G1 F300 X15.98211 Y38.59052
G1 F300 X16.43484 Y38.59309
G1 F300 X16.48447 Y38.64274
G1 F300 X16.48447 Y38.98150
G1 F300 X15.97347 Y38.98150
G1 F300 X15.93106 Y38.99908
G1 F300 X15.91437 Y39.03251
G1 F300 X15.57467 Y39.03251
G1 F300 X15.52872 Y38.98656
;G04 P0 ; dwell for no time -- G64 should not smooth over this point 
G1 F3000 Z3.00000 ; retract 

G1 F3000 X11.68039 Y38.40053 ; rapid move to begin. 
G1 F300 F300.00000
G1 F300 Z-0.07000
;G04 P0 ; dwell for no time -- G64 should not smooth over this point 
G1 F300 F600.00000
G1 F300 X11.68039 Y38.40053
G1 F300 X11.69457 Y38.33190
G1 F300 X11.73523 Y38.27111
G1 F300 X12.30983 Y37.70160
G1 F300 X12.38301 Y37.67287
G1 F300 X12.66459 Y37.66075
G1 F300 X12.78677 Y37.62369
G1 F300 X12.89934 Y37.56352
G1 F300 X12.99832 Y37.48229
G1 F300 X17.45150 Y33.02749
G1 F300 X17.54863 Y32.98835
G1 F300 X17.75417 Y33.01608
G1 F300 X21.02795 Y33.01067
G1 F300 X21.13021 Y33.05423
G1 F300 X21.17760 Y33.11537
G1 F300 X21.19648 Y33.19680
G1 F300 X21.20295 Y35.73294
G1 F300 X21.22861 Y35.81750
G1 F300 X21.32630 Y35.96368
G1 F300 X21.47250 Y36.06139
G1 F300 X21.55706 Y36.08704
G1 F300 X24.46510 Y36.09383
G1 F300 X24.56317 Y36.12507
G1 F300 X24.61476 Y36.17673
G1 F300 X24.64201 Y36.24130
G1 F300 X24.64097 Y36.31986
G1 F300 X24.67590 Y36.38102
G1 F300 X25.04427 Y36.38102
G1 F300 X25.08605 Y36.28801
G1 F300 X25.18212 Y36.15522
G1 F300 X25.31252 Y36.03647
G1 F300 X25.46576 Y35.94915
G1 F300 X25.62794 Y35.89781
G1 F300 X25.78471 Y35.88133
G1 F300 X27.29898 Y35.88100
G1 F300 X27.47429 Y35.90043
G1 F300 X27.63007 Y35.95138
G1 F300 X27.78232 Y36.04044
G1 F300 X27.90787 Y36.15522
G1 F300 X28.00393 Y36.28801
G1 F300 X28.04571 Y36.38102
G1 F300 X28.41406 Y36.38102
G1 F300 X28.44896 Y36.31989
G1 F300 X28.44792 Y36.24135
G1 F300 X28.47515 Y36.17676
G1 F300 X28.52676 Y36.12509
G1 F300 X28.59413 Y36.09715
G1 F300 X29.48480 Y36.09352
G1 F300 X29.58381 Y36.12202
G1 F300 X29.64045 Y36.17663
G1 F300 X29.67197 Y36.28052
G1 F300 X29.67197 Y49.11717
G1 F300 X29.65856 Y49.24376
G1 F300 X29.62222 Y49.35989
G1 F300 X29.57408 Y49.44427
G1 F300 X29.50052 Y49.52895
G1 F300 X29.36253 Y49.62077
G1 F300 X29.25374 Y49.65666
G1 F300 X29.11269 Y49.67203
G1 F300 X23.15855 Y49.66842
G1 F300 X23.06079 Y49.61511
G1 F300 X23.01113 Y49.51867
G1 F300 X23.00806 Y48.53978
G1 F300 X22.99370 Y48.39393
G1 F300 X22.95385 Y48.26259
G1 F300 X22.88913 Y48.14153
G1 F300 X22.80206 Y48.03541
G1 F300 X22.69597 Y47.94834
G1 F300 X22.57493 Y47.88364
G1 F300 X22.44357 Y47.84382
G1 F300 X22.29780 Y47.82946
G1 F300 X19.41617 Y47.82946
G1 F300 X19.27039 Y47.84382
G1 F300 X19.13903 Y47.88367
G1 F300 X18.95356 Y47.96665
G1 F300 X18.85241 Y47.94801
G1 F300 X18.78414 Y47.88941
G1 F300 X18.74891 Y47.79596
G1 F300 X18.77128 Y47.69065
G1 F300 X18.81970 Y47.62687
G1 F300 X18.93280 Y47.39683
G1 F300 X19.01037 Y47.34082
G1 F300 X19.07708 Y47.32853
G1 F300 X24.44377 Y47.32853
G1 F300 X24.54275 Y47.35708
G1 F300 X24.71796 Y47.51268
G1 F300 X24.83904 Y47.57740
G1 F300 X24.97038 Y47.61725
G1 F300 X25.11615 Y47.63160
G1 F300 X28.09778 Y47.63160
G1 F300 X28.24355 Y47.61725
G1 F300 X28.37490 Y47.57740
G1 F300 X28.49595 Y47.51268
G1 F300 X28.60208 Y47.42560
G1 F300 X28.68915 Y47.31951
G1 F300 X28.75384 Y47.19845
G1 F300 X28.79369 Y47.06711
G1 F300 X28.80804 Y46.92134
G1 F300 X28.80804 Y46.43970
G1 F300 X28.79369 Y46.29393
G1 F300 X28.75384 Y46.16259
G1 F300 X28.68912 Y46.04151
G1 F300 X28.60205 Y45.93541
G1 F300 X28.43235 Y45.79691
G1 F300 X28.39974 Y45.73490
G1 F300 X28.39255 Y45.66229
G1 F300 X28.43802 Y45.55761
G1 F300 X28.60208 Y45.42561
G1 F300 X28.68912 Y45.31954
G1 F300 X28.75384 Y45.19846
G1 F300 X28.79369 Y45.06711
G1 F300 X28.80804 Y44.92134
G1 F300 X28.80804 Y44.43971
G1 F300 X28.79369 Y44.29394
G1 F300 X28.75384 Y44.16259
G1 F300 X28.68912 Y44.04151
G1 F300 X28.60164 Y43.93491
G1 F300 X28.51318 Y43.85764
G1 F300 X28.47922 Y43.79379
G1 F300 X28.47185 Y43.72411
G1 F300 X28.51183 Y43.62320
G1 F300 X28.67528 Y43.49884
G1 F300 X28.77289 Y43.35282
G1 F300 X28.79849 Y43.26836
G1 F300 X28.80609 Y43.04484
G1 F300 X28.75577 Y42.99452
G1 F300 X28.41005 Y42.99452
G1 F300 X28.36776 Y43.09770
G1 F300 X28.28394 Y43.18477
G1 F300 X28.22008 Y43.21891
G1 F300 X28.10698 Y43.24052
G1 F300 X25.10698 Y43.24052
G1 F300 X25.01699 Y43.22716
G1 F300 X24.93002 Y43.18477
G1 F300 X24.83429 Y43.07794
G1 F300 X24.79698 Y42.93036
G1 F300 X24.79865 Y42.39859
G1 F300 X24.82311 Y42.30657
G1 F300 X24.88382 Y42.21568
G1 F300 X24.98303 Y42.14662
G1 F300 X25.07511 Y42.12216
G1 F300 X26.29296 Y42.12056
G1 F300 X26.29296 Y41.78173
G1 F300 X26.24361 Y41.73235
G1 F300 X24.86599 Y41.72945
G1 F300 X24.76916 Y41.73900
G1 F300 X24.60686 Y41.80624
G1 F300 X24.45121 Y41.96412
G1 F300 X24.38489 Y42.00100
G1 F300 X24.29723 Y42.00674
G1 F300 X24.19708 Y41.95478
G1 F300 X24.15545 Y41.89135
G1 F300 X24.14217 Y41.82270
G1 F300 X24.14534 Y40.02526
G1 F300 X24.13279 Y39.89778
G1 F300 X24.09576 Y39.77566
G1 F300 X24.03556 Y39.66309
G1 F300 X23.95431 Y39.56405
G1 F300 X22.29876 Y37.90850
G1 F300 X22.19973 Y37.82722
G1 F300 X22.08715 Y37.76705
G1 F300 X21.96500 Y37.72999
G1 F300 X21.83752 Y37.71745
G1 F300 X21.35866 Y37.72062
G1 F300 X21.28177 Y37.70386
G1 F300 X21.20316 Y37.63751
G1 F300 X21.07491 Y37.44559
G1 F300 X20.87321 Y37.24389
G1 F300 X20.63605 Y37.08542
G1 F300 X20.37255 Y36.97627
G1 F300 X20.26580 Y36.95504
G1 F300 X19.72737 Y36.95504
G1 F300 X18.51353 Y38.16885
G1 F300 X18.50217 Y38.51125
G1 F300 X18.55782 Y38.79100
G1 F300 X18.66697 Y39.05450
G1 F300 X18.80733 Y39.26456
G1 F300 X18.83811 Y39.35392
G1 F300 X18.83001 Y39.42527
G1 F300 X18.76024 Y39.56220
G1 F300 X18.72026 Y39.69395
G1 F300 X18.70591 Y39.83972
G1 F300 X18.70591 Y40.82135
G1 F300 X18.72026 Y40.96712
G1 F300 X18.76011 Y41.09846
G1 F300 X18.82483 Y41.21952
G1 F300 X18.91190 Y41.32564
G1 F300 X19.01797 Y41.41269
G1 F300 X19.13903 Y41.47738
G1 F300 X19.27039 Y41.51723
G1 F300 X19.41617 Y41.53159
G1 F300 X22.29780 Y41.53159
G1 F300 X22.44311 Y41.51729
G1 F300 X22.65063 Y41.45782
G1 F300 X22.71446 Y41.46598
G1 F300 X22.78134 Y41.50311
G1 F300 X22.82774 Y41.56392
G1 F300 X22.84585 Y41.63821
G1 F300 X22.84301 Y42.32267
G1 F300 X22.85555 Y42.45018
G1 F300 X22.89259 Y42.57233
G1 F300 X22.95276 Y42.68487
G1 F300 X23.03404 Y42.78388
G1 F300 X24.38557 Y44.13384
G1 F300 X24.41654 Y44.19300
G1 F300 X24.40592 Y44.92137
G1 F300 X24.42024 Y45.06714
G1 F300 X24.46010 Y45.19846
G1 F300 X24.52479 Y45.31951
G1 F300 X24.61189 Y45.42561
G1 F300 X24.78169 Y45.56424
G1 F300 X24.82162 Y45.66523
G1 F300 X24.81420 Y45.73493
G1 F300 X24.77579 Y45.80364
G1 F300 X24.56452 Y45.98830
G1 F300 X24.50848 Y46.02096
G1 F300 X24.44377 Y46.03254
G1 F300 X18.96803 Y46.03221
G1 F300 X18.89404 Y46.01425
G1 F300 X18.84174 Y45.97725
G1 F300 X18.81132 Y45.93699
G1 F300 X18.78835 Y45.86437
G1 F300 X18.80590 Y45.76447
G1 F300 X18.90387 Y45.60928
G1 F300 X18.92950 Y45.52485
G1 F300 X18.93682 Y45.22604
G1 F300 X18.88678 Y45.17603
G1 F300 X18.54799 Y45.17603
G1 F300 X18.52638 Y45.30011
G1 F300 X18.46115 Y45.40186
G1 F300 X18.40253 Y45.44913
G1 F300 X18.27421 Y45.49465
G1 F300 X17.33806 Y45.49701
G1 F300 X17.27180 Y45.48962
G1 F300 X17.17081 Y45.44781
G1 F300 X17.09326 Y45.37646
G1 F300 X17.05158 Y45.30564
G1 F300 X17.02963 Y45.21885
G1 F300 X17.02920 Y44.51250
G1 F300 X17.05158 Y44.41837
G1 F300 X17.13697 Y44.30133
G1 F300 X17.25371 Y44.23892
G1 F300 X17.78246 Y44.22716
G1 F300 X17.78246 Y39.70210
G1 F300 X17.74086 Y39.66052
G1 F300 X17.68259 Y39.66052
G1 F300 X17.66590 Y39.69395
G1 F300 X17.62348 Y39.71152
G1 F300 X15.97347 Y39.71152
G1 F300 X15.93106 Y39.69395
G1 F300 X15.91437 Y39.66052
G1 F300 X15.57467 Y39.66052
G1 F300 X15.52872 Y39.70647
G1 F300 X15.54350 Y39.83052
G1 F300 X15.50040 Y39.93017
G1 F300 X15.44645 Y39.97393
G1 F300 X15.32450 Y40.01467
G1 F300 X15.21142 Y40.07512
G1 F300 X15.11277 Y40.15610
G1 F300 X15.03177 Y40.25478
G1 F300 X14.97160 Y40.36735
G1 F300 X14.93454 Y40.48947
G1 F300 X14.92202 Y40.61696
G1 F300 X14.92156 Y41.08818
G1 F300 X14.89367 Y41.15541
G1 F300 X14.84208 Y41.20700
G1 F300 X14.73820 Y41.23852
G1 F300 X12.94310 Y41.23291
G1 F300 X12.84574 Y41.17301
G1 F300 X12.80300 Y41.07992
G1 F300 X12.81453 Y40.32072
G1 F300 X12.80500 Y40.22371
G1 F300 X12.72100 Y39.99984
G1 F300 X12.72796 Y39.92786
G1 F300 X12.80500 Y39.73934
G1 F300 X12.81453 Y39.64233
G1 F300 X12.81453 Y39.05072
G1 F300 X12.77937 Y38.86923
G1 F300 X12.68179 Y38.72318
G1 F300 X12.53576 Y38.62562
G1 F300 X12.35418 Y38.59044
G1 F300 X11.83071 Y38.58684
G1 F300 X11.76342 Y38.55895
G1 F300 X11.71184 Y38.50736
G1 F300 X11.68039 Y38.40053
;G04 P0 ; dwell for no time -- G64 should not smooth over this point 
G1 F3000 Z3.00000 ; retract 

G1 F3000 X10.65350 Y39.04152 ; rapid move to begin. 
G1 F300 F300.00000
G1 F300 Z-0.07000
;G04 P0 ; dwell for no time -- G64 should not smooth over this point 
G1 F300 F600.00000
G1 F300 X10.65350 Y39.04152
G1 F300 X10.65350 Y39.65150
G1 F300 X10.66360 Y39.68485
G1 F300 X10.69053 Y39.70695
G1 F300 X12.36350 Y39.71152
G1 F300 X12.39682 Y39.70139
G1 F300 X12.41892 Y39.67446
G1 F300 X12.42349 Y39.04152
G1 F300 X12.41339 Y39.00817
G1 F300 X12.38644 Y38.98607
G1 F300 X10.71349 Y38.98150
G1 F300 X10.67107 Y38.99908
G1 F300 X10.65350 Y39.04152
;G04 P0 ; dwell for no time -- G64 should not smooth over this point 
G1 F3000 Z3.00000 ; retract 

G1 F3000 X6.55361 Y42.67596 ; rapid move to begin. 
G1 F300 F300.00000
G1 F300 Z-0.07000
;G04 P0 ; dwell for no time -- G64 should not smooth over this point 
G1 F300 F600.00000
G1 F300 X6.55361 Y42.67596
G1 F300 X6.91665 Y43.03900
G1 F300 X6.98746 Y43.03227
G1 F300 X6.98746 Y42.69272
G1 F300 X6.93745 Y42.64268
G1 F300 X6.73466 Y42.64055
G1 F300 X6.55361 Y42.67596
;G04 P0 ; dwell for no time -- G64 should not smooth over this point 
G1 F3000 Z3.00000 ; retract 

G1 F3000 X8.71649 Y44.24144 ; rapid move to begin. 
G1 F300 F300.00000
G1 F300 Z-0.07000
;G04 P0 ; dwell for no time -- G64 should not smooth over this point 
G1 F300 F600.00000
G1 F300 X8.71649 Y44.24144
G1 F300 X8.75058 Y44.38233
G1 F300 X8.84730 Y44.49384
G1 F300 X8.96031 Y44.54413
G1 F300 X9.09147 Y44.55152
G1 F300 X9.09147 Y45.24159
G1 F300 X9.01492 Y45.31852
G1 F300 X8.96470 Y45.46490
G1 F300 X8.96379 Y46.14539
G1 F300 X8.98510 Y46.25261
G1 F300 X9.03386 Y46.33617
G1 F300 X9.10895 Y46.40163
G1 F300 X9.24890 Y46.44831
G1 F300 X10.17938 Y46.44923
G1 F300 X10.28657 Y46.42789
G1 F300 X10.37016 Y46.37915
G1 F300 X10.43559 Y46.30407
G1 F300 X10.48227 Y46.16411
G1 F300 X10.48319 Y45.48362
G1 F300 X10.46188 Y45.37643
G1 F300 X10.43041 Y45.31606
G1 F300 X10.36292 Y45.24479
G1 F300 X10.22815 Y45.18461
G1 F300 X9.61149 Y45.17951
G1 F300 X9.61149 Y44.55104
G1 F300 X9.71270 Y44.54916
G1 F300 X9.82767 Y44.51187
G1 F300 X9.91964 Y44.43343
G1 F300 X9.97506 Y44.32289
G1 F300 X9.98649 Y44.24151
G1 F300 X9.98649 Y43.34151
G1 F300 X9.96488 Y43.22843
G1 F300 X9.91613 Y43.14484
G1 F300 X9.84103 Y43.07941
G1 F300 X9.70110 Y43.03273
G1 F300 X9.02061 Y43.03181
G1 F300 X8.91339 Y43.05312
G1 F300 X8.82983 Y43.10189
G1 F300 X8.76437 Y43.17697
G1 F300 X8.71769 Y43.31693
G1 F300 X8.71649 Y44.24144
;G04 P0 ; dwell for no time -- G64 should not smooth over this point 
G1 F3000 Z3.00000 ; retract 

G1 F3000 X10.65350 Y42.85152 ; rapid move to begin. 
G1 F300 F300.00000
G1 F300 Z-0.07000
;G04 P0 ; dwell for no time -- G64 should not smooth over this point 
G1 F300 F600.00000
G1 F300 X10.65350 Y42.85152
G1 F300 X10.67107 Y42.80908
G1 F300 X10.71349 Y42.79150
G1 F300 X12.38644 Y42.79607
G1 F300 X12.41339 Y42.81817
G1 F300 X12.42349 Y42.85152
G1 F300 X12.41892 Y43.48446
G1 F300 X12.39682 Y43.51139
G1 F300 X12.36350 Y43.52152
G1 F300 X10.69053 Y43.51695
G1 F300 X10.66360 Y43.49485
G1 F300 X10.65350 Y43.46150
G1 F300 X10.65350 Y42.85152
;G04 P0 ; dwell for no time -- G64 should not smooth over this point 
G1 F3000 Z3.00000 ; retract 

G1 F3000 X15.31318 Y43.15650 ; rapid move to begin. 
G1 F300 F300.00000
G1 F300 Z-0.07000
;G04 P0 ; dwell for no time -- G64 should not smooth over this point 
G1 F300 F600.00000
G1 F300 X15.31318 Y43.15650
G1 F300 X15.31318 Y44.69721
G1 F300 X15.33550 Y44.80204
G1 F300 X15.38933 Y44.88108
G1 F300 X17.03425 Y46.52599
G1 F300 X17.03098 Y47.27610
G1 F300 X17.05158 Y47.35565
G1 F300 X17.09742 Y47.43251
G1 F300 X17.18681 Y47.50739
G1 F300 X17.25371 Y47.53510
G1 F300 X18.23791 Y47.54702
G1 F300 X18.36194 Y47.52091
G1 F300 X18.47667 Y47.43480
G1 F300 X18.53504 Y47.32558
G1 F300 X18.54799 Y46.94054
G1 F300 X24.79794 Y46.94054
G1 F300 X24.81232 Y47.02604
G1 F300 X24.87130 Y47.13155
G1 F300 X24.96617 Y47.20643
G1 F300 X25.08245 Y47.23930
G1 F300 X28.11287 Y47.24024
G1 F300 X28.22008 Y47.21890
G1 F300 X28.30365 Y47.17016
G1 F300 X28.36474 Y47.10275
G1 F300 X28.40365 Y47.02050
G1 F300 X28.41699 Y46.93051
G1 F300 X28.41699 Y46.43051
G1 F300 X28.39537 Y46.31743
G1 F300 X28.36123 Y46.25355
G1 F300 X28.28394 Y46.17626
G1 F300 X28.22008 Y46.14212
G1 F300 X28.11287 Y46.12081
G1 F300 X25.08245 Y46.12172
G1 F300 X24.96617 Y46.15459
G1 F300 X24.87130 Y46.22949
G1 F300 X24.81232 Y46.33498
G1 F300 X24.79794 Y46.42053
G1 F300 X18.49709 Y46.42053
G1 F300 X18.41022 Y46.32926
G1 F300 X18.27421 Y46.27938
G1 F300 X17.52069 Y46.27704
G1 F300 X15.83319 Y44.58952
G1 F300 X15.83319 Y43.41652
G1 F300 X15.91348 Y43.41652
G1 F300 X15.92359 Y43.49485
G1 F300 X15.97347 Y43.52152
G1 F300 X17.64645 Y43.51695
G1 F300 X17.67337 Y43.49485
G1 F300 X17.68348 Y43.46150
G1 F300 X17.67337 Y42.81817
G1 F300 X17.62348 Y42.79150
G1 F300 X15.96179 Y42.79267
G1 F300 X15.91805 Y42.82856
G1 F300 X15.91348 Y42.89651
G1 F300 X15.56730 Y42.89681
G1 F300 X15.43378 Y42.93730
G1 F300 X15.35397 Y43.01710
G1 F300 X15.31318 Y43.15650
;G04 P0 ; dwell for no time -- G64 should not smooth over this point 
G1 F3000 Z3.00000 ; retract 

G1 F3000 X18.30248 Y43.83732 ; rapid move to begin. 
G1 F300 F300.00000
G1 F300 Z-0.07000
;G04 P0 ; dwell for no time -- G64 should not smooth over this point 
G1 F300 F600.00000
G1 F300 X18.30248 Y43.83732
G1 F300 X18.30248 Y44.23582
G1 F300 X18.38917 Y44.26663
G1 F300 X18.47855 Y44.34151
G1 F300 X18.52638 Y44.42393
G1 F300 X18.54799 Y44.54801
G1 F300 X18.88678 Y44.54801
G1 F300 X18.93682 Y44.49800
G1 F300 X18.92950 Y44.19922
G1 F300 X18.86227 Y44.03691
G1 F300 X18.80631 Y43.96872
G1 F300 X18.66026 Y43.87113
G1 F300 X18.57576 Y43.84550
G1 F300 X18.30248 Y43.83732
;G04 P0 ; dwell for no time -- G64 should not smooth over this point 
G1 F3000 Z3.00000 ; retract 

G1 F3000 X19.09699 Y48.53058 ; rapid move to begin. 
G1 F300 F300.00000
G1 F300 Z-0.07000
;G04 P0 ; dwell for no time -- G64 should not smooth over this point 
G1 F300 F600.00000
G1 F300 X19.09699 Y48.53058
G1 F300 X19.09864 Y49.56241
G1 F300 X19.12059 Y49.64915
G1 F300 X19.16643 Y49.72603
G1 F300 X19.29389 Y49.81889
G1 F300 X19.40702 Y49.84051
G1 F300 X22.33153 Y49.83932
G1 F300 X22.42426 Y49.81747
G1 F300 X22.48395 Y49.78476
G1 F300 X22.56124 Y49.70746
G1 F300 X22.59538 Y49.64361
G1 F300 X22.61700 Y49.53045
G1 F300 X22.61532 Y48.49863
G1 F300 X22.59340 Y48.41189
G1 F300 X22.54755 Y48.33500
G1 F300 X22.42007 Y48.24214
G1 F300 X22.30699 Y48.22052
G1 F300 X19.39818 Y48.22116
G1 F300 X19.31700 Y48.23386
G1 F300 X19.24243 Y48.26840
G1 F300 X19.17344 Y48.32746
G1 F300 X19.12117 Y48.41052
G1 F300 X19.09699 Y48.53058

;G04 P0 ; dwell for no time -- G64 should not smooth over this point 
G1 F3000 Z3.000 ; retract 

;M5 ; Spindle off. 
;G04 P1.000000
;M9 ; Coolant off. 
M0 ; Program end. 

