; pcb2gcode 2.0.0 
; Software-independent Gcode 

G94 ; Millimeters per minute feed rate. 
G21 ; Units == Millimeters. 

G90 ; Absolute coordinates. 
;G1 F3000 S10000 ; RPM spindle speed. 
G1 F300 F600.00000 ; Feedrate. 


G1 F3000 Z3.00000 ;Retract to tool change height
;T0
;M5      ;Spindle stop.
;G04 P1.00000 ;Wait for spindle to stop
;MSG, Change tool bit to mill diameter 0.12000mm
;M6      ;Tool change.
;M0      ;Temporary machine stop.
;M3 ; Spindle on clockwise. 
;G04 P1.00000 ;Wait for spindle to get up to speed
;G04 P0 ; dwell for no time -- G64 should not smooth over this point 
G1 F3000 Z3.00000 ; retract 

G1 F3000 X-1.65956 Y25.17601 ; rapid move to begin. 
G1 F300 F300.00000
G1 F300 Z-0.07000
;G04 P0 ; dwell for no time -- G64 should not smooth over this point 
G1 F300 F600.00000
G1 F300 X-1.65956 Y25.17601
G1 F300 X-1.66947 Y25.07261
G1 F300 X-1.70020 Y24.96727
G1 F300 X-1.75093 Y24.86997
G1 F300 X-1.81963 Y24.78442
G1 F300 X-3.10297 Y23.50108
G1 F300 X-3.18852 Y23.43238
G1 F300 X-3.28582 Y23.38165
G1 F300 X-3.39116 Y23.35092
G1 F300 X-3.61745 Y23.34101
G1 F300 X-3.73149 Y23.26263
G1 F300 X-3.90957 Y23.24101
G1 F300 X-3.90957 Y15.60105
G1 F300 X-3.92176 Y15.48606
G1 F300 X-4.00094 Y15.29498
G1 F300 X-4.07361 Y15.20506
G1 F300 X-9.52798 Y9.75110
G1 F300 X-9.69996 Y9.63619
G1 F300 X-9.81616 Y9.60093
G1 F300 X-10.85960 Y9.59103
G1 F300 X-10.86074 Y9.33931
G1 F300 X-10.87717 Y9.30858
G1 F300 X-10.90788 Y9.29217
G1 F300 X-12.53130 Y9.29217
G1 F300 X-12.56201 Y9.30858
G1 F300 X-12.57844 Y9.33931
G1 F300 X-12.57958 Y9.59103
G1 F300 X-17.65958 Y9.59103
G1 F300 X-17.66075 Y9.18681
G1 F300 X-17.67716 Y9.15608
G1 F300 X-17.70789 Y9.13967
G1 F300 X-19.71960 Y9.13850
G1 F300 X-19.76202 Y9.15608
G1 F300 X-19.77843 Y9.18681
G1 F300 X-19.77959 Y9.59103
G1 F300 X-47.57299 Y9.60093
G1 F300 X-47.68919 Y9.63619
G1 F300 X-47.78541 Y9.68892
G1 F300 X-47.86554 Y9.75506
G1 F300 X-49.86554 Y11.75506
G1 F300 X-49.93821 Y11.84497
G1 F300 X-50.01738 Y12.03606
G1 F300 X-50.02957 Y12.15102
G1 F300 X-50.02957 Y13.74101
G1 F300 X-50.20768 Y13.76262
G1 F300 X-50.31773 Y13.83618
G1 F300 X-50.35538 Y13.88383
G1 F300 X-50.39721 Y13.98482
G1 F300 X-50.40458 Y14.14103
G1 F300 X-51.96957 Y14.14103
G1 F300 X-52.07440 Y14.16336
G1 F300 X-52.15344 Y14.21718
G1 F300 X-53.40343 Y15.46716
G1 F300 X-53.45725 Y15.54621
G1 F300 X-53.47544 Y15.60613
G1 F300 X-53.47315 Y28.18246
G1 F300 X-53.40343 Y28.30989
G1 F300 X-51.87844 Y29.83488
G1 F300 X-51.78852 Y29.89322
G1 F300 X-51.65459 Y29.91103
G1 F300 X-51.64951 Y30.05565
G1 F300 X-51.63297 Y30.11410
G1 F300 X-51.59883 Y30.17798
G1 F300 X-51.51176 Y30.26180
G1 F300 X-51.41077 Y30.30363
G1 F300 X-51.34458 Y30.31100
G1 F300 X-50.03993 Y30.30592
G1 F300 X-49.92741 Y30.26180
G1 F300 X-49.87143 Y30.21585
G1 F300 X-49.81070 Y30.12497
G1 F300 X-49.78487 Y30.00689
G1 F300 X-49.78967 Y29.24636
G1 F300 X-49.83381 Y29.13384
G1 F300 X-49.91763 Y29.04677
G1 F300 X-49.98149 Y29.01263
G1 F300 X-50.09460 Y28.99101
G1 F300 X-51.39924 Y28.99609
G1 F300 X-51.51176 Y29.04024
G1 F300 X-51.59883 Y29.12406
G1 F300 X-51.64720 Y29.23483
G1 F300 X-51.65459 Y29.32332
G1 F300 X-52.95956 Y28.01835
G1 F300 X-52.95956 Y15.75873
G1 F300 X-51.86188 Y14.66104
G1 F300 X-50.40458 Y14.66104
G1 F300 X-50.39721 Y14.81720
G1 F300 X-50.34882 Y14.92797
G1 F300 X-50.30943 Y14.97418
G1 F300 X-50.21855 Y15.03491
G1 F300 X-50.10046 Y15.06071
G1 F300 X-48.83872 Y15.06071
G1 F300 X-48.72063 Y15.03491
G1 F300 X-48.62975 Y14.97418
G1 F300 X-48.56069 Y14.87496
G1 F300 X-48.53488 Y14.75690
G1 F300 X-48.53968 Y13.99635
G1 F300 X-48.58380 Y13.88383
G1 F300 X-48.66762 Y13.79676
G1 F300 X-48.77839 Y13.74840
G1 F300 X-48.90956 Y13.74101
G1 F300 X-48.90956 Y12.38300
G1 F300 X-47.23760 Y10.71104
G1 F300 X-19.77959 Y10.71104
G1 F300 X-19.77843 Y11.11523
G1 F300 X-19.76202 Y11.14594
G1 F300 X-19.73128 Y11.16235
G1 F300 X-17.71958 Y11.16352
G1 F300 X-17.68625 Y11.15341
G1 F300 X-17.66075 Y11.11523
G1 F300 X-17.65958 Y10.71104
G1 F300 X-12.57958 Y10.71104
G1 F300 X-12.57844 Y10.96273
G1 F300 X-12.56201 Y10.99344
G1 F300 X-12.53130 Y11.00987
G1 F300 X-10.91959 Y11.01101
G1 F300 X-10.88624 Y11.00090
G1 F300 X-10.86074 Y10.96273
G1 F300 X-10.85960 Y10.71104
G1 F300 X-10.15155 Y10.71104
G1 F300 X-5.02959 Y15.83300
G1 F300 X-5.02959 Y23.24101
G1 F300 X-5.16078 Y23.24840
G1 F300 X-5.26177 Y23.29024
G1 F300 X-5.31775 Y23.33616
G1 F300 X-5.38298 Y23.43791
G1 F300 X-5.40459 Y23.55102
G1 F300 X-5.39720 Y24.31721
G1 F300 X-5.35537 Y24.41820
G1 F300 X-5.30942 Y24.47418
G1 F300 X-5.21854 Y24.53489
G1 F300 X-5.14924 Y24.55592
G1 F300 X-3.84460 Y24.56103
G1 F300 X-3.77841 Y24.55363
G1 F300 X-3.67643 Y24.51114
G1 F300 X-2.77958 Y25.40799
G1 F300 X-2.77958 Y34.16906
G1 F300 X-4.61554 Y36.00505
G1 F300 X-4.68821 Y36.09496
G1 F300 X-4.73893 Y36.19227
G1 F300 X-4.76967 Y36.29760
G1 F300 X-4.77957 Y36.40101
G1 F300 X-4.77957 Y39.84100
G1 F300 X-5.71958 Y39.84100
G1 F300 X-5.75293 Y39.85111
G1 F300 X-5.77843 Y39.88932
G1 F300 X-5.77960 Y42.90102
G1 F300 X-5.76949 Y42.93434
G1 F300 X-5.73129 Y42.95987
G1 F300 X-2.71958 Y42.96101
G1 F300 X-2.68626 Y42.95090
G1 F300 X-2.66073 Y42.91273
G1 F300 X-2.66416 Y39.87806
G1 F300 X-2.68626 Y39.85111
G1 F300 X-2.71958 Y39.84100
G1 F300 X-3.65956 Y39.84100
G1 F300 X-3.65956 Y36.63298
G1 F300 X-1.82360 Y34.79700
G1 F300 X-1.75746 Y34.71686
G1 F300 X-1.70473 Y34.62064
G1 F300 X-1.66947 Y34.50444
G1 F300 X-1.65956 Y25.17601
;G04 P0 ; dwell for no time -- G64 should not smooth over this point 
G1 F3000 Z3.00000 ; retract 

G1 F3000 X-3.53787 Y25.83829 ; rapid move to begin. 
G1 F300 F300.00000
G1 F300 Z-0.07000
;G04 P0 ; dwell for no time -- G64 should not smooth over this point 
G1 F300 F600.00000
G1 F300 X-3.53787 Y25.83829
G1 F300 X-3.53820 Y25.97001
G1 F300 X-3.56690 Y26.10496
G1 F300 X-3.62644 Y26.23628
G1 F300 X-3.70411 Y26.34263
G1 F300 X-3.81191 Y26.43839
G1 F300 X-3.92613 Y26.50395
G1 F300 X-4.05737 Y26.54659
G1 F300 X-4.18831 Y26.56069
G1 F300 X-4.75087 Y26.56069
G1 F300 X-4.88181 Y26.54659
G1 F300 X-5.00718 Y26.50621
G1 F300 X-5.12725 Y26.43839
G1 F300 X-5.23507 Y26.34263
G1 F300 X-5.34769 Y26.16102
G1 F300 X-8.95957 Y26.16102
G1 F300 X-8.95957 Y46.91531
G1 F300 X-6.69171 Y49.18318
G1 F300 X-6.62199 Y49.31061
G1 F300 X-6.61556 Y56.73302
G1 F300 X-6.63337 Y56.82698
G1 F300 X-6.66288 Y56.88222
G1 F300 X-6.72638 Y56.94572
G1 F300 X-6.78163 Y56.97524
G1 F300 X-6.87558 Y56.99304
G1 F300 X-16.27358 Y56.99304
G1 F300 X-16.36751 Y56.97524
G1 F300 X-16.42276 Y56.94572
G1 F300 X-16.48626 Y56.88222
G1 F300 X-16.51577 Y56.82698
G1 F300 X-16.53327 Y56.73891
G1 F300 X-16.53358 Y54.68553
G1 F300 X-16.61986 Y54.64567
G1 F300 X-16.76362 Y54.54123
G1 F300 X-16.89921 Y54.39063
G1 F300 X-16.99316 Y54.22528
G1 F300 X-17.04808 Y54.05627
G1 F300 X-17.06959 Y53.86102
G1 F300 X-17.04970 Y53.67181
G1 F300 X-16.99316 Y53.49676
G1 F300 X-16.89921 Y53.33140
G1 F300 X-16.77295 Y53.18919
G1 F300 X-16.61986 Y53.07636
G1 F300 X-16.44666 Y52.99780
G1 F300 X-16.24844 Y52.95566
G1 F300 X-16.05827 Y52.95698
G1 F300 X-15.87838 Y52.99556
G1 F300 X-15.69931 Y53.07636
G1 F300 X-15.55067 Y53.18474
G1 F300 X-15.42733 Y53.32124
G1 F300 X-15.33111 Y53.48528
G1 F300 X-15.26947 Y53.67181
G1 F300 X-15.24991 Y53.85474
G1 F300 X-15.26947 Y54.05022
G1 F300 X-15.32601 Y54.22528
G1 F300 X-15.42733 Y54.40077
G1 F300 X-15.55067 Y54.53727
G1 F300 X-15.69931 Y54.64567
G1 F300 X-15.87848 Y54.72650
G1 F300 X-16.01356 Y54.75510
G1 F300 X-16.01356 Y56.47303
G1 F300 X-7.13558 Y56.47303
G1 F300 X-7.13558 Y49.47472
G1 F300 X-9.40344 Y47.20688
G1 F300 X-9.45726 Y47.12783
G1 F300 X-9.47928 Y47.02890
G1 F300 X-9.47545 Y25.85612
G1 F300 X-9.43880 Y25.76161
G1 F300 X-9.39907 Y25.71322
G1 F300 X-9.31352 Y25.65881
G1 F300 X-9.22546 Y25.64131
G1 F300 X-5.34769 Y25.64101
G1 F300 X-5.23901 Y25.46427
G1 F300 X-5.12725 Y25.36364
G1 F300 X-5.01302 Y25.29808
G1 F300 X-4.88788 Y25.25706
G1 F300 X-4.74460 Y25.24101
G1 F300 X-4.18831 Y25.24134
G1 F300 X-4.05737 Y25.25544
G1 F300 X-3.92613 Y25.29808
G1 F300 X-3.80177 Y25.37101
G1 F300 X-3.70411 Y25.45940
G1 F300 X-3.62644 Y25.56575
G1 F300 X-3.56690 Y25.69707
G1 F300 X-3.53787 Y25.83829
;G04 P0 ; dwell for no time -- G64 should not smooth over this point 
G1 F3000 Z3.00000 ; retract 

G1 F3000 X-5.39707 Y25.00403 ; rapid move to begin. 
G1 F300 F300.00000
G1 F300 Z-0.07000
;G04 P0 ; dwell for no time -- G64 should not smooth over this point 
G1 F300 F600.00000
G1 F300 X-5.39707 Y25.00403
G1 F300 X-5.42529 Y24.89356
G1 F300 X-5.58978 Y24.74599
G1 F300 X-5.67675 Y24.63999
G1 F300 X-5.74145 Y24.51896
G1 F300 X-5.78130 Y24.38762
G1 F300 X-5.79565 Y24.24185
G1 F300 X-5.79565 Y23.56021
G1 F300 X-5.78130 Y23.41444
G1 F300 X-5.74145 Y23.28310
G1 F300 X-5.67673 Y23.16202
G1 F300 X-5.58943 Y23.05564
G1 F300 X-5.46215 Y22.94739
G1 F300 X-5.42913 Y22.89095
G1 F300 X-5.41757 Y22.82623
G1 F300 X-5.41757 Y16.07120
G1 F300 X-5.43182 Y15.99962
G1 F300 X-5.47236 Y15.93900
G1 F300 X-10.25025 Y11.16103
G1 F300 X-10.32053 Y11.11703
G1 F300 X-10.39671 Y11.10700
G1 F300 X-10.47044 Y11.12849
G1 F300 X-10.66948 Y11.32531
G1 F300 X-10.83176 Y11.39255
G1 F300 X-12.51039 Y11.40210
G1 F300 X-12.60740 Y11.39255
G1 F300 X-12.76968 Y11.32531
G1 F300 X-12.83752 Y11.26966
G1 F300 X-12.93721 Y11.14546
G1 F300 X-12.99464 Y11.11101
G1 F300 X-13.06053 Y11.09903
G1 F300 X-17.11137 Y11.09903
G1 F300 X-17.17805 Y11.11132
G1 F300 X-17.25562 Y11.16733
G1 F300 X-17.34528 Y11.35366
G1 F300 X-17.40126 Y11.42183
G1 F300 X-17.46946 Y11.47782
G1 F300 X-17.63174 Y11.54505
G1 F300 X-19.71040 Y11.55460
G1 F300 X-19.80741 Y11.54505
G1 F300 X-19.96969 Y11.47782
G1 F300 X-20.09387 Y11.35363
G1 F300 X-20.18744 Y11.16349
G1 F300 X-20.25610 Y11.11350
G1 F300 X-20.32780 Y11.09903
G1 F300 X-47.03593 Y11.10263
G1 F300 X-47.13166 Y11.15381
G1 F300 X-48.46679 Y12.48894
G1 F300 X-48.51075 Y12.56085
G1 F300 X-48.52157 Y12.62132
G1 F300 X-48.51863 Y13.35922
G1 F300 X-48.47524 Y13.44941
G1 F300 X-48.34972 Y13.55564
G1 F300 X-48.26239 Y13.66204
G1 F300 X-48.19770 Y13.78309
G1 F300 X-48.15785 Y13.91441
G1 F300 X-48.14352 Y14.06026
G1 F300 X-48.14352 Y14.74179
G1 F300 X-48.15785 Y14.88764
G1 F300 X-48.19770 Y15.01896
G1 F300 X-48.26239 Y15.14001
G1 F300 X-48.34936 Y15.24598
G1 F300 X-48.50654 Y15.38147
G1 F300 X-48.53826 Y15.45129
G1 F300 X-48.54123 Y15.51575
G1 F300 X-48.51146 Y15.59579
G1 F300 X-48.37750 Y15.73574
G1 F300 X-48.26323 Y15.90836
G1 F300 X-48.20430 Y16.05241
G1 F300 X-48.22696 Y16.08703
G1 F300 X-48.61553 Y16.08703
G1 F300 X-48.70016 Y15.96427
G1 F300 X-48.81192 Y15.86363
G1 F300 X-48.93201 Y15.79584
G1 F300 X-49.05129 Y15.75705
G1 F300 X-49.19460 Y15.74100
G1 F300 X-49.74458 Y15.74100
G1 F300 X-49.88182 Y15.75543
G1 F300 X-50.00717 Y15.79584
G1 F300 X-50.13252 Y15.86706
G1 F300 X-50.23902 Y15.96427
G1 F300 X-50.32365 Y16.08703
G1 F300 X-50.71220 Y16.08703
G1 F300 X-50.73483 Y16.05246
G1 F300 X-50.67590 Y15.90836
G1 F300 X-50.56165 Y15.73574
G1 F300 X-50.42772 Y15.59584
G1 F300 X-50.39696 Y15.47740
G1 F300 X-50.44006 Y15.37197
G1 F300 X-50.58979 Y15.24598
G1 F300 X-50.71443 Y15.09521
G1 F300 X-50.77153 Y15.06104
G1 F300 X-50.83747 Y15.04903
G1 F300 X-51.62373 Y15.04903
G1 F300 X-51.70564 Y15.06882
G1 F300 X-51.75593 Y15.10382
G1 F300 X-52.51679 Y15.86467
G1 F300 X-52.55733 Y15.92533
G1 F300 X-52.57041 Y15.98520
G1 F300 X-52.56797 Y27.81664
G1 F300 X-52.52075 Y27.90803
G1 F300 X-52.28306 Y28.13846
G1 F300 X-52.22388 Y28.16193
G1 F300 X-52.14824 Y28.16214
G1 F300 X-52.04991 Y28.10747
G1 F300 X-52.01014 Y28.04314
G1 F300 X-51.99914 Y27.96828
G1 F300 X-52.02733 Y27.85721
G1 F300 X-52.04765 Y27.65101
G1 F300 X-52.02741 Y27.44558
G1 F300 X-51.96749 Y27.24801
G1 F300 X-51.87018 Y27.06597
G1 F300 X-51.73897 Y26.90611
G1 F300 X-51.57818 Y26.76973
G1 F300 X-51.54356 Y26.70509
G1 F300 X-51.53671 Y26.62869
G1 F300 X-51.56114 Y26.55599
G1 F300 X-51.81186 Y26.31594
G1 F300 X-51.92591 Y26.14370
G1 F300 X-51.98484 Y25.99963
G1 F300 X-51.96221 Y25.96504
G1 F300 X-51.57364 Y25.96504
G1 F300 X-51.48507 Y26.09265
G1 F300 X-51.37727 Y26.18838
G1 F300 X-51.26302 Y26.25396
G1 F300 X-51.13788 Y26.29496
G1 F300 X-50.99459 Y26.31101
G1 F300 X-50.44458 Y26.31101
G1 F300 X-50.30737 Y26.29658
G1 F300 X-50.17613 Y26.25396
G1 F300 X-50.05177 Y26.18101
G1 F300 X-49.95411 Y26.09265
G1 F300 X-49.86554 Y25.96504
G1 F300 X-49.47694 Y25.96504
G1 F300 X-49.45431 Y25.99963
G1 F300 X-49.51327 Y26.14372
G1 F300 X-49.62726 Y26.31589
G1 F300 X-49.87138 Y26.54553
G1 F300 X-49.90364 Y26.65490
G1 F300 X-49.86097 Y26.76973
G1 F300 X-49.70018 Y26.90611
G1 F300 X-49.56899 Y27.06595
G1 F300 X-49.47166 Y27.24801
G1 F300 X-49.41174 Y27.44558
G1 F300 X-49.39150 Y27.65101
G1 F300 X-49.41174 Y27.85647
G1 F300 X-49.47166 Y28.05403
G1 F300 X-49.56899 Y28.23610
G1 F300 X-49.75678 Y28.45137
G1 F300 X-49.79198 Y28.54471
G1 F300 X-49.78469 Y28.61433
G1 F300 X-49.75050 Y28.67852
G1 F300 X-49.59963 Y28.80575
G1 F300 X-49.51240 Y28.91205
G1 F300 X-49.44771 Y29.03310
G1 F300 X-49.40786 Y29.16442
G1 F300 X-49.39350 Y29.31022
G1 F300 X-49.39350 Y29.99185
G1 F300 X-49.40786 Y30.13765
G1 F300 X-49.44773 Y30.26899
G1 F300 X-49.51240 Y30.38999
G1 F300 X-49.59950 Y30.49614
G1 F300 X-49.70557 Y30.58319
G1 F300 X-49.82663 Y30.64788
G1 F300 X-49.95799 Y30.68773
G1 F300 X-50.10376 Y30.70208
G1 F300 X-51.33539 Y30.70208
G1 F300 X-51.48116 Y30.68773
G1 F300 X-51.61252 Y30.64788
G1 F300 X-51.73356 Y30.58321
G1 F300 X-51.83965 Y30.49614
G1 F300 X-51.92700 Y30.38966
G1 F300 X-52.01649 Y30.22980
G1 F300 X-52.15504 Y30.11151
G1 F300 X-53.67973 Y28.58680
G1 F300 X-53.83548 Y28.37638
G1 F300 X-53.93914 Y28.33267
G1 F300 X-54.02580 Y28.34519
G1 F300 X-54.10584 Y28.40646
G1 F300 X-54.14056 Y28.48685
G1 F300 X-54.14351 Y29.34184
G1 F300 X-54.15786 Y29.48761
G1 F300 X-54.19771 Y29.61898
G1 F300 X-54.26241 Y29.74003
G1 F300 X-54.34973 Y29.84641
G1 F300 X-54.47526 Y29.95266
G1 F300 X-54.51867 Y30.04295
G1 F300 X-54.51798 Y32.27851
G1 F300 X-54.49007 Y32.34592
G1 F300 X-54.43848 Y32.39751
G1 F300 X-54.33459 Y32.42903
G1 F300 X-48.05805 Y32.42586
G1 F300 X-47.93057 Y32.43840
G1 F300 X-47.80842 Y32.47546
G1 F300 X-47.69584 Y32.53563
G1 F300 X-47.59678 Y32.61691
G1 F300 X-46.68680 Y33.53139
G1 F300 X-46.63651 Y33.56639
G1 F300 X-46.55460 Y33.58618
G1 F300 X-46.48302 Y33.57193
G1 F300 X-46.42237 Y33.53139
G1 F300 X-46.37840 Y33.45948
G1 F300 X-46.36758 Y33.39916
G1 F300 X-46.37118 Y23.21041
G1 F300 X-46.42237 Y23.11467
G1 F300 X-48.29793 Y21.23911
G1 F300 X-48.35437 Y21.20038
G1 F300 X-48.42096 Y21.18455
G1 F300 X-48.48878 Y21.19377
G1 F300 X-48.79160 Y21.37393
G1 F300 X-48.98914 Y21.43385
G1 F300 X-49.14309 Y21.44902
G1 F300 X-49.79607 Y21.44902
G1 F300 X-49.95004 Y21.43385
G1 F300 X-50.14755 Y21.37393
G1 F300 X-50.32962 Y21.27663
G1 F300 X-50.48918 Y21.14566
G1 F300 X-50.62020 Y20.98608
G1 F300 X-50.71748 Y20.80403
G1 F300 X-50.77742 Y20.60650
G1 F300 X-50.79764 Y20.40104
G1 F300 X-50.77742 Y20.19555
G1 F300 X-50.71748 Y19.99804
G1 F300 X-50.62020 Y19.81597
G1 F300 X-50.48898 Y19.65616
G1 F300 X-50.32802 Y19.51938
G1 F300 X-50.29386 Y19.45529
G1 F300 X-50.28672 Y19.38273
G1 F300 X-50.32995 Y19.28044
G1 F300 X-50.48896 Y19.14595
G1 F300 X-50.62020 Y18.98603
G1 F300 X-50.71748 Y18.80404
G1 F300 X-50.77742 Y18.60648
G1 F300 X-50.79764 Y18.40102
G1 F300 X-50.77742 Y18.19561
G1 F300 X-50.71748 Y17.99810
G1 F300 X-50.62017 Y17.81598
G1 F300 X-50.48896 Y17.65611
G1 F300 X-50.32281 Y17.51263
G1 F300 X-50.28550 Y17.40488
G1 F300 X-50.31779 Y17.29553
G1 F300 X-50.56190 Y17.06594
G1 F300 X-50.67590 Y16.89370
G1 F300 X-50.73485 Y16.74964
G1 F300 X-50.71220 Y16.71504
G1 F300 X-50.32363 Y16.71504
G1 F300 X-50.23902 Y16.83775
G1 F300 X-50.12726 Y16.93838
G1 F300 X-50.00717 Y17.00620
G1 F300 X-49.88786 Y17.04496
G1 F300 X-49.74458 Y17.06104
G1 F300 X-49.19460 Y17.06104
G1 F300 X-49.05736 Y17.04659
G1 F300 X-48.93201 Y17.00620
G1 F300 X-48.80664 Y16.93498
G1 F300 X-48.70016 Y16.83775
G1 F300 X-48.61553 Y16.71504
G1 F300 X-48.22696 Y16.71504
G1 F300 X-48.20430 Y16.74969
G1 F300 X-48.26326 Y16.89368
G1 F300 X-48.37728 Y17.06594
G1 F300 X-48.52264 Y17.21260
G1 F300 X-48.59650 Y17.26602
G1 F300 X-48.63963 Y17.32944
G1 F300 X-48.65297 Y17.41725
G1 F300 X-48.61096 Y17.51974
G1 F300 X-48.37446 Y17.72865
G1 F300 X-48.30626 Y17.75106
G1 F300 X-48.06750 Y17.76241
G1 F300 X-47.94543 Y17.79944
G1 F300 X-47.83283 Y17.85964
G1 F300 X-47.73382 Y17.94090
G1 F300 X-45.03680 Y20.64239
G1 F300 X-44.97614 Y20.68293
G1 F300 X-44.90459 Y20.69718
G1 F300 X-44.83301 Y20.68293
G1 F300 X-44.77236 Y20.64239
G1 F300 X-44.73182 Y20.58173
G1 F300 X-44.71757 Y20.51016
G1 F300 X-44.71757 Y15.87659
G1 F300 X-44.70568 Y15.75606
G1 F300 X-44.65961 Y15.56988
G1 F300 X-44.61736 Y15.46879
G1 F300 X-44.46067 Y15.23455
G1 F300 X-44.31716 Y15.10331
G1 F300 X-44.15338 Y15.00374
G1 F300 X-43.96806 Y14.93577
G1 F300 X-43.86342 Y14.91507
G1 F300 X-43.74394 Y14.90303
G1 F300 X-14.19512 Y14.90303
G1 F300 X-14.07460 Y14.91492
G1 F300 X-13.88580 Y14.96186
G1 F300 X-13.70981 Y15.04456
G1 F300 X-13.62129 Y15.10425
G1 F300 X-13.42337 Y15.30156
G1 F300 X-13.32098 Y15.46981
G1 F300 X-13.28032 Y15.56846
G1 F300 X-13.23361 Y15.75718
G1 F300 X-13.22159 Y15.87659
G1 F300 X-13.22159 Y45.42552
G1 F300 X-13.23348 Y45.54602
G1 F300 X-13.28037 Y45.73474
G1 F300 X-13.36310 Y45.91084
G1 F300 X-13.47844 Y46.06748
G1 F300 X-13.62202 Y46.19875
G1 F300 X-13.78834 Y46.29962
G1 F300 X-13.97110 Y46.36626
G1 F300 X-14.19510 Y46.39901
G1 F300 X-40.33071 Y46.39901
G1 F300 X-40.42954 Y46.42750
G1 F300 X-40.48618 Y46.48211
G1 F300 X-40.51410 Y46.54953
G1 F300 X-40.51410 Y46.62250
G1 F300 X-40.36535 Y46.88625
G1 F300 X-40.30470 Y46.92679
G1 F300 X-40.23315 Y46.94104
G1 F300 X-30.24401 Y46.93787
G1 F300 X-30.11653 Y46.95039
G1 F300 X-29.99441 Y46.98745
G1 F300 X-29.88181 Y47.04765
G1 F300 X-29.78280 Y47.12887
G1 F300 X-28.64592 Y48.27025
G1 F300 X-28.58527 Y48.31079
G1 F300 X-28.51371 Y48.32504
G1 F300 X-9.26224 Y48.32029
G1 F300 X-9.19082 Y48.29473
G1 F300 X-9.12201 Y48.22067
G1 F300 X-9.10176 Y48.14754
G1 F300 X-9.11680 Y48.06100
G1 F300 X-9.15594 Y48.00309
G1 F300 X-9.67972 Y47.48379
G1 F300 X-9.76097 Y47.38478
G1 F300 X-9.82114 Y47.27221
G1 F300 X-9.85820 Y47.15008
G1 F300 X-9.87075 Y47.02258
G1 F300 X-9.87075 Y25.90146
G1 F300 X-9.85820 Y25.77400
G1 F300 X-9.82114 Y25.65183
G1 F300 X-9.76097 Y25.53926
G1 F300 X-9.68000 Y25.44060
G1 F300 X-9.58132 Y25.35963
G1 F300 X-9.46877 Y25.29945
G1 F300 X-9.34657 Y25.26240
G1 F300 X-9.21916 Y25.24985
G1 F300 X-5.65697 Y25.25302
G1 F300 X-5.59222 Y25.24147
G1 F300 X-5.53621 Y25.20880
G1 F300 X-5.43535 Y25.10565
G1 F300 X-5.39707 Y25.00403
;G04 P0 ; dwell for no time -- G64 should not smooth over this point 
G1 F3000 Z3.00000 ; retract 

G1 F3000 X-3.53787 Y27.83829 ; rapid move to begin. 
G1 F300 F300.00000
G1 F300 Z-0.07000
;G04 P0 ; dwell for no time -- G64 should not smooth over this point 
G1 F300 F600.00000
G1 F300 X-3.53787 Y27.83829
G1 F300 X-3.53820 Y27.97001
G1 F300 X-3.56690 Y28.10496
G1 F300 X-3.62016 Y28.22541
G1 F300 X-3.70015 Y28.33775
G1 F300 X-3.81191 Y28.43839
G1 F300 X-3.92613 Y28.50394
G1 F300 X-4.06357 Y28.54758
G1 F300 X-4.19459 Y28.56102
G1 F300 X-4.74460 Y28.56102
G1 F300 X-4.88181 Y28.54659
G1 F300 X-5.01302 Y28.50394
G1 F300 X-5.13741 Y28.43102
G1 F300 X-5.23901 Y28.33775
G1 F300 X-5.34767 Y28.16104
G1 F300 X-5.63690 Y28.16104
G1 F300 X-7.25808 Y29.78222
G1 F300 X-7.25808 Y46.83881
G1 F300 X-5.42171 Y48.67518
G1 F300 X-5.36789 Y48.75422
G1 F300 X-5.34970 Y48.81414
G1 F300 X-5.34556 Y57.74902
G1 F300 X-5.36789 Y57.85385
G1 F300 X-5.41777 Y57.92852
G1 F300 X-5.46616 Y57.96825
G1 F300 X-5.60558 Y58.00904
G1 F300 X-18.55958 Y58.00904
G1 F300 X-18.66438 Y57.98671
G1 F300 X-18.74343 Y57.93289
G1 F300 X-18.91226 Y57.75822
G1 F300 X-18.94177 Y57.70297
G1 F300 X-18.95928 Y57.61491
G1 F300 X-18.95958 Y54.73132
G1 F300 X-19.15986 Y54.64567
G1 F300 X-19.30850 Y54.53727
G1 F300 X-19.43184 Y54.40077
G1 F300 X-19.53316 Y54.22528
G1 F300 X-19.58970 Y54.05022
G1 F300 X-19.60959 Y53.86102
G1 F300 X-19.58970 Y53.67181
G1 F300 X-19.53316 Y53.49676
G1 F300 X-19.43921 Y53.33140
G1 F300 X-19.31295 Y53.18919
G1 F300 X-19.14899 Y53.07009
G1 F300 X-18.98079 Y52.99556
G1 F300 X-18.86212 Y52.96999
G1 F300 X-18.78577 Y52.92602
G1 F300 X-18.72049 Y52.91212
G1 F300 X-18.61922 Y52.92376
G1 F300 X-18.53700 Y52.97001
G1 F300 X-18.41252 Y52.99780
G1 F300 X-18.23931 Y53.07636
G1 F300 X-18.08623 Y53.18919
G1 F300 X-17.96733 Y53.32124
G1 F300 X-17.87111 Y53.48528
G1 F300 X-17.80947 Y53.67181
G1 F300 X-17.78991 Y53.85474
G1 F300 X-17.80947 Y54.05022
G1 F300 X-17.86601 Y54.22528
G1 F300 X-17.96733 Y54.40077
G1 F300 X-18.09067 Y54.53727
G1 F300 X-18.23931 Y54.64567
G1 F300 X-18.43957 Y54.73132
G1 F300 X-18.43957 Y57.48903
G1 F300 X-5.86558 Y57.48903
G1 F300 X-5.86558 Y48.96674
G1 F300 X-7.70194 Y47.13037
G1 F300 X-7.75577 Y47.05133
G1 F300 X-7.77779 Y46.95240
G1 F300 X-7.77779 Y29.66863
G1 F300 X-7.75577 Y29.56970
G1 F300 X-7.70194 Y29.49066
G1 F300 X-5.92407 Y27.71324
G1 F300 X-5.84940 Y27.66336
G1 F300 X-5.78948 Y27.64517
G1 F300 X-5.34769 Y27.64103
G1 F300 X-5.23507 Y27.45939
G1 F300 X-5.13741 Y27.37100
G1 F300 X-5.01302 Y27.29808
G1 F300 X-4.88181 Y27.25543
G1 F300 X-4.74460 Y27.24100
G1 F300 X-4.18831 Y27.24133
G1 F300 X-4.05737 Y27.25543
G1 F300 X-3.93200 Y27.29582
G1 F300 X-3.81191 Y27.36364
G1 F300 X-3.70015 Y27.46427
G1 F300 X-3.62644 Y27.56574
G1 F300 X-3.56914 Y27.69119
G1 F300 X-3.53787 Y27.83829
;G04 P0 ; dwell for no time -- G64 should not smooth over this point 
G1 F3000 Z3.00000 ; retract 

G1 F3000 X-3.53787 Y29.83831 ; rapid move to begin. 
G1 F300 F300.00000
G1 F300 Z-0.07000
;G04 P0 ; dwell for no time -- G64 should not smooth over this point 
G1 F300 F600.00000
G1 F300 X-3.53787 Y29.83831
G1 F300 X-3.53820 Y29.97001
G1 F300 X-3.56690 Y30.10496
G1 F300 X-3.62016 Y30.22543
G1 F300 X-3.70411 Y30.34265
G1 F300 X-3.81191 Y30.43838
G1 F300 X-3.92613 Y30.50396
G1 F300 X-4.05737 Y30.54659
G1 F300 X-4.18831 Y30.56068
G1 F300 X-4.75087 Y30.56068
G1 F300 X-4.88181 Y30.54659
G1 F300 X-5.01302 Y30.50396
G1 F300 X-5.13741 Y30.43102
G1 F300 X-5.23507 Y30.34265
G1 F300 X-5.31274 Y30.23627
G1 F300 X-5.37228 Y30.10496
G1 F300 X-5.40098 Y29.97001
G1 F300 X-5.40098 Y29.83203
G1 F300 X-5.37228 Y29.69706
G1 F300 X-5.31274 Y29.56574
G1 F300 X-5.23507 Y29.45939
G1 F300 X-5.12725 Y29.36363
G1 F300 X-5.01302 Y29.29807
G1 F300 X-4.88181 Y29.25543
G1 F300 X-4.75087 Y29.24133
G1 F300 X-4.18831 Y29.24133
G1 F300 X-4.05737 Y29.25543
G1 F300 X-3.92613 Y29.29807
G1 F300 X-3.80177 Y29.37102
G1 F300 X-3.70411 Y29.45939
G1 F300 X-3.62644 Y29.56574
G1 F300 X-3.56690 Y29.69706
G1 F300 X-3.53787 Y29.83831
;G04 P0 ; dwell for no time -- G64 should not smooth over this point 
G1 F3000 Z3.00000 ; retract 

G1 F3000 X-4.78359 Y32.55585 ; rapid move to begin. 
G1 F300 F300.00000
G1 F300 Z-0.07000
;G04 P0 ; dwell for no time -- G64 should not smooth over this point 
G1 F300 F600.00000
G1 F300 X-4.78359 Y32.55585
G1 F300 X-4.78359 Y32.94902
G1 F300 X-4.85278 Y32.94902
G1 F300 X-5.05473 Y32.90795
G1 F300 X-5.24526 Y32.82806
G1 F300 X-5.41645 Y32.71262
G1 F300 X-5.56187 Y32.56594
G1 F300 X-5.67589 Y32.39372
G1 F300 X-5.73484 Y32.24963
G1 F300 X-5.71221 Y32.21504
G1 F300 X-5.32364 Y32.21504
G1 F300 X-5.23507 Y32.34265
G1 F300 X-5.12725 Y32.43838
G1 F300 X-5.00718 Y32.50620
G1 F300 X-4.88138 Y32.54668
G1 F300 X-4.78359 Y32.55585
;G04 P0 ; dwell for no time -- G64 should not smooth over this point 
G1 F3000 Z3.00000 ; retract 

G1 F3000 X-3.13462 Y44.95199 ; rapid move to begin. 
G1 F300 F300.00000
G1 F300 Z-0.07000
;G04 P0 ; dwell for no time -- G64 should not smooth over this point 
G1 F300 F600.00000
G1 F300 X-3.13462 Y44.95199
G1 F300 X-3.20368 Y44.81229
G1 F300 X-3.50673 Y44.65799
G1 F300 X-3.87607 Y44.55397
G1 F300 X-4.25862 Y44.52400
G1 F300 X-4.63970 Y44.56921
G1 F300 X-5.00642 Y44.68852
G1 F300 X-5.23459 Y44.81046
G1 F300 X-5.30454 Y44.95199
G1 F300 X-5.07335 Y45.18318
G1 F300 X-4.99400 Y45.12715
G1 F300 X-4.69558 Y44.99573
G1 F300 X-4.38884 Y44.93053
G1 F300 X-4.06279 Y44.92923
G1 F300 X-3.73751 Y44.99736
G1 F300 X-3.44518 Y45.12715
G1 F300 X-3.36581 Y45.18321
G1 F300 X-3.13462 Y44.95199
;G04 P0 ; dwell for no time -- G64 should not smooth over this point 
G1 F3000 Z3.00000 ; retract 

G1 F3000 X-2.26253 Y46.44196 ; rapid move to begin. 
G1 F300 F300.00000
G1 F300 Z-0.07000
;G04 P0 ; dwell for no time -- G64 should not smooth over this point 
G1 F300 F600.00000
G1 F300 X-2.26253 Y46.44196
G1 F300 X-2.29251 Y46.82446
G1 F300 X-2.39655 Y47.19387
G1 F300 X-2.55085 Y47.49692
G1 F300 X-2.69055 Y47.56598
G1 F300 X-2.92106 Y47.33548
G1 F300 X-2.79446 Y47.11551
G1 F300 X-2.69530 Y46.81143
G1 F300 X-2.65959 Y46.48102
G1 F300 X-2.69530 Y46.15059
G1 F300 X-2.79446 Y45.84650
G1 F300 X-2.92106 Y45.62657
G1 F300 X-2.69055 Y45.39606
G1 F300 X-2.54900 Y45.46604
G1 F300 X-2.42705 Y45.69421
G1 F300 X-2.30777 Y46.06091
G1 F300 X-2.26253 Y46.44196
;G04 P0 ; dwell for no time -- G64 should not smooth over this point 
G1 F3000 Z3.00000 ; retract 

G1 F3000 X-7.62958 Y50.47101 ; rapid move to begin. 
G1 F300 F300.00000
G1 F300 Z-0.07000
;G04 P0 ; dwell for no time -- G64 should not smooth over this point 
G1 F300 F600.00000
G1 F300 X-7.62958 Y50.47101
G1 F300 X-7.62958 Y52.17100
G1 F300 X-7.64716 Y52.21345
G1 F300 X-7.68957 Y52.23102
G1 F300 X-9.38960 Y52.23102
G1 F300 X-9.43201 Y52.21345
G1 F300 X-9.44959 Y52.17100
G1 F300 X-9.44842 Y50.45930
G1 F300 X-9.42292 Y50.42112
G1 F300 X-9.38960 Y50.41101
G1 F300 X-8.79958 Y50.41101
G1 F300 X-8.79958 Y49.84271
G1 F300 X-9.40926 Y49.23304
G1 F300 X-28.59957 Y49.23304
G1 F300 X-28.59957 Y50.45071
G1 F300 X-28.39931 Y50.53636
G1 F300 X-28.25067 Y50.64474
G1 F300 X-28.11996 Y50.79140
G1 F300 X-28.02601 Y50.95676
G1 F300 X-27.96947 Y51.13181
G1 F300 X-27.94958 Y51.32102
G1 F300 X-27.96850 Y51.50400
G1 F300 X-28.03111 Y51.69673
G1 F300 X-28.12733 Y51.86077
G1 F300 X-28.25555 Y52.00123
G1 F300 X-28.41018 Y52.11195
G1 F300 X-28.57838 Y52.18647
G1 F300 X-28.75827 Y52.22505
G1 F300 X-28.94844 Y52.22635
G1 F300 X-29.14079 Y52.18647
G1 F300 X-29.30899 Y52.11195
G1 F300 X-29.47295 Y51.99282
G1 F300 X-29.59921 Y51.85063
G1 F300 X-29.69316 Y51.68528
G1 F300 X-29.74970 Y51.51022
G1 F300 X-29.76926 Y51.32729
G1 F300 X-29.74808 Y51.12574
G1 F300 X-29.68806 Y50.94528
G1 F300 X-29.59184 Y50.78124
G1 F300 X-29.46850 Y50.64474
G1 F300 X-29.31986 Y50.53636
G1 F300 X-29.11958 Y50.45071
G1 F300 X-29.11958 Y49.08071
G1 F300 X-30.35128 Y47.84904
G1 F300 X-40.64458 Y47.84904
G1 F300 X-40.73370 Y48.12742
G1 F300 X-40.87173 Y48.36390
G1 F300 X-41.05590 Y48.56649
G1 F300 X-41.27818 Y48.72636
G1 F300 X-41.52278 Y48.83489
G1 F300 X-41.78445 Y48.89085
G1 F300 X-42.05824 Y48.89217
G1 F300 X-42.33241 Y48.83489
G1 F300 X-42.57698 Y48.72636
G1 F300 X-42.80416 Y48.56253
G1 F300 X-42.98346 Y48.36390
G1 F300 X-43.12433 Y48.12184
G1 F300 X-43.20733 Y47.86746
G1 F300 X-43.23726 Y47.58275
G1 F300 X-43.20896 Y47.31666
G1 F300 X-43.12433 Y47.05618
G1 F300 X-42.99083 Y46.82428
G1 F300 X-42.80416 Y46.61549
G1 F300 X-42.58785 Y46.45793
G1 F300 X-42.33241 Y46.34313
G1 F300 X-42.07071 Y46.28717
G1 F300 X-41.79692 Y46.28585
G1 F300 X-41.51691 Y46.34539
G1 F300 X-41.26731 Y46.45793
G1 F300 X-41.05103 Y46.61549
G1 F300 X-40.87173 Y46.81414
G1 F300 X-40.73370 Y47.05059
G1 F300 X-40.64458 Y47.32903
G1 F300 X-30.19867 Y47.33317
G1 F300 X-30.13876 Y47.35135
G1 F300 X-30.05971 Y47.40518
G1 F300 X-28.75186 Y48.71302
G1 F300 X-9.29569 Y48.71333
G1 F300 X-9.19676 Y48.73535
G1 F300 X-9.11772 Y48.78917
G1 F300 X-8.32036 Y49.59562
G1 F300 X-8.27957 Y49.73502
G1 F300 X-8.27957 Y50.41101
G1 F300 X-7.68957 Y50.41101
G1 F300 X-7.64716 Y50.42859
G1 F300 X-7.62958 Y50.47101
;G04 P0 ; dwell for no time -- G64 should not smooth over this point 
G1 F3000 Z3.00000 ; retract 

G1 F3000 X-9.40090 Y49.87119 ; rapid move to begin. 
G1 F300 F300.00000
G1 F300 Z-0.07000
;G04 P0 ; dwell for no time -- G64 should not smooth over this point 
G1 F300 F600.00000
G1 F300 X-9.40090 Y49.87119
G1 F300 X-9.41667 Y49.79242
G1 F300 X-9.45663 Y49.73441
G1 F300 X-9.54413 Y49.65216
G1 F300 X-9.64746 Y49.62102
G1 F300 X-28.02459 Y49.62102
G1 F300 X-28.10650 Y49.64081
G1 F300 X-28.15679 Y49.67581
G1 F300 X-28.19733 Y49.73646
G1 F300 X-28.21158 Y49.80802
G1 F300 X-28.21158 Y50.09295
G1 F300 X-28.17259 Y50.20596
G1 F300 X-28.03216 Y50.31279
G1 F300 X-27.85113 Y50.49384
G1 F300 X-27.72156 Y50.68127
G1 F300 X-27.64989 Y50.72498
G1 F300 X-27.58959 Y50.73580
G1 F300 X-27.52926 Y50.72498
G1 F300 X-27.46645 Y50.68848
G1 F300 X-27.32802 Y50.49384
G1 F300 X-27.14699 Y50.31279
G1 F300 X-26.93439 Y50.17075
G1 F300 X-26.69820 Y50.07291
G1 F300 X-26.44742 Y50.02303
G1 F300 X-26.19175 Y50.02303
G1 F300 X-25.94097 Y50.07291
G1 F300 X-25.70475 Y50.17075
G1 F300 X-25.49216 Y50.31279
G1 F300 X-25.31113 Y50.49384
G1 F300 X-25.18156 Y50.68127
G1 F300 X-25.12114 Y50.72155
G1 F300 X-25.04959 Y50.73580
G1 F300 X-24.97801 Y50.72155
G1 F300 X-24.91758 Y50.68127
G1 F300 X-24.78802 Y50.49384
G1 F300 X-24.60699 Y50.31279
G1 F300 X-24.39439 Y50.17075
G1 F300 X-24.15820 Y50.07291
G1 F300 X-23.90740 Y50.02303
G1 F300 X-23.65175 Y50.02303
G1 F300 X-23.40097 Y50.07291
G1 F300 X-23.16475 Y50.17075
G1 F300 X-22.95216 Y50.31279
G1 F300 X-22.77113 Y50.49384
G1 F300 X-22.64156 Y50.68127
G1 F300 X-22.57560 Y50.72353
G1 F300 X-22.48480 Y50.73336
G1 F300 X-22.37758 Y50.68127
G1 F300 X-22.24802 Y50.49384
G1 F300 X-22.06699 Y50.31279
G1 F300 X-21.85439 Y50.17075
G1 F300 X-21.61820 Y50.07291
G1 F300 X-21.36742 Y50.02303
G1 F300 X-21.11175 Y50.02303
G1 F300 X-20.86097 Y50.07291
G1 F300 X-20.62475 Y50.17075
G1 F300 X-20.41216 Y50.31279
G1 F300 X-20.23113 Y50.49384
G1 F300 X-20.09143 Y50.69351
G1 F300 X-20.02755 Y50.73237
G1 F300 X-19.96560 Y50.74335
G1 F300 X-19.84947 Y50.70382
G1 F300 X-19.74388 Y50.55160
G1 F300 X-19.57327 Y50.36232
G1 F300 X-19.36946 Y50.21028
G1 F300 X-19.07576 Y50.08081
G1 F300 X-19.01358 Y50.11363
G1 F300 X-19.01358 Y50.47139
G1 F300 X-19.15432 Y50.53278
G1 F300 X-19.30850 Y50.64474
G1 F300 X-19.43184 Y50.78124
G1 F300 X-19.52806 Y50.94528
G1 F300 X-19.59069 Y51.13801
G1 F300 X-19.60959 Y51.32102
G1 F300 X-19.58970 Y51.51022
G1 F300 X-19.53316 Y51.68528
G1 F300 X-19.43921 Y51.85063
G1 F300 X-19.30362 Y52.00123
G1 F300 X-19.14899 Y52.11195
G1 F300 X-18.98079 Y52.18647
G1 F300 X-18.80091 Y52.22505
G1 F300 X-18.61074 Y52.22635
G1 F300 X-18.41252 Y52.18421
G1 F300 X-18.23931 Y52.10567
G1 F300 X-18.09067 Y51.99727
G1 F300 X-17.96733 Y51.86077
G1 F300 X-17.87111 Y51.69673
G1 F300 X-17.80850 Y51.50400
G1 F300 X-17.78958 Y51.32102
G1 F300 X-17.80850 Y51.13801
G1 F300 X-17.87111 Y50.94528
G1 F300 X-17.96733 Y50.78124
G1 F300 X-18.09067 Y50.64474
G1 F300 X-18.24485 Y50.53278
G1 F300 X-18.38557 Y50.47139
G1 F300 X-18.38557 Y50.11363
G1 F300 X-18.32339 Y50.08081
G1 F300 X-18.02969 Y50.21030
G1 F300 X-17.82588 Y50.36232
G1 F300 X-17.65529 Y50.55158
G1 F300 X-17.57470 Y50.68058
G1 F300 X-17.47101 Y50.73981
G1 F300 X-17.37165 Y50.73237
G1 F300 X-17.30774 Y50.69351
G1 F300 X-17.16802 Y50.49384
G1 F300 X-16.98699 Y50.31279
G1 F300 X-16.77439 Y50.17075
G1 F300 X-16.53820 Y50.07291
G1 F300 X-16.28740 Y50.02303
G1 F300 X-16.03175 Y50.02303
G1 F300 X-15.78097 Y50.07291
G1 F300 X-15.54475 Y50.17075
G1 F300 X-15.33216 Y50.31279
G1 F300 X-15.15113 Y50.49384
G1 F300 X-15.02156 Y50.68127
G1 F300 X-14.96114 Y50.72155
G1 F300 X-14.88959 Y50.73580
G1 F300 X-14.81801 Y50.72155
G1 F300 X-14.75758 Y50.68127
G1 F300 X-14.62802 Y50.49384
G1 F300 X-14.44699 Y50.31279
G1 F300 X-14.23439 Y50.17075
G1 F300 X-13.99820 Y50.07291
G1 F300 X-13.74742 Y50.02303
G1 F300 X-13.49175 Y50.02303
G1 F300 X-13.24097 Y50.07291
G1 F300 X-13.00475 Y50.17075
G1 F300 X-12.79216 Y50.31279
G1 F300 X-12.61113 Y50.49384
G1 F300 X-12.48156 Y50.68127
G1 F300 X-12.42114 Y50.72155
G1 F300 X-12.34959 Y50.73580
G1 F300 X-12.27801 Y50.72155
G1 F300 X-12.21758 Y50.68127
G1 F300 X-12.08802 Y50.49384
G1 F300 X-11.90699 Y50.31279
G1 F300 X-11.69439 Y50.17075
G1 F300 X-11.45820 Y50.07291
G1 F300 X-11.20740 Y50.02303
G1 F300 X-10.95175 Y50.02303
G1 F300 X-10.70097 Y50.07291
G1 F300 X-10.46475 Y50.17075
G1 F300 X-10.25183 Y50.31302
G1 F300 X-10.09813 Y50.45902
G1 F300 X-10.02602 Y50.48452
G1 F300 X-9.94977 Y50.47901
G1 F300 X-9.85513 Y50.41599
G1 F300 X-9.76387 Y50.22092
G1 F300 X-9.70788 Y50.15272
G1 F300 X-9.63969 Y50.09674
G1 F300 X-9.49750 Y50.03105
G1 F300 X-9.44344 Y49.98592
G1 F300 X-9.40090 Y49.87119
;G04 P0 ; dwell for no time -- G64 should not smooth over this point 
G1 F3000 Z3.00000 ; retract 

G1 F3000 X-10.16958 Y51.32102 ; rapid move to begin. 
G1 F300 F300.00000
G1 F300 Z-0.07000
;G04 P0 ; dwell for no time -- G64 should not smooth over this point 
G1 F300 F600.00000
G1 F300 X-10.16958 Y51.32102
G1 F300 X-10.18947 Y51.13181
G1 F300 X-10.24601 Y50.95676
G1 F300 X-10.33996 Y50.79140
G1 F300 X-10.46623 Y50.64919
G1 F300 X-10.61931 Y50.53636
G1 F300 X-10.79252 Y50.45780
G1 F300 X-10.99074 Y50.41566
G1 F300 X-11.18091 Y50.41698
G1 F300 X-11.36079 Y50.45556
G1 F300 X-11.53986 Y50.53636
G1 F300 X-11.68850 Y50.64474
G1 F300 X-11.81184 Y50.78124
G1 F300 X-11.90806 Y50.94528
G1 F300 X-11.96970 Y51.13181
G1 F300 X-11.98959 Y51.32102
G1 F300 X-11.96970 Y51.51022
G1 F300 X-11.91316 Y51.68528
G1 F300 X-11.81921 Y51.85063
G1 F300 X-11.69295 Y51.99282
G1 F300 X-11.52899 Y52.11195
G1 F300 X-11.36079 Y52.18647
G1 F300 X-11.16844 Y52.22635
G1 F300 X-10.97827 Y52.22505
G1 F300 X-10.79838 Y52.18647
G1 F300 X-10.61931 Y52.10567
G1 F300 X-10.47067 Y51.99727
G1 F300 X-10.33996 Y51.85063
G1 F300 X-10.24601 Y51.68528
G1 F300 X-10.18947 Y51.51022
G1 F300 X-10.16958 Y51.32102
;G04 P0 ; dwell for no time -- G64 should not smooth over this point 
G1 F3000 Z3.00000 ; retract 

G1 F3000 X-7.62958 Y53.86102 ; rapid move to begin. 
G1 F300 F300.00000
G1 F300 Z-0.07000
;G04 P0 ; dwell for no time -- G64 should not smooth over this point 
G1 F300 F600.00000
G1 F300 X-7.62958 Y53.86102
G1 F300 X-7.64947 Y53.67181
G1 F300 X-7.70601 Y53.49676
G1 F300 X-7.79996 Y53.33140
G1 F300 X-7.92623 Y53.18919
G1 F300 X-8.07931 Y53.07636
G1 F300 X-8.25252 Y52.99780
G1 F300 X-8.45074 Y52.95566
G1 F300 X-8.64091 Y52.95698
G1 F300 X-8.82079 Y52.99556
G1 F300 X-8.99986 Y53.07636
G1 F300 X-9.14850 Y53.18474
G1 F300 X-9.27184 Y53.32124
G1 F300 X-9.36806 Y53.48528
G1 F300 X-9.42970 Y53.67181
G1 F300 X-9.44959 Y53.86102
G1 F300 X-9.42970 Y54.05022
G1 F300 X-9.37316 Y54.22528
G1 F300 X-9.27921 Y54.39063
G1 F300 X-9.15295 Y54.53282
G1 F300 X-8.98899 Y54.65195
G1 F300 X-8.82079 Y54.72647
G1 F300 X-8.62844 Y54.76635
G1 F300 X-8.43827 Y54.76505
G1 F300 X-8.25838 Y54.72647
G1 F300 X-8.07931 Y54.64567
G1 F300 X-7.93067 Y54.53727
G1 F300 X-7.79996 Y54.39063
G1 F300 X-7.70601 Y54.22528
G1 F300 X-7.64947 Y54.05022
G1 F300 X-7.62958 Y53.86102
;G04 P0 ; dwell for no time -- G64 should not smooth over this point 
G1 F3000 Z3.00000 ; retract 

G1 F3000 X-7.52384 Y55.08497 ; rapid move to begin. 
G1 F300 F300.00000
G1 F300 Z-0.07000
;G04 P0 ; dwell for no time -- G64 should not smooth over this point 
G1 F300 F600.00000
G1 F300 X-7.52384 Y55.08497
G1 F300 X-7.52717 Y55.93460
G1 F300 X-7.58048 Y56.03229
G1 F300 X-7.63900 Y56.07079
G1 F300 X-7.69887 Y56.08387
G1 F300 X-15.43858 Y56.08504
G1 F300 X-15.54488 Y56.05182
G1 F300 X-15.59405 Y56.00193
G1 F300 X-15.62283 Y55.92868
G1 F300 X-15.62558 Y55.16526
G1 F300 X-15.61133 Y55.09370
G1 F300 X-15.54719 Y55.01329
G1 F300 X-15.33216 Y54.86924
G1 F300 X-15.15136 Y54.68845
G1 F300 X-15.02001 Y54.49706
G1 F300 X-14.95878 Y54.45416
G1 F300 X-14.87353 Y54.43902
G1 F300 X-14.76947 Y54.47824
G1 F300 X-14.66353 Y54.63087
G1 F300 X-14.49327 Y54.81974
G1 F300 X-14.28946 Y54.97176
G1 F300 X-13.99576 Y55.10125
G1 F300 X-13.93358 Y55.06841
G1 F300 X-13.93358 Y54.71065
G1 F300 X-14.07432 Y54.64926
G1 F300 X-14.22850 Y54.53727
G1 F300 X-14.35921 Y54.39063
G1 F300 X-14.45316 Y54.22528
G1 F300 X-14.51069 Y54.04400
G1 F300 X-14.52959 Y53.86102
G1 F300 X-14.51069 Y53.67801
G1 F300 X-14.44806 Y53.48528
G1 F300 X-14.35184 Y53.32124
G1 F300 X-14.22850 Y53.18474
G1 F300 X-14.07986 Y53.07636
G1 F300 X-13.90666 Y52.99780
G1 F300 X-13.70844 Y52.95566
G1 F300 X-13.51827 Y52.95698
G1 F300 X-13.33838 Y52.99556
G1 F300 X-13.17018 Y53.07009
G1 F300 X-13.01555 Y53.18081
G1 F300 X-12.87996 Y53.33140
G1 F300 X-12.78601 Y53.49676
G1 F300 X-12.72947 Y53.67181
G1 F300 X-12.70958 Y53.86102
G1 F300 X-12.72850 Y54.04400
G1 F300 X-12.79111 Y54.23673
G1 F300 X-12.88733 Y54.40077
G1 F300 X-13.01067 Y54.53727
G1 F300 X-13.16485 Y54.64926
G1 F300 X-13.30557 Y54.71065
G1 F300 X-13.30557 Y55.06841
G1 F300 X-13.24339 Y55.10125
G1 F300 X-12.94969 Y54.97176
G1 F300 X-12.74585 Y54.81974
G1 F300 X-12.57529 Y54.63048
G1 F300 X-12.46973 Y54.47826
G1 F300 X-12.35360 Y54.43871
G1 F300 X-12.28042 Y54.45413
G1 F300 X-12.22774 Y54.48855
G1 F300 X-12.08804 Y54.68822
G1 F300 X-11.90699 Y54.86924
G1 F300 X-11.69439 Y55.01128
G1 F300 X-11.45820 Y55.10915
G1 F300 X-11.20742 Y55.15901
G1 F300 X-10.95172 Y55.15901
G1 F300 X-10.70097 Y55.10915
G1 F300 X-10.46475 Y55.01128
G1 F300 X-10.25216 Y54.86924
G1 F300 X-10.07113 Y54.68822
G1 F300 X-9.94156 Y54.50079
G1 F300 X-9.83435 Y54.44870
G1 F300 X-9.74355 Y54.45853
G1 F300 X-9.67758 Y54.50079
G1 F300 X-9.54802 Y54.68822
G1 F300 X-9.36699 Y54.86924
G1 F300 X-9.15439 Y55.01128
G1 F300 X-8.91820 Y55.10915
G1 F300 X-8.66742 Y55.15901
G1 F300 X-8.41172 Y55.15901
G1 F300 X-8.16097 Y55.10915
G1 F300 X-7.92473 Y55.01128
G1 F300 X-7.77599 Y54.91834
G1 F300 X-7.72384 Y54.90681
G1 F300 X-7.65277 Y54.91527
G1 F300 X-7.58543 Y54.95413
G1 F300 X-7.53890 Y55.01903
G1 F300 X-7.52384 Y55.08497
;G04 P0 ; dwell for no time -- G64 should not smooth over this point 
G1 F3000 Z3.00000 ; retract 

G1 F3000 X-10.16958 Y53.86102 ; rapid move to begin. 
G1 F300 F300.00000
G1 F300 Z-0.07000
;G04 P0 ; dwell for no time -- G64 should not smooth over this point 
G1 F300 F600.00000
G1 F300 X-10.16958 Y53.86102
G1 F300 X-10.18947 Y54.05022
G1 F300 X-10.24601 Y54.22528
G1 F300 X-10.33996 Y54.39063
G1 F300 X-10.47067 Y54.53727
G1 F300 X-10.61931 Y54.64567
G1 F300 X-10.79838 Y54.72647
G1 F300 X-10.97827 Y54.76505
G1 F300 X-11.16844 Y54.76635
G1 F300 X-11.36079 Y54.72647
G1 F300 X-11.52899 Y54.65195
G1 F300 X-11.69295 Y54.53282
G1 F300 X-11.81921 Y54.39063
G1 F300 X-11.91316 Y54.22528
G1 F300 X-11.96970 Y54.05022
G1 F300 X-11.98959 Y53.86102
G1 F300 X-11.96970 Y53.67181
G1 F300 X-11.90806 Y53.48528
G1 F300 X-11.81184 Y53.32124
G1 F300 X-11.68850 Y53.18474
G1 F300 X-11.53986 Y53.07636
G1 F300 X-11.36079 Y52.99556
G1 F300 X-11.18091 Y52.95698
G1 F300 X-10.99074 Y52.95566
G1 F300 X-10.79252 Y52.99780
G1 F300 X-10.61931 Y53.07636
G1 F300 X-10.46623 Y53.18919
G1 F300 X-10.33996 Y53.33140
G1 F300 X-10.24601 Y53.49676
G1 F300 X-10.18947 Y53.67181
G1 F300 X-10.16958 Y53.86102
;G04 P0 ; dwell for no time -- G64 should not smooth over this point 
G1 F3000 Z3.00000 ; retract 

G1 F3000 X-12.70958 Y51.32102 ; rapid move to begin. 
G1 F300 F300.00000
G1 F300 Z-0.07000
;G04 P0 ; dwell for no time -- G64 should not smooth over this point 
G1 F300 F600.00000
G1 F300 X-12.70958 Y51.32102
G1 F300 X-12.72947 Y51.51022
G1 F300 X-12.78601 Y51.68528
G1 F300 X-12.87996 Y51.85063
G1 F300 X-13.01067 Y51.99727
G1 F300 X-13.15931 Y52.10567
G1 F300 X-13.33838 Y52.18647
G1 F300 X-13.51827 Y52.22505
G1 F300 X-13.70844 Y52.22635
G1 F300 X-13.90079 Y52.18647
G1 F300 X-14.06899 Y52.11195
G1 F300 X-14.23295 Y51.99282
G1 F300 X-14.35921 Y51.85063
G1 F300 X-14.45316 Y51.68528
G1 F300 X-14.50970 Y51.51022
G1 F300 X-14.52959 Y51.32102
G1 F300 X-14.50970 Y51.13181
G1 F300 X-14.44806 Y50.94528
G1 F300 X-14.35184 Y50.78124
G1 F300 X-14.22850 Y50.64474
G1 F300 X-14.07986 Y50.53636
G1 F300 X-13.90079 Y50.45556
G1 F300 X-13.72091 Y50.41698
G1 F300 X-13.53074 Y50.41566
G1 F300 X-13.33252 Y50.45780
G1 F300 X-13.15931 Y50.53636
G1 F300 X-13.00623 Y50.64919
G1 F300 X-12.87996 Y50.79140
G1 F300 X-12.78601 Y50.95676
G1 F300 X-12.72947 Y51.13181
G1 F300 X-12.70958 Y51.32102
;G04 P0 ; dwell for no time -- G64 should not smooth over this point 
G1 F3000 Z3.00000 ; retract 

G1 F3000 X-15.24958 Y51.32102 ; rapid move to begin. 
G1 F300 F300.00000
G1 F300 Z-0.07000
;G04 P0 ; dwell for no time -- G64 should not smooth over this point 
G1 F300 F600.00000
G1 F300 X-15.24958 Y51.32102
G1 F300 X-15.26947 Y51.13181
G1 F300 X-15.32601 Y50.95676
G1 F300 X-15.41996 Y50.79140
G1 F300 X-15.54623 Y50.64919
G1 F300 X-15.69931 Y50.53636
G1 F300 X-15.87252 Y50.45780
G1 F300 X-16.07074 Y50.41566
G1 F300 X-16.26091 Y50.41698
G1 F300 X-16.44079 Y50.45556
G1 F300 X-16.61986 Y50.53636
G1 F300 X-16.76850 Y50.64474
G1 F300 X-16.89184 Y50.78124
G1 F300 X-16.98806 Y50.94528
G1 F300 X-17.04970 Y51.13181
G1 F300 X-17.06959 Y51.32102
G1 F300 X-17.04970 Y51.51022
G1 F300 X-16.99316 Y51.68528
G1 F300 X-16.89921 Y51.85063
G1 F300 X-16.77295 Y51.99282
G1 F300 X-16.60899 Y52.11195
G1 F300 X-16.44079 Y52.18647
G1 F300 X-16.24844 Y52.22635
G1 F300 X-16.05827 Y52.22505
G1 F300 X-15.87838 Y52.18647
G1 F300 X-15.69931 Y52.10567
G1 F300 X-15.55067 Y51.99727
G1 F300 X-15.41996 Y51.85063
G1 F300 X-15.32601 Y51.68528
G1 F300 X-15.26947 Y51.51022
G1 F300 X-15.24958 Y51.32102
;G04 P0 ; dwell for no time -- G64 should not smooth over this point 
G1 F3000 Z3.00000 ; retract 

G1 F3000 X-20.32958 Y51.32102 ; rapid move to begin. 
G1 F300 F300.00000
G1 F300 Z-0.07000
;G04 P0 ; dwell for no time -- G64 should not smooth over this point 
G1 F300 F600.00000
G1 F300 X-20.32958 Y51.32102
G1 F300 X-20.34947 Y51.13181
G1 F300 X-20.40601 Y50.95676
G1 F300 X-20.49996 Y50.79140
G1 F300 X-20.62623 Y50.64919
G1 F300 X-20.77931 Y50.53636
G1 F300 X-20.95252 Y50.45780
G1 F300 X-21.15074 Y50.41566
G1 F300 X-21.34091 Y50.41698
G1 F300 X-21.52079 Y50.45556
G1 F300 X-21.69986 Y50.53636
G1 F300 X-21.84850 Y50.64474
G1 F300 X-21.97184 Y50.78124
G1 F300 X-22.06806 Y50.94528
G1 F300 X-22.12970 Y51.13181
G1 F300 X-22.14959 Y51.32102
G1 F300 X-22.12970 Y51.51022
G1 F300 X-22.07316 Y51.68528
G1 F300 X-21.97921 Y51.85063
G1 F300 X-21.85295 Y51.99282
G1 F300 X-21.68899 Y52.11195
G1 F300 X-21.52079 Y52.18647
G1 F300 X-21.32844 Y52.22635
G1 F300 X-21.13827 Y52.22505
G1 F300 X-20.95838 Y52.18647
G1 F300 X-20.77931 Y52.10567
G1 F300 X-20.63067 Y51.99727
G1 F300 X-20.49996 Y51.85063
G1 F300 X-20.40601 Y51.68528
G1 F300 X-20.34947 Y51.51022
G1 F300 X-20.32958 Y51.32102
;G04 P0 ; dwell for no time -- G64 should not smooth over this point 
G1 F3000 Z3.00000 ; retract 

G1 F3000 X-22.86958 Y51.32102 ; rapid move to begin. 
G1 F300 F300.00000
G1 F300 Z-0.07000
;G04 P0 ; dwell for no time -- G64 should not smooth over this point 
G1 F300 F600.00000
G1 F300 X-22.86958 Y51.32102
G1 F300 X-22.88947 Y51.13181
G1 F300 X-22.94601 Y50.95676
G1 F300 X-23.03996 Y50.79140
G1 F300 X-23.16623 Y50.64919
G1 F300 X-23.31931 Y50.53636
G1 F300 X-23.49252 Y50.45780
G1 F300 X-23.69074 Y50.41566
G1 F300 X-23.88091 Y50.41698
G1 F300 X-24.06079 Y50.45556
G1 F300 X-24.23986 Y50.53636
G1 F300 X-24.38850 Y50.64474
G1 F300 X-24.51184 Y50.78124
G1 F300 X-24.60806 Y50.94528
G1 F300 X-24.66970 Y51.13181
G1 F300 X-24.68959 Y51.32102
G1 F300 X-24.66970 Y51.51022
G1 F300 X-24.61316 Y51.68528
G1 F300 X-24.51921 Y51.85063
G1 F300 X-24.39295 Y51.99282
G1 F300 X-24.22899 Y52.11195
G1 F300 X-24.06079 Y52.18647
G1 F300 X-23.86844 Y52.22635
G1 F300 X-23.67827 Y52.22505
G1 F300 X-23.49838 Y52.18647
G1 F300 X-23.31931 Y52.10567
G1 F300 X-23.17067 Y51.99727
G1 F300 X-23.03996 Y51.85063
G1 F300 X-22.94601 Y51.68528
G1 F300 X-22.88947 Y51.51022
G1 F300 X-22.86958 Y51.32102
;G04 P0 ; dwell for no time -- G64 should not smooth over this point 
G1 F3000 Z3.00000 ; retract 

G1 F3000 X-25.40958 Y51.32102 ; rapid move to begin. 
G1 F300 F300.00000
G1 F300 Z-0.07000
;G04 P0 ; dwell for no time -- G64 should not smooth over this point 
G1 F300 F600.00000
G1 F300 X-25.40958 Y51.32102
G1 F300 X-25.42947 Y51.13181
G1 F300 X-25.48601 Y50.95676
G1 F300 X-25.57996 Y50.79140
G1 F300 X-25.70623 Y50.64919
G1 F300 X-25.85931 Y50.53636
G1 F300 X-26.03252 Y50.45780
G1 F300 X-26.23074 Y50.41566
G1 F300 X-26.42091 Y50.41698
G1 F300 X-26.60079 Y50.45556
G1 F300 X-26.77986 Y50.53636
G1 F300 X-26.92850 Y50.64474
G1 F300 X-27.05184 Y50.78124
G1 F300 X-27.14806 Y50.94528
G1 F300 X-27.20970 Y51.13181
G1 F300 X-27.22959 Y51.32102
G1 F300 X-27.20970 Y51.51022
G1 F300 X-27.15316 Y51.68528
G1 F300 X-27.05921 Y51.85063
G1 F300 X-26.93295 Y51.99282
G1 F300 X-26.76899 Y52.11195
G1 F300 X-26.60079 Y52.18647
G1 F300 X-26.40844 Y52.22635
G1 F300 X-26.21827 Y52.22505
G1 F300 X-26.03838 Y52.18647
G1 F300 X-25.85931 Y52.10567
G1 F300 X-25.71067 Y51.99727
G1 F300 X-25.57996 Y51.85063
G1 F300 X-25.48601 Y51.68528
G1 F300 X-25.42947 Y51.51022
G1 F300 X-25.40958 Y51.32102
;G04 P0 ; dwell for no time -- G64 should not smooth over this point 
G1 F3000 Z3.00000 ; retract 

G1 F3000 X-25.40958 Y53.86102 ; rapid move to begin. 
G1 F300 F300.00000
G1 F300 Z-0.07000
;G04 P0 ; dwell for no time -- G64 should not smooth over this point 
G1 F300 F600.00000
G1 F300 X-25.40958 Y53.86102
G1 F300 X-25.42947 Y53.67181
G1 F300 X-25.48601 Y53.49676
G1 F300 X-25.57996 Y53.33140
G1 F300 X-25.70623 Y53.18919
G1 F300 X-25.85931 Y53.07636
G1 F300 X-26.03252 Y52.99780
G1 F300 X-26.23074 Y52.95566
G1 F300 X-26.42091 Y52.95698
G1 F300 X-26.60079 Y52.99556
G1 F300 X-26.76899 Y53.07009
G1 F300 X-26.92362 Y53.18081
G1 F300 X-27.05921 Y53.33140
G1 F300 X-27.15316 Y53.49676
G1 F300 X-27.20970 Y53.67181
G1 F300 X-27.22959 Y53.86102
G1 F300 X-27.21069 Y54.04400
G1 F300 X-27.14806 Y54.23673
G1 F300 X-27.05921 Y54.39063
G1 F300 X-26.93295 Y54.53282
G1 F300 X-26.72959 Y54.66950
G1 F300 X-26.72959 Y57.52291
G1 F300 X-26.91120 Y57.63553
G1 F300 X-27.00353 Y57.73807
G1 F300 X-27.07478 Y57.86342
G1 F300 X-27.11516 Y57.98880
G1 F300 X-27.12926 Y58.11973
G1 F300 X-27.12926 Y58.68229
G1 F300 X-27.11516 Y58.81323
G1 F300 X-27.07478 Y58.93860
G1 F300 X-27.00353 Y59.06395
G1 F300 X-26.91120 Y59.16649
G1 F300 X-26.80485 Y59.24417
G1 F300 X-26.66746 Y59.30533
G1 F300 X-26.53858 Y59.33241
G1 F300 X-26.40059 Y59.33241
G1 F300 X-26.25977 Y59.30147
G1 F300 X-26.13432 Y59.24417
G1 F300 X-26.02797 Y59.16649
G1 F300 X-25.93564 Y59.06395
G1 F300 X-25.86439 Y58.93860
G1 F300 X-25.82401 Y58.81323
G1 F300 X-25.80958 Y58.67602
G1 F300 X-25.80958 Y58.12601
G1 F300 X-25.82563 Y57.98273
G1 F300 X-25.86950 Y57.85197
G1 F300 X-25.93958 Y57.73320
G1 F300 X-26.03285 Y57.63160
G1 F300 X-26.20958 Y57.52291
G1 F300 X-26.20958 Y54.76320
G1 F300 X-26.03838 Y54.72647
G1 F300 X-25.85931 Y54.64567
G1 F300 X-25.71067 Y54.53727
G1 F300 X-25.58733 Y54.40077
G1 F300 X-25.48601 Y54.22528
G1 F300 X-25.42947 Y54.05022
G1 F300 X-25.40958 Y53.86102
;G04 P0 ; dwell for no time -- G64 should not smooth over this point 
G1 F3000 Z3.00000 ; retract 

G1 F3000 X-21.93928 Y55.04666 ; rapid move to begin. 
G1 F300 F300.00000
G1 F300 Z-0.07000
;G04 P0 ; dwell for no time -- G64 should not smooth over this point 
G1 F300 F600.00000
G1 F300 X-21.93928 Y55.04666
G1 F300 X-21.94812 Y55.11141
G1 F300 X-21.99386 Y55.18692
G1 F300 X-22.34723 Y55.54026
G1 F300 X-22.43171 Y55.58801
G1 F300 X-23.62114 Y55.59185
G1 F300 X-23.74860 Y55.60440
G1 F300 X-23.87077 Y55.64146
G1 F300 X-23.98334 Y55.70163
G1 F300 X-24.08233 Y55.78286
G1 F300 X-24.92970 Y56.63025
G1 F300 X-25.01098 Y56.72929
G1 F300 X-25.07115 Y56.84186
G1 F300 X-25.10821 Y56.96398
G1 F300 X-25.13117 Y57.28329
G1 F300 X-25.33333 Y57.52471
G1 F300 X-25.38141 Y57.56269
G1 F300 X-25.43968 Y57.58158
G1 F300 X-25.53470 Y57.57224
G1 F300 X-25.59604 Y57.53457
G1 F300 X-25.78291 Y57.32649
G1 F300 X-25.81001 Y57.27838
G1 F300 X-25.82159 Y57.21364
G1 F300 X-25.82159 Y55.18464
G1 F300 X-25.78842 Y55.07841
G1 F300 X-25.74044 Y55.03053
G1 F300 X-25.49216 Y54.86924
G1 F300 X-25.31113 Y54.68822
G1 F300 X-25.17143 Y54.48855
G1 F300 X-25.10755 Y54.44969
G1 F300 X-25.04560 Y54.43871
G1 F300 X-24.92947 Y54.47824
G1 F300 X-24.82388 Y54.63046
G1 F300 X-24.65330 Y54.81974
G1 F300 X-24.44946 Y54.97176
G1 F300 X-24.15576 Y55.10125
G1 F300 X-24.09358 Y55.06841
G1 F300 X-24.09358 Y54.71065
G1 F300 X-24.23432 Y54.64926
G1 F300 X-24.38362 Y54.54123
G1 F300 X-24.51921 Y54.39063
G1 F300 X-24.61316 Y54.22528
G1 F300 X-24.66970 Y54.05022
G1 F300 X-24.68926 Y53.86729
G1 F300 X-24.66970 Y53.67181
G1 F300 X-24.60806 Y53.48528
G1 F300 X-24.51184 Y53.32124
G1 F300 X-24.39295 Y53.18919
G1 F300 X-24.23986 Y53.07636
G1 F300 X-24.06079 Y52.99556
G1 F300 X-23.88091 Y52.95698
G1 F300 X-23.69074 Y52.95566
G1 F300 X-23.49838 Y52.99556
G1 F300 X-23.31931 Y53.07636
G1 F300 X-23.17067 Y53.18474
G1 F300 X-23.03996 Y53.33140
G1 F300 X-22.94601 Y53.49676
G1 F300 X-22.88947 Y53.67181
G1 F300 X-22.86958 Y53.86102
G1 F300 X-22.88947 Y54.05022
G1 F300 X-22.94601 Y54.22528
G1 F300 X-23.03996 Y54.39063
G1 F300 X-23.17067 Y54.53727
G1 F300 X-23.32485 Y54.64926
G1 F300 X-23.46557 Y54.71065
G1 F300 X-23.46557 Y55.06841
G1 F300 X-23.40339 Y55.10125
G1 F300 X-23.10969 Y54.97176
G1 F300 X-22.90585 Y54.81974
G1 F300 X-22.73529 Y54.63048
G1 F300 X-22.62973 Y54.47826
G1 F300 X-22.51360 Y54.43871
G1 F300 X-22.44042 Y54.45413
G1 F300 X-22.38137 Y54.49452
G1 F300 X-22.24802 Y54.68822
G1 F300 X-21.98076 Y54.93701
G1 F300 X-21.93928 Y55.04666
;G04 P0 ; dwell for no time -- G64 should not smooth over this point 
G1 F3000 Z3.00000 ; retract 

G1 F3000 X-20.32958 Y53.86102 ; rapid move to begin. 
G1 F300 F300.00000
G1 F300 Z-0.07000
;G04 P0 ; dwell for no time -- G64 should not smooth over this point 
G1 F300 F600.00000
G1 F300 X-20.32958 Y53.86102
G1 F300 X-20.34947 Y53.67181
G1 F300 X-20.40601 Y53.49676
G1 F300 X-20.50733 Y53.32124
G1 F300 X-20.63067 Y53.18474
G1 F300 X-20.77931 Y53.07636
G1 F300 X-20.95838 Y52.99556
G1 F300 X-21.15074 Y52.95566
G1 F300 X-21.34091 Y52.95698
G1 F300 X-21.52079 Y52.99556
G1 F300 X-21.69986 Y53.07636
G1 F300 X-21.84850 Y53.18474
G1 F300 X-21.97184 Y53.32124
G1 F300 X-22.06806 Y53.48528
G1 F300 X-22.12970 Y53.67181
G1 F300 X-22.14959 Y53.86102
G1 F300 X-22.12970 Y54.05022
G1 F300 X-22.06806 Y54.23673
G1 F300 X-21.97921 Y54.39063
G1 F300 X-21.85295 Y54.53282
G1 F300 X-21.68899 Y54.65195
G1 F300 X-21.49958 Y54.73132
G1 F300 X-21.49958 Y55.24133
G1 F300 X-22.24126 Y55.98301
G1 F300 X-23.62160 Y55.98301
G1 F300 X-23.72640 Y56.00534
G1 F300 X-23.80544 Y56.05918
G1 F300 X-24.65736 Y56.91153
G1 F300 X-24.70724 Y56.98621
G1 F300 X-24.72543 Y57.04613
G1 F300 X-24.72957 Y57.52291
G1 F300 X-24.90633 Y57.63160
G1 F300 X-24.99960 Y57.73320
G1 F300 X-25.07478 Y57.86342
G1 F300 X-25.11616 Y57.99499
G1 F300 X-25.12960 Y58.12601
G1 F300 X-25.12960 Y58.67602
G1 F300 X-25.11517 Y58.81323
G1 F300 X-25.07478 Y58.93860
G1 F300 X-25.00696 Y59.05870
G1 F300 X-24.91121 Y59.16649
G1 F300 X-24.79399 Y59.25044
G1 F300 X-24.66747 Y59.30533
G1 F300 X-24.53231 Y59.33274
G1 F300 X-24.40059 Y59.33241
G1 F300 X-24.27171 Y59.30533
G1 F300 X-24.14519 Y59.25044
G1 F300 X-24.02797 Y59.16649
G1 F300 X-23.93564 Y59.06395
G1 F300 X-23.86440 Y58.93860
G1 F300 X-23.82401 Y58.81323
G1 F300 X-23.80958 Y58.67602
G1 F300 X-23.80958 Y58.12601
G1 F300 X-23.82401 Y57.98880
G1 F300 X-23.86950 Y57.85197
G1 F300 X-23.93958 Y57.73320
G1 F300 X-24.03285 Y57.63160
G1 F300 X-24.20956 Y57.52291
G1 F300 X-24.20956 Y57.19870
G1 F300 X-23.51388 Y56.50302
G1 F300 X-22.13359 Y56.50302
G1 F300 X-22.03964 Y56.48522
G1 F300 X-21.95409 Y56.43081
G1 F300 X-21.02036 Y55.48842
G1 F300 X-20.97987 Y55.35489
G1 F300 X-20.97957 Y54.73132
G1 F300 X-20.77931 Y54.64567
G1 F300 X-20.63067 Y54.53727
G1 F300 X-20.50733 Y54.40077
G1 F300 X-20.40601 Y54.22528
G1 F300 X-20.34947 Y54.05022
G1 F300 X-20.32958 Y53.86102
;G04 P0 ; dwell for no time -- G64 should not smooth over this point 
G1 F3000 Z3.00000 ; retract 

G1 F3000 X-21.42158 Y58.71503 ; rapid move to begin. 
G1 F300 F300.00000
G1 F300 Z-0.07000
;G04 P0 ; dwell for no time -- G64 should not smooth over this point 
G1 F300 F600.00000
G1 F300 X-21.42158 Y58.71503
G1 F300 X-21.42158 Y58.78420
G1 F300 X-21.46267 Y58.98620
G1 F300 X-21.54253 Y59.17670
G1 F300 X-21.65800 Y59.34793
G1 F300 X-21.80466 Y59.49331
G1 F300 X-21.97692 Y59.60734
G1 F300 X-22.12097 Y59.66629
G1 F300 X-22.15556 Y59.64366
G1 F300 X-22.15556 Y59.25506
G1 F300 X-22.02795 Y59.16649
G1 F300 X-21.93222 Y59.05870
G1 F300 X-21.86440 Y58.93860
G1 F300 X-21.82391 Y58.81280
G1 F300 X-21.81474 Y58.71503
G1 F300 X-21.42158 Y58.71503
;G04 P0 ; dwell for no time -- G64 should not smooth over this point 
G1 F3000 Z3.00000 ; retract 

G1 F3000 X-27.80958 Y58.12601 ; rapid move to begin. 
G1 F300 F300.00000
G1 F300 Z-0.07000
;G04 P0 ; dwell for no time -- G64 should not smooth over this point 
G1 F300 F600.00000
G1 F300 X-27.80958 Y58.12601
G1 F300 X-27.80958 Y58.67602
G1 F300 X-27.82400 Y58.81323
G1 F300 X-27.86439 Y58.93860
G1 F300 X-27.93221 Y59.05870
G1 F300 X-28.03284 Y59.17043
G1 F300 X-28.14519 Y59.25044
G1 F300 X-28.27170 Y59.30533
G1 F300 X-28.40061 Y59.33241
G1 F300 X-28.53858 Y59.33241
G1 F300 X-28.66746 Y59.30533
G1 F300 X-28.79400 Y59.25044
G1 F300 X-28.91122 Y59.16649
G1 F300 X-29.00353 Y59.06395
G1 F300 X-29.07477 Y58.93860
G1 F300 X-29.11615 Y58.80703
G1 F300 X-29.12959 Y58.67602
G1 F300 X-29.12926 Y58.11973
G1 F300 X-29.11516 Y57.98880
G1 F300 X-29.07477 Y57.86342
G1 F300 X-29.00353 Y57.73807
G1 F300 X-28.90632 Y57.63160
G1 F300 X-28.72959 Y57.52291
G1 F300 X-28.72959 Y54.75896
G1 F300 X-28.94844 Y54.76635
G1 F300 X-29.14079 Y54.72647
G1 F300 X-29.31986 Y54.64567
G1 F300 X-29.46850 Y54.53727
G1 F300 X-29.59921 Y54.39063
G1 F300 X-29.69316 Y54.22528
G1 F300 X-29.74970 Y54.05022
G1 F300 X-29.76959 Y53.86102
G1 F300 X-29.74970 Y53.67181
G1 F300 X-29.69316 Y53.49676
G1 F300 X-29.59184 Y53.32124
G1 F300 X-29.46850 Y53.18474
G1 F300 X-29.31986 Y53.07636
G1 F300 X-29.13472 Y52.99394
G1 F300 X-28.94844 Y52.95566
G1 F300 X-28.75827 Y52.95698
G1 F300 X-28.57838 Y52.99556
G1 F300 X-28.39931 Y53.07636
G1 F300 X-28.25067 Y53.18474
G1 F300 X-28.11996 Y53.33140
G1 F300 X-28.02601 Y53.49676
G1 F300 X-27.96947 Y53.67181
G1 F300 X-27.94958 Y53.86102
G1 F300 X-27.97109 Y54.05627
G1 F300 X-28.03111 Y54.23673
G1 F300 X-28.11996 Y54.39063
G1 F300 X-28.20957 Y54.49213
G1 F300 X-28.20957 Y57.52291
G1 F300 X-28.03284 Y57.63160
G1 F300 X-27.93564 Y57.73807
G1 F300 X-27.86439 Y57.86342
G1 F300 X-27.82400 Y57.98880
G1 F300 X-27.80958 Y58.12601
;G04 P0 ; dwell for no time -- G64 should not smooth over this point 
G1 F3000 Z3.00000 ; retract 

G1 F3000 X-29.80960 Y57.77602 ; rapid move to begin. 
G1 F300 F300.00000
G1 F300 Z-0.07000
;G04 P0 ; dwell for no time -- G64 should not smooth over this point 
G1 F300 F600.00000
G1 F300 X-29.80960 Y57.77602
G1 F300 X-29.81696 Y59.09220
G1 F300 X-29.85880 Y59.19319
G1 F300 X-29.94264 Y59.28026
G1 F300 X-30.00650 Y59.31440
G1 F300 X-30.11958 Y59.33601
G1 F300 X-30.82547 Y59.33573
G1 F300 X-30.93268 Y59.31440
G1 F300 X-30.99654 Y59.28026
G1 F300 X-31.07383 Y59.20297
G1 F300 X-31.12219 Y59.09220
G1 F300 X-31.12958 Y58.66103
G1 F300 X-62.86556 Y58.66103
G1 F300 X-62.97039 Y58.63871
G1 F300 X-63.04943 Y58.58488
G1 F300 X-64.46343 Y57.17089
G1 F300 X-64.51725 Y57.09185
G1 F300 X-64.53927 Y56.99291
G1 F300 X-64.53958 Y40.52901
G1 F300 X-64.51725 Y40.42421
G1 F300 X-64.42876 Y40.31634
G1 F300 X-64.32446 Y40.27316
G1 F300 X-63.47958 Y40.26902
G1 F300 X-63.47450 Y39.99635
G1 F300 X-63.43038 Y39.88383
G1 F300 X-63.33676 Y39.79023
G1 F300 X-63.23577 Y39.74840
G1 F300 X-63.16960 Y39.74100
G1 F300 X-62.20339 Y39.74840
G1 F300 X-62.10242 Y39.79023
G1 F300 X-62.04644 Y39.83618
G1 F300 X-61.98571 Y39.92706
G1 F300 X-61.96574 Y39.99102
G1 F300 X-53.97958 Y39.99102
G1 F300 X-53.97221 Y39.85983
G1 F300 X-53.93038 Y39.75884
G1 F300 X-53.84656 Y39.67176
G1 F300 X-53.78268 Y39.63763
G1 F300 X-53.66959 Y39.61601
G1 F300 X-52.76960 Y39.61601
G1 F300 X-52.64564 Y39.64212
G1 F300 X-52.54643 Y39.71116
G1 F300 X-52.48120 Y39.81291
G1 F300 X-52.45959 Y39.99102
G1 F300 X-50.47915 Y39.99744
G1 F300 X-50.35172 Y40.06717
G1 F300 X-48.82688 Y41.59785
G1 F300 X-48.79737 Y41.65309
G1 F300 X-48.77987 Y41.74115
G1 F300 X-48.77956 Y42.50201
G1 F300 X-48.63478 Y42.53313
G1 F300 X-48.37931 Y42.64793
G1 F300 X-48.16303 Y42.80549
G1 F300 X-47.98373 Y43.00414
G1 F300 X-47.84060 Y43.25205
G1 F300 X-47.75820 Y43.50666
G1 F300 X-47.72991 Y43.77275
G1 F300 X-47.75983 Y44.05746
G1 F300 X-47.84283 Y44.31184
G1 F300 X-47.97636 Y44.54374
G1 F300 X-48.16790 Y44.75649
G1 F300 X-48.39018 Y44.91636
G1 F300 X-48.63478 Y45.02489
G1 F300 X-48.90892 Y45.08217
G1 F300 X-49.18271 Y45.08085
G1 F300 X-49.44441 Y45.02489
G1 F300 X-49.69985 Y44.91008
G1 F300 X-49.91616 Y44.75253
G1 F300 X-50.09546 Y44.55390
G1 F300 X-50.23633 Y44.31184
G1 F300 X-50.32096 Y44.05138
G1 F300 X-50.34959 Y43.77902
G1 F300 X-50.31933 Y43.50059
G1 F300 X-50.23633 Y43.24618
G1 F300 X-50.10283 Y43.01428
G1 F300 X-49.91616 Y42.80549
G1 F300 X-49.68898 Y42.64166
G1 F300 X-49.44441 Y42.53313
G1 F300 X-49.29958 Y42.50201
G1 F300 X-49.29958 Y41.85474
G1 F300 X-50.64326 Y40.51103
G1 F300 X-52.45959 Y40.51103
G1 F300 X-52.48120 Y40.68911
G1 F300 X-52.54643 Y40.79086
G1 F300 X-52.64564 Y40.85990
G1 F300 X-52.76960 Y40.88601
G1 F300 X-53.66959 Y40.88601
G1 F300 X-53.78268 Y40.86440
G1 F300 X-53.84656 Y40.83026
G1 F300 X-53.93038 Y40.74319
G1 F300 X-53.97221 Y40.64220
G1 F300 X-53.97958 Y40.51103
G1 F300 X-61.95960 Y40.51103
G1 F300 X-61.96468 Y40.75566
G1 F300 X-62.00880 Y40.86818
G1 F300 X-62.10242 Y40.96181
G1 F300 X-62.20339 Y41.00361
G1 F300 X-62.26958 Y41.01100
G1 F300 X-63.22424 Y41.00592
G1 F300 X-63.29355 Y40.98489
G1 F300 X-63.38443 Y40.92416
G1 F300 X-63.43038 Y40.86818
G1 F300 X-63.46559 Y40.78903
G1 F300 X-64.01956 Y40.78903
G1 F300 X-64.01956 Y56.87932
G1 F300 X-62.75789 Y58.14102
G1 F300 X-31.12958 Y58.14102
G1 F300 X-31.12958 Y57.77602
G1 F300 X-31.10797 Y57.66291
G1 F300 X-31.03444 Y57.55286
G1 F300 X-30.94355 Y57.49213
G1 F300 X-30.88577 Y57.47341
G1 F300 X-30.05339 Y57.47341
G1 F300 X-29.94264 Y57.52177
G1 F300 X-29.86535 Y57.59906
G1 F300 X-29.83121 Y57.66291
G1 F300 X-29.80960 Y57.77602
;G04 P0 ; dwell for no time -- G64 should not smooth over this point 
G1 F3000 Z3.00000 ; retract 

G1 F3000 X-29.11757 Y55.28405 ; rapid move to begin. 
G1 F300 F300.00000
G1 F300 Z-0.07000
;G04 P0 ; dwell for no time -- G64 should not smooth over this point 
G1 F300 F600.00000
G1 F300 X-29.11757 Y55.28405
G1 F300 X-29.11757 Y57.21364
G1 F300 X-29.14612 Y57.31265
G1 F300 X-29.25885 Y57.43061
G1 F300 X-29.35773 Y57.47290
G1 F300 X-29.46726 Y57.45189
G1 F300 X-29.52375 Y57.40526
G1 F300 X-29.62461 Y57.28082
G1 F300 X-29.73058 Y57.19388
G1 F300 X-29.85163 Y57.12916
G1 F300 X-29.98298 Y57.08931
G1 F300 X-30.12877 Y57.07496
G1 F300 X-30.81036 Y57.07496
G1 F300 X-30.95615 Y57.08931
G1 F300 X-31.08752 Y57.12916
G1 F300 X-31.20858 Y57.19388
G1 F300 X-31.31465 Y57.28092
G1 F300 X-31.40174 Y57.38705
G1 F300 X-31.46644 Y57.50810
G1 F300 X-31.53162 Y57.68057
G1 F300 X-31.60774 Y57.73856
G1 F300 X-31.67944 Y57.75303
G1 F300 X-62.56191 Y57.74800
G1 F300 X-62.65192 Y57.69825
G1 F300 X-63.57679 Y56.77338
G1 F300 X-63.62797 Y56.67767
G1 F300 X-63.63158 Y53.49290
G1 F300 X-63.61733 Y53.42129
G1 F300 X-63.57679 Y53.36061
G1 F300 X-63.51611 Y53.32007
G1 F300 X-63.41387 Y53.30859
G1 F300 X-63.34062 Y53.33740
G1 F300 X-63.28982 Y53.38789
G1 F300 X-63.06617 Y53.73717
G1 F300 X-62.81573 Y53.98764
G1 F300 X-62.52124 Y54.18438
G1 F300 X-62.19404 Y54.31992
G1 F300 X-61.84664 Y54.38901
G1 F300 X-61.49249 Y54.38901
G1 F300 X-61.14512 Y54.31992
G1 F300 X-60.81789 Y54.18438
G1 F300 X-60.52343 Y53.98764
G1 F300 X-60.27299 Y53.73717
G1 F300 X-60.07621 Y53.44270
G1 F300 X-59.94068 Y53.11548
G1 F300 X-59.87159 Y52.76813
G1 F300 X-59.87159 Y52.41393
G1 F300 X-59.94068 Y52.06656
G1 F300 X-60.07621 Y51.73936
G1 F300 X-60.27299 Y51.44484
G1 F300 X-60.52343 Y51.19442
G1 F300 X-60.81789 Y50.99768
G1 F300 X-61.14512 Y50.86212
G1 F300 X-61.49246 Y50.79303
G1 F300 X-61.84664 Y50.79303
G1 F300 X-62.19404 Y50.86212
G1 F300 X-62.52124 Y50.99768
G1 F300 X-62.81575 Y51.19442
G1 F300 X-63.06617 Y51.44487
G1 F300 X-63.28982 Y51.79417
G1 F300 X-63.34062 Y51.84466
G1 F300 X-63.40803 Y51.87260
G1 F300 X-63.48101 Y51.87263
G1 F300 X-63.54844 Y51.84471
G1 F300 X-63.59835 Y51.79551
G1 F300 X-63.63158 Y51.68919
G1 F300 X-63.62612 Y47.39082
G1 F300 X-63.59368 Y47.32222
G1 F300 X-63.53663 Y47.27221
G1 F300 X-63.46437 Y47.24899
G1 F300 X-63.38888 Y47.25643
G1 F300 X-63.32256 Y47.29331
G1 F300 X-63.21420 Y47.42067
G1 F300 X-63.05462 Y47.55163
G1 F300 X-62.87255 Y47.64894
G1 F300 X-62.67504 Y47.70886
G1 F300 X-62.46958 Y47.72910
G1 F300 X-62.26414 Y47.70886
G1 F300 X-62.06661 Y47.64894
G1 F300 X-61.88451 Y47.55161
G1 F300 X-61.65348 Y47.35295
G1 F300 X-61.54471 Y47.32862
G1 F300 X-61.44164 Y47.37043
G1 F300 X-61.31484 Y47.52097
G1 F300 X-61.20854 Y47.60820
G1 F300 X-61.08751 Y47.67289
G1 F300 X-60.95617 Y47.71274
G1 F300 X-60.81040 Y47.72710
G1 F300 X-60.12876 Y47.72710
G1 F300 X-59.98299 Y47.71274
G1 F300 X-59.85162 Y47.67289
G1 F300 X-59.73057 Y47.60817
G1 F300 X-59.62450 Y47.52110
G1 F300 X-59.44307 Y47.27807
G1 F300 X-59.37304 Y47.24637
G1 F300 X-59.27083 Y47.25252
G1 F300 X-59.20050 Y47.29654
G1 F300 X-56.78925 Y49.70814
G1 F300 X-56.74205 Y49.79933
G1 F300 X-56.73957 Y50.00045
G1 F300 X-56.75300 Y50.06984
G1 F300 X-56.79504 Y50.13349
G1 F300 X-56.85902 Y50.17502
G1 F300 X-56.94658 Y50.18658
G1 F300 X-57.17538 Y50.08071
G1 F300 X-57.46946 Y50.21028
G1 F300 X-57.67330 Y50.36235
G1 F300 X-57.84350 Y50.55119
G1 F300 X-57.97365 Y50.76963
G1 F300 X-58.03748 Y50.94962
G1 F300 X-58.00736 Y51.00702
G1 F300 X-57.64950 Y51.00702
G1 F300 X-57.53184 Y50.78124
G1 F300 X-57.40850 Y50.64474
G1 F300 X-57.25986 Y50.53636
G1 F300 X-57.07472 Y50.45394
G1 F300 X-56.88844 Y50.41566
G1 F300 X-56.71074 Y50.41566
G1 F300 X-56.51252 Y50.45780
G1 F300 X-56.33931 Y50.53636
G1 F300 X-56.19067 Y50.64474
G1 F300 X-56.06733 Y50.78124
G1 F300 X-55.97111 Y50.94528
G1 F300 X-55.90947 Y51.13181
G1 F300 X-55.88958 Y51.32102
G1 F300 X-55.90947 Y51.51022
G1 F300 X-55.96601 Y51.68528
G1 F300 X-56.05996 Y51.85063
G1 F300 X-56.19555 Y52.00123
G1 F300 X-56.35018 Y52.11195
G1 F300 X-56.52445 Y52.18810
G1 F300 X-56.71074 Y52.22635
G1 F300 X-56.90091 Y52.22505
G1 F300 X-57.08079 Y52.18647
G1 F300 X-57.24899 Y52.11195
G1 F300 X-57.40850 Y51.99727
G1 F300 X-57.53184 Y51.86077
G1 F300 X-57.64950 Y51.63504
G1 F300 X-58.00736 Y51.63504
G1 F300 X-58.03748 Y51.69244
G1 F300 X-57.97365 Y51.87240
G1 F300 X-57.84350 Y52.09087
G1 F300 X-57.67312 Y52.27992
G1 F300 X-57.43174 Y52.46420
G1 F300 X-57.39491 Y52.52470
G1 F300 X-57.38323 Y52.59480
G1 F300 X-57.39854 Y52.66419
G1 F300 X-57.43842 Y52.72264
G1 F300 X-57.62676 Y52.85256
G1 F300 X-57.80779 Y53.03361
G1 F300 X-57.94985 Y53.24618
G1 F300 X-58.04769 Y53.48240
G1 F300 X-58.09758 Y53.73318
G1 F300 X-58.09758 Y53.98888
G1 F300 X-58.04769 Y54.23963
G1 F300 X-57.94985 Y54.47585
G1 F300 X-57.80781 Y54.68845
G1 F300 X-57.62699 Y54.86924
G1 F300 X-57.41439 Y55.01128
G1 F300 X-57.17820 Y55.10915
G1 F300 X-56.92742 Y55.15901
G1 F300 X-56.67172 Y55.15901
G1 F300 X-56.42097 Y55.10915
G1 F300 X-56.18475 Y55.01128
G1 F300 X-55.97216 Y54.86924
G1 F300 X-55.79113 Y54.68822
G1 F300 X-55.66156 Y54.50079
G1 F300 X-55.60114 Y54.46051
G1 F300 X-55.52959 Y54.44626
G1 F300 X-55.45801 Y54.46051
G1 F300 X-55.39758 Y54.50079
G1 F300 X-55.26802 Y54.68822
G1 F300 X-55.08699 Y54.86924
G1 F300 X-54.87439 Y55.01128
G1 F300 X-54.63820 Y55.10915
G1 F300 X-54.38742 Y55.15901
G1 F300 X-54.13172 Y55.15901
G1 F300 X-53.88097 Y55.10915
G1 F300 X-53.64475 Y55.01128
G1 F300 X-53.43216 Y54.86924
G1 F300 X-53.25113 Y54.68822
G1 F300 X-53.12156 Y54.50079
G1 F300 X-53.06114 Y54.46051
G1 F300 X-52.98959 Y54.44626
G1 F300 X-52.91801 Y54.46051
G1 F300 X-52.85758 Y54.50079
G1 F300 X-52.72802 Y54.68822
G1 F300 X-52.54699 Y54.86924
G1 F300 X-52.33439 Y55.01128
G1 F300 X-52.09820 Y55.10915
G1 F300 X-51.84742 Y55.15901
G1 F300 X-51.59172 Y55.15901
G1 F300 X-51.34097 Y55.10915
G1 F300 X-51.10475 Y55.01128
G1 F300 X-50.89216 Y54.86924
G1 F300 X-50.71113 Y54.68822
G1 F300 X-50.57143 Y54.48855
G1 F300 X-50.50755 Y54.44969
G1 F300 X-50.44560 Y54.43871
G1 F300 X-50.32947 Y54.47824
G1 F300 X-50.22386 Y54.63048
G1 F300 X-50.05330 Y54.81974
G1 F300 X-49.84946 Y54.97173
G1 F300 X-49.55576 Y55.10125
G1 F300 X-49.49358 Y55.06841
G1 F300 X-49.49358 Y54.71065
G1 F300 X-49.63432 Y54.64926
G1 F300 X-49.78850 Y54.53727
G1 F300 X-49.91184 Y54.40077
G1 F300 X-50.00806 Y54.23673
G1 F300 X-50.07069 Y54.04400
G1 F300 X-50.08959 Y53.86102
G1 F300 X-50.07069 Y53.67801
G1 F300 X-50.00806 Y53.48528
G1 F300 X-49.91184 Y53.32124
G1 F300 X-49.78850 Y53.18474
G1 F300 X-49.63986 Y53.07636
G1 F300 X-49.46666 Y52.99780
G1 F300 X-49.26844 Y52.95566
G1 F300 X-49.07827 Y52.95698
G1 F300 X-48.89838 Y52.99556
G1 F300 X-48.73018 Y53.07009
G1 F300 X-48.57555 Y53.18081
G1 F300 X-48.43996 Y53.33140
G1 F300 X-48.34601 Y53.49676
G1 F300 X-48.28947 Y53.67181
G1 F300 X-48.26958 Y53.86102
G1 F300 X-48.28850 Y54.04400
G1 F300 X-48.35111 Y54.23673
G1 F300 X-48.44733 Y54.40077
G1 F300 X-48.57067 Y54.53727
G1 F300 X-48.72485 Y54.64926
G1 F300 X-48.86557 Y54.71065
G1 F300 X-48.86557 Y55.06841
G1 F300 X-48.80339 Y55.10125
G1 F300 X-48.50969 Y54.97173
G1 F300 X-48.30585 Y54.81971
G1 F300 X-48.13529 Y54.63048
G1 F300 X-48.02973 Y54.47826
G1 F300 X-47.91360 Y54.43871
G1 F300 X-47.84042 Y54.45413
G1 F300 X-47.78774 Y54.48855
G1 F300 X-47.64804 Y54.68819
G1 F300 X-47.46699 Y54.86924
G1 F300 X-47.25439 Y55.01128
G1 F300 X-47.01820 Y55.10915
G1 F300 X-46.76742 Y55.15901
G1 F300 X-46.51172 Y55.15901
G1 F300 X-46.26097 Y55.10915
G1 F300 X-46.02473 Y55.01128
G1 F300 X-45.81216 Y54.86924
G1 F300 X-45.63113 Y54.68822
G1 F300 X-45.49143 Y54.48855
G1 F300 X-45.42755 Y54.44969
G1 F300 X-45.36560 Y54.43871
G1 F300 X-45.24947 Y54.47824
G1 F300 X-45.14386 Y54.63048
G1 F300 X-44.97327 Y54.81974
G1 F300 X-44.76946 Y54.97173
G1 F300 X-44.47576 Y55.10125
G1 F300 X-44.41358 Y55.06841
G1 F300 X-44.41358 Y54.71065
G1 F300 X-44.55432 Y54.64926
G1 F300 X-44.70850 Y54.53727
G1 F300 X-44.83184 Y54.40077
G1 F300 X-44.92806 Y54.23673
G1 F300 X-44.99069 Y54.04400
G1 F300 X-45.00959 Y53.86102
G1 F300 X-44.99069 Y53.67801
G1 F300 X-44.92806 Y53.48528
G1 F300 X-44.83184 Y53.32124
G1 F300 X-44.70850 Y53.18474
G1 F300 X-44.55986 Y53.07636
G1 F300 X-44.38666 Y52.99780
G1 F300 X-44.18844 Y52.95566
G1 F300 X-43.99827 Y52.95698
G1 F300 X-43.81838 Y52.99556
G1 F300 X-43.65018 Y53.07009
G1 F300 X-43.49555 Y53.18081
G1 F300 X-43.35996 Y53.33140
G1 F300 X-43.26601 Y53.49676
G1 F300 X-43.20947 Y53.67181
G1 F300 X-43.18958 Y53.86102
G1 F300 X-43.20850 Y54.04400
G1 F300 X-43.27111 Y54.23673
G1 F300 X-43.36733 Y54.40077
G1 F300 X-43.49067 Y54.53727
G1 F300 X-43.64485 Y54.64926
G1 F300 X-43.78557 Y54.71065
G1 F300 X-43.78557 Y55.06841
G1 F300 X-43.72339 Y55.10125
G1 F300 X-43.42969 Y54.97176
G1 F300 X-43.22585 Y54.81971
G1 F300 X-43.05529 Y54.63048
G1 F300 X-42.94973 Y54.47826
G1 F300 X-42.83360 Y54.43871
G1 F300 X-42.76042 Y54.45413
G1 F300 X-42.70774 Y54.48855
G1 F300 X-42.56802 Y54.68822
G1 F300 X-42.38699 Y54.86924
G1 F300 X-42.17439 Y55.01128
G1 F300 X-41.93820 Y55.10915
G1 F300 X-41.68742 Y55.15901
G1 F300 X-41.43172 Y55.15901
G1 F300 X-41.18097 Y55.10915
G1 F300 X-40.94475 Y55.01128
G1 F300 X-40.73216 Y54.86924
G1 F300 X-40.55113 Y54.68822
G1 F300 X-40.42156 Y54.50079
G1 F300 X-40.36114 Y54.46051
G1 F300 X-40.28959 Y54.44626
G1 F300 X-40.21801 Y54.46051
G1 F300 X-40.15758 Y54.50079
G1 F300 X-40.02802 Y54.68822
G1 F300 X-39.84699 Y54.86924
G1 F300 X-39.63439 Y55.01128
G1 F300 X-39.39820 Y55.10915
G1 F300 X-39.14742 Y55.15901
G1 F300 X-38.89172 Y55.15901
G1 F300 X-38.64097 Y55.10915
G1 F300 X-38.40475 Y55.01128
G1 F300 X-38.19216 Y54.86924
G1 F300 X-38.01113 Y54.68822
G1 F300 X-37.88156 Y54.50079
G1 F300 X-37.82114 Y54.46051
G1 F300 X-37.74959 Y54.44626
G1 F300 X-37.67801 Y54.46051
G1 F300 X-37.61758 Y54.50079
G1 F300 X-37.48802 Y54.68822
G1 F300 X-37.30699 Y54.86924
G1 F300 X-37.09439 Y55.01128
G1 F300 X-36.85820 Y55.10915
G1 F300 X-36.60742 Y55.15901
G1 F300 X-36.35172 Y55.15901
G1 F300 X-36.10097 Y55.10915
G1 F300 X-35.86475 Y55.01128
G1 F300 X-35.65216 Y54.86924
G1 F300 X-35.47113 Y54.68822
G1 F300 X-35.34156 Y54.50079
G1 F300 X-35.28114 Y54.46051
G1 F300 X-35.20959 Y54.44626
G1 F300 X-35.13801 Y54.46051
G1 F300 X-35.07758 Y54.50079
G1 F300 X-34.94802 Y54.68822
G1 F300 X-34.76697 Y54.86927
G1 F300 X-34.55439 Y55.01128
G1 F300 X-34.31820 Y55.10915
G1 F300 X-34.06742 Y55.15901
G1 F300 X-33.81172 Y55.15901
G1 F300 X-33.56097 Y55.10915
G1 F300 X-33.32473 Y55.01128
G1 F300 X-33.11216 Y54.86924
G1 F300 X-32.93113 Y54.68822
G1 F300 X-32.79143 Y54.48855
G1 F300 X-32.72755 Y54.44969
G1 F300 X-32.62818 Y54.44225
G1 F300 X-32.52450 Y54.50145
G1 F300 X-32.44386 Y54.63046
G1 F300 X-32.27330 Y54.81971
G1 F300 X-32.06946 Y54.97176
G1 F300 X-31.77576 Y55.10125
G1 F300 X-31.71358 Y55.06841
G1 F300 X-31.71358 Y54.71065
G1 F300 X-31.85432 Y54.64926
G1 F300 X-32.00850 Y54.53727
G1 F300 X-32.13184 Y54.40077
G1 F300 X-32.22806 Y54.23673
G1 F300 X-32.29069 Y54.04400
G1 F300 X-32.30959 Y53.86102
G1 F300 X-32.28970 Y53.67181
G1 F300 X-32.23316 Y53.49676
G1 F300 X-32.13921 Y53.33140
G1 F300 X-32.00362 Y53.18081
G1 F300 X-31.84899 Y53.07009
G1 F300 X-31.68079 Y52.99556
G1 F300 X-31.50091 Y52.95698
G1 F300 X-31.31074 Y52.95566
G1 F300 X-31.11252 Y52.99780
G1 F300 X-30.93931 Y53.07636
G1 F300 X-30.79067 Y53.18474
G1 F300 X-30.66733 Y53.32124
G1 F300 X-30.57111 Y53.48528
G1 F300 X-30.50850 Y53.67801
G1 F300 X-30.48991 Y53.86729
G1 F300 X-30.50947 Y54.05022
G1 F300 X-30.56601 Y54.22528
G1 F300 X-30.65996 Y54.39063
G1 F300 X-30.79067 Y54.53727
G1 F300 X-30.94485 Y54.64926
G1 F300 X-31.08557 Y54.71065
G1 F300 X-31.08557 Y55.06841
G1 F300 X-31.02339 Y55.10125
G1 F300 X-30.72969 Y54.97176
G1 F300 X-30.52588 Y54.81974
G1 F300 X-30.35529 Y54.63048
G1 F300 X-30.24973 Y54.47826
G1 F300 X-30.18277 Y54.44496
G1 F300 X-30.10812 Y54.44062
G1 F300 X-30.00137 Y54.49452
G1 F300 X-29.86802 Y54.68822
G1 F300 X-29.68699 Y54.86924
G1 F300 X-29.47439 Y55.01128
G1 F300 X-29.18092 Y55.14382
G1 F300 X-29.13177 Y55.21375
G1 F300 X-29.11757 Y55.28405
;G04 P0 ; dwell for no time -- G64 should not smooth over this point 
G1 F3000 Z3.00000 ; retract 

G1 F3000 X-30.48958 Y51.32102 ; rapid move to begin. 
G1 F300 F300.00000
G1 F300 Z-0.07000
;G04 P0 ; dwell for no time -- G64 should not smooth over this point 
G1 F300 F600.00000
G1 F300 X-30.48958 Y51.32102
G1 F300 X-30.50947 Y51.13181
G1 F300 X-30.56601 Y50.95676
G1 F300 X-30.65996 Y50.79140
G1 F300 X-30.78623 Y50.64919
G1 F300 X-30.93931 Y50.53636
G1 F300 X-31.11252 Y50.45780
G1 F300 X-31.31074 Y50.41566
G1 F300 X-31.50091 Y50.41698
G1 F300 X-31.68079 Y50.45556
G1 F300 X-31.85986 Y50.53636
G1 F300 X-32.00850 Y50.64474
G1 F300 X-32.13184 Y50.78124
G1 F300 X-32.22806 Y50.94528
G1 F300 X-32.28970 Y51.13181
G1 F300 X-32.30959 Y51.32102
G1 F300 X-32.28970 Y51.51022
G1 F300 X-32.23316 Y51.68528
G1 F300 X-32.13921 Y51.85063
G1 F300 X-32.01295 Y51.99282
G1 F300 X-31.84899 Y52.11195
G1 F300 X-31.68079 Y52.18647
G1 F300 X-31.48844 Y52.22635
G1 F300 X-31.29827 Y52.22505
G1 F300 X-31.11838 Y52.18647
G1 F300 X-30.93931 Y52.10567
G1 F300 X-30.79067 Y51.99727
G1 F300 X-30.65996 Y51.85063
G1 F300 X-30.56601 Y51.68528
G1 F300 X-30.50947 Y51.51022
G1 F300 X-30.48958 Y51.32102
;G04 P0 ; dwell for no time -- G64 should not smooth over this point 
G1 F3000 Z3.00000 ; retract 

G1 F3000 X-29.50757 Y50.09285 ; rapid move to begin. 
G1 F300 F300.00000
G1 F300 Z-0.07000
;G04 P0 ; dwell for no time -- G64 should not smooth over this point 
G1 F300 F600.00000
G1 F300 X-29.50757 Y50.09285
G1 F300 X-29.50914 Y49.29892
G1 F300 X-29.52910 Y49.23326
G1 F300 X-30.45722 Y48.29181
G1 F300 X-30.51788 Y48.25127
G1 F300 X-30.58945 Y48.23703
G1 F300 X-40.23315 Y48.23703
G1 F300 X-40.30470 Y48.25127
G1 F300 X-40.36535 Y48.29181
G1 F300 X-40.60866 Y48.67142
G1 F300 X-40.84516 Y48.90794
G1 F300 X-41.12326 Y49.09377
G1 F300 X-41.43228 Y49.22176
G1 F300 X-41.76035 Y49.28701
G1 F300 X-42.09481 Y49.28701
G1 F300 X-42.42286 Y49.22176
G1 F300 X-42.73187 Y49.09377
G1 F300 X-43.00998 Y48.90794
G1 F300 X-43.14145 Y48.77812
G1 F300 X-43.19301 Y48.74505
G1 F300 X-43.25288 Y48.73197
G1 F300 X-43.33614 Y48.74505
G1 F300 X-43.39679 Y48.78559
G1 F300 X-43.43733 Y48.84624
G1 F300 X-43.45158 Y48.91792
G1 F300 X-43.44457 Y50.14070
G1 F300 X-43.40076 Y50.22084
G1 F300 X-43.27251 Y50.31243
G1 F300 X-43.09136 Y50.49359
G1 F300 X-42.96576 Y50.67667
G1 F300 X-42.88989 Y50.72498
G1 F300 X-42.79893 Y50.73306
G1 F300 X-42.72567 Y50.70428
G1 F300 X-42.67409 Y50.65269
G1 F300 X-42.56779 Y50.49359
G1 F300 X-42.38699 Y50.31279
G1 F300 X-42.17439 Y50.17075
G1 F300 X-41.93820 Y50.07291
G1 F300 X-41.68740 Y50.02303
G1 F300 X-41.43175 Y50.02303
G1 F300 X-41.18097 Y50.07291
G1 F300 X-40.94475 Y50.17075
G1 F300 X-40.73216 Y50.31279
G1 F300 X-40.55113 Y50.49382
G1 F300 X-40.41143 Y50.69351
G1 F300 X-40.34755 Y50.73237
G1 F300 X-40.28560 Y50.74335
G1 F300 X-40.16947 Y50.70382
G1 F300 X-40.06388 Y50.55160
G1 F300 X-39.89327 Y50.36232
G1 F300 X-39.68946 Y50.21028
G1 F300 X-39.39573 Y50.08081
G1 F300 X-39.33358 Y50.11363
G1 F300 X-39.33358 Y50.47139
G1 F300 X-39.47432 Y50.53278
G1 F300 X-39.62850 Y50.64474
G1 F300 X-39.75921 Y50.79140
G1 F300 X-39.85316 Y50.95676
G1 F300 X-39.91069 Y51.13801
G1 F300 X-39.92959 Y51.32102
G1 F300 X-39.91069 Y51.50400
G1 F300 X-39.84806 Y51.69673
G1 F300 X-39.75184 Y51.86077
G1 F300 X-39.62850 Y51.99727
G1 F300 X-39.47986 Y52.10567
G1 F300 X-39.30666 Y52.18421
G1 F300 X-39.10844 Y52.22635
G1 F300 X-38.91827 Y52.22505
G1 F300 X-38.73838 Y52.18647
G1 F300 X-38.57018 Y52.11195
G1 F300 X-38.41555 Y52.00123
G1 F300 X-38.27996 Y51.85063
G1 F300 X-38.18601 Y51.68528
G1 F300 X-38.12947 Y51.51022
G1 F300 X-38.10958 Y51.32102
G1 F300 X-38.12850 Y51.13801
G1 F300 X-38.19111 Y50.94528
G1 F300 X-38.28733 Y50.78124
G1 F300 X-38.41067 Y50.64474
G1 F300 X-38.56485 Y50.53278
G1 F300 X-38.70557 Y50.47139
G1 F300 X-38.70557 Y50.11363
G1 F300 X-38.64341 Y50.08081
G1 F300 X-38.34969 Y50.21030
G1 F300 X-38.14588 Y50.36232
G1 F300 X-37.97529 Y50.55158
G1 F300 X-37.86973 Y50.70380
G1 F300 X-37.75360 Y50.74335
G1 F300 X-37.68042 Y50.72793
G1 F300 X-37.62774 Y50.69351
G1 F300 X-37.48802 Y50.49384
G1 F300 X-37.30699 Y50.31279
G1 F300 X-37.09439 Y50.17075
G1 F300 X-36.85820 Y50.07291
G1 F300 X-36.60740 Y50.02303
G1 F300 X-36.35175 Y50.02303
G1 F300 X-36.10097 Y50.07291
G1 F300 X-35.86475 Y50.17075
G1 F300 X-35.65216 Y50.31279
G1 F300 X-35.47113 Y50.49384
G1 F300 X-35.34156 Y50.68127
G1 F300 X-35.28114 Y50.72155
G1 F300 X-35.20959 Y50.73580
G1 F300 X-35.13801 Y50.72155
G1 F300 X-35.07758 Y50.68127
G1 F300 X-34.94802 Y50.49384
G1 F300 X-34.76699 Y50.31279
G1 F300 X-34.55439 Y50.17075
G1 F300 X-34.31820 Y50.07291
G1 F300 X-34.06740 Y50.02303
G1 F300 X-33.81175 Y50.02303
G1 F300 X-33.56097 Y50.07291
G1 F300 X-33.32475 Y50.17075
G1 F300 X-33.11216 Y50.31279
G1 F300 X-32.93113 Y50.49384
G1 F300 X-32.80156 Y50.68127
G1 F300 X-32.74114 Y50.72155
G1 F300 X-32.66959 Y50.73580
G1 F300 X-32.59801 Y50.72155
G1 F300 X-32.53758 Y50.68127
G1 F300 X-32.40802 Y50.49384
G1 F300 X-32.22699 Y50.31279
G1 F300 X-32.01439 Y50.17075
G1 F300 X-31.77820 Y50.07291
G1 F300 X-31.52740 Y50.02303
G1 F300 X-31.27175 Y50.02303
G1 F300 X-31.02097 Y50.07291
G1 F300 X-30.78475 Y50.17075
G1 F300 X-30.57216 Y50.31279
G1 F300 X-30.39113 Y50.49384
G1 F300 X-30.25270 Y50.68848
G1 F300 X-30.18989 Y50.72498
G1 F300 X-30.12959 Y50.73580
G1 F300 X-30.06926 Y50.72498
G1 F300 X-29.99758 Y50.68127
G1 F300 X-29.86802 Y50.49384
G1 F300 X-29.68664 Y50.31243
G1 F300 X-29.56200 Y50.22485
G1 F300 X-29.52181 Y50.16453
G1 F300 X-29.50757 Y50.09285
;G04 P0 ; dwell for no time -- G64 should not smooth over this point 
G1 F3000 Z3.00000 ; retract 

G1 F3000 X-33.02958 Y51.32102 ; rapid move to begin. 
G1 F300 F300.00000
G1 F300 Z-0.07000
;G04 P0 ; dwell for no time -- G64 should not smooth over this point 
G1 F300 F600.00000
G1 F300 X-33.02958 Y51.32102
G1 F300 X-33.04947 Y51.51022
G1 F300 X-33.10601 Y51.68528
G1 F300 X-33.19996 Y51.85063
G1 F300 X-33.33067 Y51.99727
G1 F300 X-33.47931 Y52.10567
G1 F300 X-33.65838 Y52.18647
G1 F300 X-33.83827 Y52.22505
G1 F300 X-34.02844 Y52.22635
G1 F300 X-34.22079 Y52.18647
G1 F300 X-34.38899 Y52.11195
G1 F300 X-34.55295 Y51.99282
G1 F300 X-34.67921 Y51.85063
G1 F300 X-34.77316 Y51.68528
G1 F300 X-34.82970 Y51.51022
G1 F300 X-34.84959 Y51.32102
G1 F300 X-34.82970 Y51.13181
G1 F300 X-34.76806 Y50.94528
G1 F300 X-34.67184 Y50.78124
G1 F300 X-34.54850 Y50.64474
G1 F300 X-34.39986 Y50.53636
G1 F300 X-34.22079 Y50.45556
G1 F300 X-34.04091 Y50.41698
G1 F300 X-33.85074 Y50.41566
G1 F300 X-33.65252 Y50.45780
G1 F300 X-33.47931 Y50.53636
G1 F300 X-33.32623 Y50.64919
G1 F300 X-33.19996 Y50.79140
G1 F300 X-33.10601 Y50.95676
G1 F300 X-33.04947 Y51.13181
G1 F300 X-33.02958 Y51.32102
;G04 P0 ; dwell for no time -- G64 should not smooth over this point 
G1 F3000 Z3.00000 ; retract 

G1 F3000 X-33.02958 Y53.86102 ; rapid move to begin. 
G1 F300 F300.00000
G1 F300 Z-0.07000
;G04 P0 ; dwell for no time -- G64 should not smooth over this point 
G1 F300 F600.00000
G1 F300 X-33.02958 Y53.86102
G1 F300 X-33.04947 Y53.67181
G1 F300 X-33.10601 Y53.49676
G1 F300 X-33.19996 Y53.33140
G1 F300 X-33.32623 Y53.18919
G1 F300 X-33.47931 Y53.07636
G1 F300 X-33.65252 Y52.99780
G1 F300 X-33.85074 Y52.95566
G1 F300 X-34.04091 Y52.95698
G1 F300 X-34.22079 Y52.99556
G1 F300 X-34.39986 Y53.07636
G1 F300 X-34.54850 Y53.18474
G1 F300 X-34.67184 Y53.32124
G1 F300 X-34.76806 Y53.48528
G1 F300 X-34.82970 Y53.67181
G1 F300 X-34.84959 Y53.86102
G1 F300 X-34.82970 Y54.05022
G1 F300 X-34.77316 Y54.22528
G1 F300 X-34.67921 Y54.39063
G1 F300 X-34.55295 Y54.53282
G1 F300 X-34.38899 Y54.65195
G1 F300 X-34.22079 Y54.72647
G1 F300 X-34.02844 Y54.76635
G1 F300 X-33.83827 Y54.76505
G1 F300 X-33.65838 Y54.72647
G1 F300 X-33.47931 Y54.64567
G1 F300 X-33.33067 Y54.53727
G1 F300 X-33.19996 Y54.39063
G1 F300 X-33.10601 Y54.22528
G1 F300 X-33.04947 Y54.05022
G1 F300 X-33.02958 Y53.86102
;G04 P0 ; dwell for no time -- G64 should not smooth over this point 
G1 F3000 Z3.00000 ; retract 

G1 F3000 X-35.56958 Y53.86102 ; rapid move to begin. 
G1 F300 F300.00000
G1 F300 Z-0.07000
;G04 P0 ; dwell for no time -- G64 should not smooth over this point 
G1 F300 F600.00000
G1 F300 X-35.56958 Y53.86102
G1 F300 X-35.58947 Y53.67181
G1 F300 X-35.64601 Y53.49676
G1 F300 X-35.73996 Y53.33140
G1 F300 X-35.86623 Y53.18919
G1 F300 X-36.01931 Y53.07636
G1 F300 X-36.19252 Y52.99780
G1 F300 X-36.39074 Y52.95566
G1 F300 X-36.58091 Y52.95698
G1 F300 X-36.76079 Y52.99556
G1 F300 X-36.93986 Y53.07636
G1 F300 X-37.08850 Y53.18474
G1 F300 X-37.21184 Y53.32124
G1 F300 X-37.30806 Y53.48528
G1 F300 X-37.36970 Y53.67181
G1 F300 X-37.38959 Y53.86102
G1 F300 X-37.36970 Y54.05022
G1 F300 X-37.31316 Y54.22528
G1 F300 X-37.21921 Y54.39063
G1 F300 X-37.09295 Y54.53282
G1 F300 X-36.92899 Y54.65195
G1 F300 X-36.76079 Y54.72647
G1 F300 X-36.56844 Y54.76635
G1 F300 X-36.37827 Y54.76505
G1 F300 X-36.19838 Y54.72647
G1 F300 X-36.01931 Y54.64567
G1 F300 X-35.87067 Y54.53727
G1 F300 X-35.73996 Y54.39063
G1 F300 X-35.64601 Y54.22528
G1 F300 X-35.58947 Y54.05022
G1 F300 X-35.56958 Y53.86102
;G04 P0 ; dwell for no time -- G64 should not smooth over this point 
G1 F3000 Z3.00000 ; retract 

G1 F3000 X-35.56958 Y51.32102 ; rapid move to begin. 
G1 F300 F300.00000
G1 F300 Z-0.07000
;G04 P0 ; dwell for no time -- G64 should not smooth over this point 
G1 F300 F600.00000
G1 F300 X-35.56958 Y51.32102
G1 F300 X-35.58947 Y51.51022
G1 F300 X-35.64601 Y51.68528
G1 F300 X-35.73996 Y51.85063
G1 F300 X-35.87067 Y51.99727
G1 F300 X-36.01931 Y52.10567
G1 F300 X-36.19838 Y52.18647
G1 F300 X-36.37827 Y52.22505
G1 F300 X-36.56844 Y52.22635
G1 F300 X-36.76079 Y52.18647
G1 F300 X-36.92899 Y52.11195
G1 F300 X-37.09295 Y51.99282
G1 F300 X-37.21921 Y51.85063
G1 F300 X-37.31316 Y51.68528
G1 F300 X-37.36970 Y51.51022
G1 F300 X-37.38959 Y51.32102
G1 F300 X-37.36970 Y51.13181
G1 F300 X-37.30806 Y50.94528
G1 F300 X-37.21184 Y50.78124
G1 F300 X-37.08850 Y50.64474
G1 F300 X-36.93986 Y50.53636
G1 F300 X-36.76079 Y50.45556
G1 F300 X-36.58091 Y50.41698
G1 F300 X-36.39074 Y50.41566
G1 F300 X-36.19252 Y50.45780
G1 F300 X-36.01931 Y50.53636
G1 F300 X-35.86623 Y50.64919
G1 F300 X-35.73996 Y50.79140
G1 F300 X-35.64601 Y50.95676
G1 F300 X-35.58947 Y51.13181
G1 F300 X-35.56958 Y51.32102
;G04 P0 ; dwell for no time -- G64 should not smooth over this point 
G1 F3000 Z3.00000 ; retract 

G1 F3000 X-38.10958 Y53.86102 ; rapid move to begin. 
G1 F300 F300.00000
G1 F300 Z-0.07000
;G04 P0 ; dwell for no time -- G64 should not smooth over this point 
G1 F300 F600.00000
G1 F300 X-38.10958 Y53.86102
G1 F300 X-38.12947 Y54.05022
G1 F300 X-38.18601 Y54.22528
G1 F300 X-38.27996 Y54.39063
G1 F300 X-38.41067 Y54.53727
G1 F300 X-38.55931 Y54.64567
G1 F300 X-38.73838 Y54.72647
G1 F300 X-38.91827 Y54.76505
G1 F300 X-39.10844 Y54.76635
G1 F300 X-39.30079 Y54.72647
G1 F300 X-39.46899 Y54.65195
G1 F300 X-39.63295 Y54.53282
G1 F300 X-39.75921 Y54.39063
G1 F300 X-39.85316 Y54.22528
G1 F300 X-39.90970 Y54.05022
G1 F300 X-39.92959 Y53.86102
G1 F300 X-39.90970 Y53.67181
G1 F300 X-39.84806 Y53.48528
G1 F300 X-39.75184 Y53.32124
G1 F300 X-39.62850 Y53.18474
G1 F300 X-39.47986 Y53.07636
G1 F300 X-39.30079 Y52.99556
G1 F300 X-39.12091 Y52.95698
G1 F300 X-38.93074 Y52.95566
G1 F300 X-38.73252 Y52.99780
G1 F300 X-38.55931 Y53.07636
G1 F300 X-38.40623 Y53.18919
G1 F300 X-38.27996 Y53.33140
G1 F300 X-38.18601 Y53.49676
G1 F300 X-38.12947 Y53.67181
G1 F300 X-38.10958 Y53.86102
;G04 P0 ; dwell for no time -- G64 should not smooth over this point 
G1 F3000 Z3.00000 ; retract 

G1 F3000 X-40.64958 Y53.86102 ; rapid move to begin. 
G1 F300 F300.00000
G1 F300 Z-0.07000
;G04 P0 ; dwell for no time -- G64 should not smooth over this point 
G1 F300 F600.00000
G1 F300 X-40.64958 Y53.86102
G1 F300 X-40.66947 Y53.67181
G1 F300 X-40.72601 Y53.49676
G1 F300 X-40.81996 Y53.33140
G1 F300 X-40.94623 Y53.18919
G1 F300 X-41.09931 Y53.07636
G1 F300 X-41.27252 Y52.99780
G1 F300 X-41.47074 Y52.95566
G1 F300 X-41.66091 Y52.95698
G1 F300 X-41.84079 Y52.99556
G1 F300 X-42.01986 Y53.07636
G1 F300 X-42.16850 Y53.18474
G1 F300 X-42.29184 Y53.32124
G1 F300 X-42.38806 Y53.48528
G1 F300 X-42.44970 Y53.67181
G1 F300 X-42.46959 Y53.86102
G1 F300 X-42.44970 Y54.05022
G1 F300 X-42.39316 Y54.22528
G1 F300 X-42.29921 Y54.39063
G1 F300 X-42.17295 Y54.53282
G1 F300 X-42.00899 Y54.65195
G1 F300 X-41.84079 Y54.72647
G1 F300 X-41.64844 Y54.76635
G1 F300 X-41.45827 Y54.76505
G1 F300 X-41.27838 Y54.72647
G1 F300 X-41.09931 Y54.64567
G1 F300 X-40.95067 Y54.53727
G1 F300 X-40.81996 Y54.39063
G1 F300 X-40.72601 Y54.22528
G1 F300 X-40.66947 Y54.05022
G1 F300 X-40.64958 Y53.86102
;G04 P0 ; dwell for no time -- G64 should not smooth over this point 
G1 F3000 Z3.00000 ; retract 

G1 F3000 X-40.64958 Y51.32102 ; rapid move to begin. 
G1 F300 F300.00000
G1 F300 Z-0.07000
;G04 P0 ; dwell for no time -- G64 should not smooth over this point 
G1 F300 F600.00000
G1 F300 X-40.64958 Y51.32102
G1 F300 X-40.66947 Y51.51022
G1 F300 X-40.72601 Y51.68528
G1 F300 X-40.81996 Y51.85063
G1 F300 X-40.95067 Y51.99727
G1 F300 X-41.09931 Y52.10567
G1 F300 X-41.27838 Y52.18647
G1 F300 X-41.45827 Y52.22505
G1 F300 X-41.64844 Y52.22635
G1 F300 X-41.84079 Y52.18647
G1 F300 X-42.00899 Y52.11195
G1 F300 X-42.17295 Y51.99282
G1 F300 X-42.29921 Y51.85063
G1 F300 X-42.39316 Y51.68528
G1 F300 X-42.44970 Y51.51022
G1 F300 X-42.46959 Y51.32102
G1 F300 X-42.44970 Y51.13181
G1 F300 X-42.38806 Y50.94528
G1 F300 X-42.29184 Y50.78124
G1 F300 X-42.16850 Y50.64474
G1 F300 X-42.01986 Y50.53636
G1 F300 X-41.84079 Y50.45556
G1 F300 X-41.66091 Y50.41698
G1 F300 X-41.47074 Y50.41566
G1 F300 X-41.27252 Y50.45780
G1 F300 X-41.09931 Y50.53636
G1 F300 X-40.94623 Y50.64919
G1 F300 X-40.81996 Y50.79140
G1 F300 X-40.72601 Y50.95676
G1 F300 X-40.66947 Y51.13181
G1 F300 X-40.64958 Y51.32102
;G04 P0 ; dwell for no time -- G64 should not smooth over this point 
G1 F3000 Z3.00000 ; retract 

G1 F3000 X-43.18958 Y51.32102 ; rapid move to begin. 
G1 F300 F300.00000
G1 F300 Z-0.07000
;G04 P0 ; dwell for no time -- G64 should not smooth over this point 
G1 F300 F600.00000
G1 F300 X-43.18958 Y51.32102
G1 F300 X-43.20947 Y51.51022
G1 F300 X-43.26601 Y51.68528
G1 F300 X-43.35996 Y51.85063
G1 F300 X-43.48623 Y51.99282
G1 F300 X-43.65018 Y52.11195
G1 F300 X-43.81838 Y52.18647
G1 F300 X-44.01074 Y52.22635
G1 F300 X-44.20091 Y52.22505
G1 F300 X-44.38079 Y52.18647
G1 F300 X-44.55986 Y52.10567
G1 F300 X-44.70850 Y51.99727
G1 F300 X-44.83184 Y51.86077
G1 F300 X-44.92806 Y51.69673
G1 F300 X-44.98970 Y51.51022
G1 F300 X-45.00926 Y51.32729
G1 F300 X-44.98808 Y51.12574
G1 F300 X-44.92806 Y50.94528
G1 F300 X-44.83184 Y50.78124
G1 F300 X-44.70850 Y50.64474
G1 F300 X-44.55986 Y50.53636
G1 F300 X-44.35958 Y50.45071
G1 F300 X-44.35958 Y47.62872
G1 F300 X-44.90738 Y47.08051
G1 F300 X-44.96179 Y46.99497
G1 F300 X-44.97959 Y46.90101
G1 F300 X-44.97959 Y21.98371
G1 F300 X-48.30227 Y18.66104
G1 F300 X-48.59150 Y18.66104
G1 F300 X-48.70016 Y18.83777
G1 F300 X-48.80176 Y18.93101
G1 F300 X-48.93201 Y19.00620
G1 F300 X-49.06356 Y19.04757
G1 F300 X-49.19460 Y19.06101
G1 F300 X-49.74458 Y19.06101
G1 F300 X-49.87560 Y19.04757
G1 F300 X-50.00717 Y19.00620
G1 F300 X-50.13739 Y18.93101
G1 F300 X-50.23902 Y18.83777
G1 F300 X-50.31276 Y18.73627
G1 F300 X-50.37392 Y18.59891
G1 F300 X-50.40097 Y18.47003
G1 F300 X-50.40130 Y18.33833
G1 F300 X-50.37392 Y18.20313
G1 F300 X-50.31276 Y18.06574
G1 F300 X-50.23061 Y17.95494
G1 F300 X-50.13252 Y17.86706
G1 F300 X-50.01862 Y17.80092
G1 F300 X-49.88182 Y17.75543
G1 F300 X-49.74458 Y17.74102
G1 F300 X-49.19460 Y17.74102
G1 F300 X-49.05736 Y17.75543
G1 F300 X-48.92056 Y17.80092
G1 F300 X-48.80176 Y17.87102
G1 F300 X-48.70016 Y17.96426
G1 F300 X-48.59147 Y18.14102
G1 F300 X-48.18871 Y18.14133
G1 F300 X-48.10064 Y18.15885
G1 F300 X-48.04540 Y18.18834
G1 F300 X-44.53573 Y21.69217
G1 F300 X-44.46601 Y21.81960
G1 F300 X-44.45958 Y46.79331
G1 F300 X-43.91572 Y47.33718
G1 F300 X-43.84599 Y47.46461
G1 F300 X-43.83957 Y50.45071
G1 F300 X-43.63931 Y50.53636
G1 F300 X-43.49067 Y50.64474
G1 F300 X-43.36733 Y50.78124
G1 F300 X-43.26601 Y50.95676
G1 F300 X-43.20947 Y51.13181
G1 F300 X-43.18958 Y51.32102
;G04 P0 ; dwell for no time -- G64 should not smooth over this point 
G1 F3000 Z3.00000 ; retract 

G1 F3000 X-45.72958 Y53.86102 ; rapid move to begin. 
G1 F300 F300.00000
G1 F300 Z-0.07000
;G04 P0 ; dwell for no time -- G64 should not smooth over this point 
G1 F300 F600.00000
G1 F300 X-45.72958 Y53.86102
G1 F300 X-45.74947 Y53.67181
G1 F300 X-45.80601 Y53.49676
G1 F300 X-45.89996 Y53.33140
G1 F300 X-46.02623 Y53.18919
G1 F300 X-46.17931 Y53.07636
G1 F300 X-46.35252 Y52.99780
G1 F300 X-46.55074 Y52.95566
G1 F300 X-46.74091 Y52.95698
G1 F300 X-46.92079 Y52.99556
G1 F300 X-47.09986 Y53.07636
G1 F300 X-47.24850 Y53.18474
G1 F300 X-47.37184 Y53.32124
G1 F300 X-47.46806 Y53.48528
G1 F300 X-47.52970 Y53.67181
G1 F300 X-47.54959 Y53.86102
G1 F300 X-47.52970 Y54.05022
G1 F300 X-47.47316 Y54.22528
G1 F300 X-47.37921 Y54.39063
G1 F300 X-47.25295 Y54.53282
G1 F300 X-47.08899 Y54.65195
G1 F300 X-46.92079 Y54.72647
G1 F300 X-46.72844 Y54.76635
G1 F300 X-46.53827 Y54.76505
G1 F300 X-46.35838 Y54.72647
G1 F300 X-46.17931 Y54.64567
G1 F300 X-46.03067 Y54.53727
G1 F300 X-45.89996 Y54.39063
G1 F300 X-45.80601 Y54.22528
G1 F300 X-45.74947 Y54.05022
G1 F300 X-45.72958 Y53.86102
;G04 P0 ; dwell for no time -- G64 should not smooth over this point 
G1 F3000 Z3.00000 ; retract 

G1 F3000 X-50.80958 Y51.32102 ; rapid move to begin. 
G1 F300 F300.00000
G1 F300 Z-0.07000
;G04 P0 ; dwell for no time -- G64 should not smooth over this point 
G1 F300 F600.00000
G1 F300 X-50.80958 Y51.32102
G1 F300 X-50.82947 Y51.13181
G1 F300 X-50.88601 Y50.95676
G1 F300 X-50.98733 Y50.78124
G1 F300 X-51.11067 Y50.64474
G1 F300 X-51.25931 Y50.53636
G1 F300 X-51.45957 Y50.45071
G1 F300 X-51.46371 Y50.07406
G1 F300 X-51.50689 Y49.96976
G1 F300 X-53.50363 Y47.96718
G1 F300 X-53.58268 Y47.91335
G1 F300 X-53.68161 Y47.89133
G1 F300 X-54.36187 Y47.89103
G1 F300 X-54.95956 Y47.29334
G1 F300 X-54.95956 Y46.33601
G1 F300 X-54.81493 Y46.33091
G1 F300 X-54.70241 Y46.28679
G1 F300 X-54.61534 Y46.20297
G1 F300 X-54.56469 Y46.08067
G1 F300 X-54.56698 Y44.70983
G1 F300 X-54.60881 Y44.60884
G1 F300 X-54.65476 Y44.55286
G1 F300 X-54.74564 Y44.49213
G1 F300 X-54.81493 Y44.47109
G1 F300 X-55.57546 Y44.46629
G1 F300 X-55.68267 Y44.48763
G1 F300 X-55.74655 Y44.52177
G1 F300 X-55.83037 Y44.60884
G1 F300 X-55.85798 Y44.66292
G1 F300 X-55.87929 Y44.77013
G1 F300 X-55.87449 Y46.08067
G1 F300 X-55.82384 Y46.20297
G1 F300 X-55.73677 Y46.28679
G1 F300 X-55.62425 Y46.33091
G1 F300 X-55.47957 Y46.33601
G1 F300 X-55.47957 Y47.40104
G1 F300 X-55.43878 Y47.54041
G1 F300 X-54.65344 Y48.33487
G1 F300 X-54.57439 Y48.38871
G1 F300 X-54.46959 Y48.41104
G1 F300 X-53.79517 Y48.41104
G1 F300 X-51.97958 Y50.22663
G1 F300 X-51.97958 Y50.45071
G1 F300 X-52.16899 Y50.53009
G1 F300 X-52.33295 Y50.64919
G1 F300 X-52.45184 Y50.78124
G1 F300 X-52.54806 Y50.94528
G1 F300 X-52.60808 Y51.12574
G1 F300 X-52.62959 Y51.32102
G1 F300 X-52.60970 Y51.51022
G1 F300 X-52.55316 Y51.68528
G1 F300 X-52.45921 Y51.85063
G1 F300 X-52.32362 Y52.00123
G1 F300 X-52.16899 Y52.11195
G1 F300 X-52.00079 Y52.18647
G1 F300 X-51.80844 Y52.22635
G1 F300 X-51.61827 Y52.22505
G1 F300 X-51.43838 Y52.18647
G1 F300 X-51.27018 Y52.11195
G1 F300 X-51.11555 Y52.00123
G1 F300 X-50.97996 Y51.85063
G1 F300 X-50.88601 Y51.68528
G1 F300 X-50.83109 Y51.51627
G1 F300 X-50.80958 Y51.32102
;G04 P0 ; dwell for no time -- G64 should not smooth over this point 
G1 F3000 Z3.00000 ; retract 

G1 F3000 X-50.80958 Y53.86102 ; rapid move to begin. 
G1 F300 F300.00000
G1 F300 Z-0.07000
;G04 P0 ; dwell for no time -- G64 should not smooth over this point 
G1 F300 F600.00000
G1 F300 X-50.80958 Y53.86102
G1 F300 X-50.82947 Y53.67181
G1 F300 X-50.88601 Y53.49676
G1 F300 X-50.97996 Y53.33140
G1 F300 X-51.10623 Y53.18919
G1 F300 X-51.25931 Y53.07636
G1 F300 X-51.43252 Y52.99780
G1 F300 X-51.63074 Y52.95566
G1 F300 X-51.82091 Y52.95698
G1 F300 X-52.00079 Y52.99556
G1 F300 X-52.17986 Y53.07636
G1 F300 X-52.32850 Y53.18474
G1 F300 X-52.45184 Y53.32124
G1 F300 X-52.54806 Y53.48528
G1 F300 X-52.60970 Y53.67181
G1 F300 X-52.62959 Y53.86102
G1 F300 X-52.60970 Y54.05022
G1 F300 X-52.55316 Y54.22528
G1 F300 X-52.45921 Y54.39063
G1 F300 X-52.33295 Y54.53282
G1 F300 X-52.16899 Y54.65195
G1 F300 X-52.00079 Y54.72647
G1 F300 X-51.80844 Y54.76635
G1 F300 X-51.61827 Y54.76505
G1 F300 X-51.43838 Y54.72647
G1 F300 X-51.25931 Y54.64567
G1 F300 X-51.11067 Y54.53727
G1 F300 X-50.97996 Y54.39063
G1 F300 X-50.88601 Y54.22528
G1 F300 X-50.82947 Y54.05022
G1 F300 X-50.80958 Y53.86102
;G04 P0 ; dwell for no time -- G64 should not smooth over this point 
G1 F3000 Z3.00000 ; retract 

G1 F3000 X-53.34958 Y51.32102 ; rapid move to begin. 
G1 F300 F300.00000
G1 F300 Z-0.07000
;G04 P0 ; dwell for no time -- G64 should not smooth over this point 
G1 F300 F600.00000
G1 F300 X-53.34958 Y51.32102
G1 F300 X-53.36947 Y51.13181
G1 F300 X-53.42601 Y50.95676
G1 F300 X-53.52733 Y50.78124
G1 F300 X-53.65067 Y50.64474
G1 F300 X-53.79931 Y50.53636
G1 F300 X-53.99957 Y50.45071
G1 F300 X-53.99957 Y49.73502
G1 F300 X-54.01737 Y49.64109
G1 F300 X-54.07572 Y49.55117
G1 F300 X-54.44739 Y49.18533
G1 F300 X-54.50264 Y49.15582
G1 F300 X-54.59659 Y49.13801
G1 F300 X-56.07490 Y49.13801
G1 F300 X-59.03039 Y46.18834
G1 F300 X-59.08564 Y46.15882
G1 F300 X-59.17370 Y46.14132
G1 F300 X-59.80959 Y46.14102
G1 F300 X-59.81698 Y45.70983
G1 F300 X-59.86534 Y45.59906
G1 F300 X-59.94263 Y45.52177
G1 F300 X-60.00649 Y45.48763
G1 F300 X-60.11370 Y45.46629
G1 F300 X-60.82546 Y45.46629
G1 F300 X-60.94355 Y45.49212
G1 F300 X-60.99655 Y45.52177
G1 F300 X-61.07385 Y45.59906
G1 F300 X-61.10798 Y45.66291
G1 F300 X-61.12960 Y45.77602
G1 F300 X-61.12960 Y47.02600
G1 F300 X-61.12221 Y47.09220
G1 F300 X-61.08037 Y47.19319
G1 F300 X-60.98678 Y47.28679
G1 F300 X-60.88579 Y47.32862
G1 F300 X-60.81959 Y47.33601
G1 F300 X-60.11959 Y47.33601
G1 F300 X-60.00649 Y47.31440
G1 F300 X-59.89643 Y47.24086
G1 F300 X-59.83570 Y47.14996
G1 F300 X-59.81698 Y47.09220
G1 F300 X-59.80959 Y46.66103
G1 F300 X-59.28726 Y46.66103
G1 F300 X-56.32199 Y49.61724
G1 F300 X-56.18257 Y49.65803
G1 F300 X-54.70426 Y49.65803
G1 F300 X-54.51958 Y49.84271
G1 F300 X-54.51958 Y50.45071
G1 F300 X-54.70899 Y50.53009
G1 F300 X-54.87295 Y50.64919
G1 F300 X-54.99184 Y50.78124
G1 F300 X-55.08806 Y50.94528
G1 F300 X-55.15069 Y51.13801
G1 F300 X-55.16959 Y51.32102
G1 F300 X-55.15069 Y51.50400
G1 F300 X-55.09316 Y51.68528
G1 F300 X-54.99921 Y51.85063
G1 F300 X-54.86362 Y52.00123
G1 F300 X-54.70899 Y52.11195
G1 F300 X-54.54079 Y52.18647
G1 F300 X-54.36091 Y52.22505
G1 F300 X-54.15827 Y52.22505
G1 F300 X-53.97838 Y52.18647
G1 F300 X-53.81018 Y52.11195
G1 F300 X-53.65067 Y51.99727
G1 F300 X-53.51996 Y51.85063
G1 F300 X-53.42601 Y51.68528
G1 F300 X-53.37109 Y51.51627
G1 F300 X-53.34958 Y51.32102
;G04 P0 ; dwell for no time -- G64 should not smooth over this point 
G1 F3000 Z3.00000 ; retract 

G1 F3000 X-53.34958 Y53.86102 ; rapid move to begin. 
G1 F300 F300.00000
G1 F300 Z-0.07000
;G04 P0 ; dwell for no time -- G64 should not smooth over this point 
G1 F300 F600.00000
G1 F300 X-53.34958 Y53.86102
G1 F300 X-53.36947 Y53.67181
G1 F300 X-53.42601 Y53.49676
G1 F300 X-53.51996 Y53.33140
G1 F300 X-53.64623 Y53.18919
G1 F300 X-53.79931 Y53.07636
G1 F300 X-53.97252 Y52.99780
G1 F300 X-54.17074 Y52.95566
G1 F300 X-54.36091 Y52.95698
G1 F300 X-54.54079 Y52.99556
G1 F300 X-54.71986 Y53.07636
G1 F300 X-54.86850 Y53.18474
G1 F300 X-54.99184 Y53.32124
G1 F300 X-55.08806 Y53.48528
G1 F300 X-55.14970 Y53.67181
G1 F300 X-55.16959 Y53.86102
G1 F300 X-55.14970 Y54.05022
G1 F300 X-55.09316 Y54.22528
G1 F300 X-54.99921 Y54.39063
G1 F300 X-54.87295 Y54.53282
G1 F300 X-54.70899 Y54.65195
G1 F300 X-54.54079 Y54.72647
G1 F300 X-54.34844 Y54.76635
G1 F300 X-54.15827 Y54.76505
G1 F300 X-53.97838 Y54.72647
G1 F300 X-53.79931 Y54.64567
G1 F300 X-53.65067 Y54.53727
G1 F300 X-53.51996 Y54.39063
G1 F300 X-53.42601 Y54.22528
G1 F300 X-53.36947 Y54.05022
G1 F300 X-53.34958 Y53.86102
;G04 P0 ; dwell for no time -- G64 should not smooth over this point 
G1 F3000 Z3.00000 ; retract 

G1 F3000 X-55.88958 Y53.86102 ; rapid move to begin. 
G1 F300 F300.00000
G1 F300 Z-0.07000
;G04 P0 ; dwell for no time -- G64 should not smooth over this point 
G1 F300 F600.00000
G1 F300 X-55.88958 Y53.86102
G1 F300 X-55.90947 Y53.67181
G1 F300 X-55.96601 Y53.49676
G1 F300 X-56.05996 Y53.33140
G1 F300 X-56.18623 Y53.18919
G1 F300 X-56.33931 Y53.07636
G1 F300 X-56.51252 Y52.99780
G1 F300 X-56.71074 Y52.95566
G1 F300 X-56.90091 Y52.95698
G1 F300 X-57.08079 Y52.99556
G1 F300 X-57.25986 Y53.07636
G1 F300 X-57.40850 Y53.18474
G1 F300 X-57.53184 Y53.32124
G1 F300 X-57.62806 Y53.48528
G1 F300 X-57.68970 Y53.67181
G1 F300 X-57.70959 Y53.86102
G1 F300 X-57.68970 Y54.05022
G1 F300 X-57.63316 Y54.22528
G1 F300 X-57.53921 Y54.39063
G1 F300 X-57.41295 Y54.53282
G1 F300 X-57.24899 Y54.65195
G1 F300 X-57.08079 Y54.72647
G1 F300 X-56.88844 Y54.76635
G1 F300 X-56.69827 Y54.76505
G1 F300 X-56.51838 Y54.72647
G1 F300 X-56.33931 Y54.64567
G1 F300 X-56.19067 Y54.53727
G1 F300 X-56.05996 Y54.39063
G1 F300 X-55.96601 Y54.22528
G1 F300 X-55.90947 Y54.05022
G1 F300 X-55.88958 Y53.86102
;G04 P0 ; dwell for no time -- G64 should not smooth over this point 
G1 F3000 Z3.00000 ; retract 

G1 F3000 X-61.80958 Y46.12601 ; rapid move to begin. 
G1 F300 F300.00000
G1 F300 Z-0.07000
;G04 P0 ; dwell for no time -- G64 should not smooth over this point 
G1 F300 F600.00000
G1 F300 X-61.80958 Y46.12601
G1 F300 X-61.80958 Y46.67602
G1 F300 X-61.82401 Y46.81323
G1 F300 X-61.86440 Y46.93860
G1 F300 X-61.93221 Y47.05869
G1 F300 X-62.03285 Y47.17043
G1 F300 X-62.14519 Y47.25044
G1 F300 X-62.27171 Y47.30533
G1 F300 X-62.40059 Y47.33240
G1 F300 X-62.53856 Y47.33240
G1 F300 X-62.67941 Y47.30147
G1 F300 X-62.80486 Y47.24416
G1 F300 X-62.91121 Y47.16649
G1 F300 X-63.00354 Y47.06395
G1 F300 X-63.07478 Y46.93860
G1 F300 X-63.11616 Y46.80703
G1 F300 X-63.12960 Y46.67602
G1 F300 X-63.12927 Y46.11973
G1 F300 X-63.11517 Y45.98880
G1 F300 X-63.07478 Y45.86342
G1 F300 X-63.00354 Y45.73807
G1 F300 X-62.90633 Y45.63160
G1 F300 X-62.72957 Y45.52291
G1 F300 X-62.72957 Y43.06101
G1 F300 X-63.23577 Y43.05362
G1 F300 X-63.29355 Y43.03490
G1 F300 X-63.38443 Y42.97417
G1 F300 X-63.45347 Y42.87496
G1 F300 X-63.47958 Y42.75101
G1 F300 X-63.47450 Y42.04636
G1 F300 X-63.45347 Y41.97707
G1 F300 X-63.39274 Y41.88616
G1 F300 X-63.28268 Y41.81263
G1 F300 X-63.16960 Y41.79101
G1 F300 X-62.21494 Y41.79609
G1 F300 X-62.14563 Y41.81712
G1 F300 X-62.05474 Y41.87786
G1 F300 X-61.98121 Y41.98791
G1 F300 X-61.95960 Y42.10102
G1 F300 X-61.96699 Y42.81720
G1 F300 X-62.00880 Y42.91819
G1 F300 X-62.05474 Y42.97417
G1 F300 X-62.14563 Y43.03490
G1 F300 X-62.20956 Y43.05484
G1 F300 X-62.20956 Y45.52293
G1 F300 X-62.03285 Y45.63160
G1 F300 X-61.93564 Y45.73807
G1 F300 X-61.86440 Y45.86342
G1 F300 X-61.82401 Y45.98880
G1 F300 X-61.80958 Y46.12601
;G04 P0 ; dwell for no time -- G64 should not smooth over this point 
G1 F3000 Z3.00000 ; retract 

G1 F3000 X-52.45959 Y41.97600 ; rapid move to begin. 
G1 F300 F300.00000
G1 F300 Z-0.07000
;G04 P0 ; dwell for no time -- G64 should not smooth over this point 
G1 F300 F600.00000
G1 F300 X-52.45959 Y41.97600
G1 F300 X-52.45959 Y42.62601
G1 F300 X-52.48570 Y42.74997
G1 F300 X-52.55474 Y42.84918
G1 F300 X-52.65649 Y42.91440
G1 F300 X-52.76370 Y42.93572
G1 F300 X-52.95956 Y42.93602
G1 F300 X-52.95956 Y44.52291
G1 F300 X-52.78283 Y44.63160
G1 F300 X-52.68959 Y44.73320
G1 F300 X-52.61951 Y44.85197
G1 F300 X-52.57564 Y44.98273
G1 F300 X-52.55959 Y45.12601
G1 F300 X-52.55959 Y45.67602
G1 F300 X-52.57402 Y45.81323
G1 F300 X-52.61440 Y45.93860
G1 F300 X-52.68562 Y46.06395
G1 F300 X-52.77795 Y46.16649
G1 F300 X-52.88433 Y46.24417
G1 F300 X-53.00978 Y46.30147
G1 F300 X-53.14440 Y46.33142
G1 F300 X-53.29477 Y46.33142
G1 F300 X-53.42941 Y46.30147
G1 F300 X-53.54399 Y46.25044
G1 F300 X-53.66121 Y46.16649
G1 F300 X-53.75354 Y46.06395
G1 F300 X-53.81968 Y45.95006
G1 F300 X-53.86614 Y45.80703
G1 F300 X-53.87958 Y45.67602
G1 F300 X-53.87958 Y45.12601
G1 F300 X-53.86355 Y44.98273
G1 F300 X-53.81968 Y44.85197
G1 F300 X-53.74958 Y44.73320
G1 F300 X-53.65634 Y44.63160
G1 F300 X-53.47958 Y44.52291
G1 F300 X-53.47958 Y42.93602
G1 F300 X-53.67546 Y42.93572
G1 F300 X-53.78268 Y42.91440
G1 F300 X-53.88443 Y42.84918
G1 F300 X-53.95347 Y42.74997
G1 F300 X-53.97958 Y42.62601
G1 F300 X-53.97450 Y41.92137
G1 F300 X-53.95347 Y41.85205
G1 F300 X-53.89273 Y41.76117
G1 F300 X-53.83675 Y41.71522
G1 F300 X-53.73579 Y41.67341
G1 F300 X-52.76960 Y41.66602
G1 F300 X-52.65649 Y41.68764
G1 F300 X-52.55474 Y41.75286
G1 F300 X-52.48570 Y41.85205
G1 F300 X-52.45959 Y41.97600
;G04 P0 ; dwell for no time -- G64 should not smooth over this point 
G1 F3000 Z3.00000 ; retract 

G1 F3000 X-58.05958 Y35.00101 ; rapid move to begin. 
G1 F300 F300.00000
G1 F300 Z-0.07000
;G04 P0 ; dwell for no time -- G64 should not smooth over this point 
G1 F300 F600.00000
G1 F300 X-58.05958 Y35.00101
G1 F300 X-58.05958 Y35.30101
G1 F300 X-58.07850 Y35.48402
G1 F300 X-58.13601 Y35.66527
G1 F300 X-58.23733 Y35.84078
G1 F300 X-58.36067 Y35.97728
G1 F300 X-58.52018 Y36.09194
G1 F300 X-58.68838 Y36.16646
G1 F300 X-58.86826 Y36.20505
G1 F300 X-59.07090 Y36.20505
G1 F300 X-59.25079 Y36.16646
G1 F300 X-59.42986 Y36.08567
G1 F300 X-59.57850 Y35.97728
G1 F300 X-59.70184 Y35.84078
G1 F300 X-59.79806 Y35.67675
G1 F300 X-59.86069 Y35.48402
G1 F300 X-59.87959 Y35.30101
G1 F300 X-59.87959 Y35.00101
G1 F300 X-59.85970 Y34.81180
G1 F300 X-59.79806 Y34.62529
G1 F300 X-59.70921 Y34.47139
G1 F300 X-59.58294 Y34.32918
G1 F300 X-59.41899 Y34.21008
G1 F300 X-59.22958 Y34.13070
G1 F300 X-59.22958 Y33.85872
G1 F300 X-60.17728 Y32.91102
G1 F300 X-60.72546 Y32.91072
G1 F300 X-60.81352 Y32.89322
G1 F300 X-60.86877 Y32.86370
G1 F300 X-61.93227 Y31.80020
G1 F300 X-61.96178 Y31.74496
G1 F300 X-61.97959 Y31.65103
G1 F300 X-61.97959 Y30.24041
G1 F300 X-62.37999 Y30.24041
G1 F300 X-62.42988 Y30.21374
G1 F300 X-62.43999 Y29.62162
G1 F300 X-62.41332 Y29.57173
G1 F300 X-61.05919 Y29.56162
G1 F300 X-61.00931 Y29.58827
G1 F300 X-60.99920 Y29.62162
G1 F300 X-61.00931 Y30.21374
G1 F300 X-61.05919 Y30.24041
G1 F300 X-61.45957 Y30.24041
G1 F300 X-61.45957 Y31.54331
G1 F300 X-60.61190 Y32.39101
G1 F300 X-60.06369 Y32.39131
G1 F300 X-59.97560 Y32.40881
G1 F300 X-59.92038 Y32.43835
G1 F300 X-58.78571 Y33.56718
