; pcb2gcode 2.0.0 
; Software-independent Gcode 

G94 ; Millimeters per minute feed rate. 
G21 ; Units == Millimeters. 

G90 ; Absolute coordinates. 
;G1 F3000 S10000 ; RPM spindle speed. 
G1 F300 F600.00000 ; Feedrate. 


G1 F3000 Z3.00000 ;Retract to tool change height
;T0
;M5      ;Spindle stop.
;G04 P1.00000 ;Wait for spindle to stop
;MSG, Change tool bit to mill diameter 0.12000mm
;M6      ;Tool change.
;M0      ;Temporary machine stop.
;M3 ; Spindle on clockwise. 
;G04 P1.00000 ;Wait for spindle to get up to speed
;G04 P0 ; dwell for no time -- G64 should not smooth over this point 
G1 F3000 Z3.00000 ; retract 

G1 F3000 X0.30999 Y11.14500 ; rapid move to begin. 
G1 F300 F300.00000
G1 F300 Z-0.07000
;G04 P0 ; dwell for no time -- G64 should not smooth over this point 
G1 F300 F600.00000
G1 F300 X0.30999 Y11.14500
G1 F300 X0.31507 Y22.85869
G1 F300 X0.33610 Y22.92801
G1 F300 X0.39683 Y23.01889
G1 F300 X0.45281 Y23.06484
G1 F300 X0.55644 Y23.10497
G1 F300 X2.48499 Y25.03347
G1 F300 X2.48527 Y31.36432
G1 F300 X2.51110 Y31.48240
G1 F300 X2.57181 Y31.57328
G1 F300 X3.06236 Y32.06424
G1 F300 X3.15761 Y32.12891
G1 F300 X3.28158 Y32.15502
G1 F300 X8.54746 Y32.14763
G1 F300 X8.64845 Y32.10579
G1 F300 X8.70050 Y32.06421
G1 F300 X9.41416 Y31.35052
G1 F300 X9.52104 Y31.42891
G1 F300 X9.62048 Y31.45380
G1 F300 X10.17682 Y31.45337
G1 F300 X10.26895 Y31.42891
G1 F300 X10.35983 Y31.36818
G1 F300 X10.42887 Y31.26897
G1 F300 X10.45330 Y31.17689
G1 F300 X10.45493 Y30.25045
G1 F300 X10.64924 Y30.05617
G1 F300 X10.78149 Y30.06777
G1 F300 X10.86707 Y30.05553
G1 F300 X12.96495 Y32.15344
G1 F300 X13.06020 Y32.21811
G1 F300 X13.17829 Y32.24394
G1 F300 X33.41043 Y32.23914
G1 F300 X33.47975 Y32.21811
G1 F300 X33.57500 Y32.15344
G1 F300 X34.22496 Y31.50346
G1 F300 X34.34832 Y31.55802
G1 F300 X34.53844 Y31.59876
G1 F300 X34.75155 Y31.59876
G1 F300 X34.94164 Y31.55802
G1 F300 X35.11939 Y31.47925
G1 F300 X35.29178 Y31.35398
G1 F300 X35.42165 Y31.20927
G1 F300 X35.51914 Y31.04108
G1 F300 X35.58500 Y30.83841
G1 F300 X35.60466 Y30.65129
G1 F300 X35.58500 Y30.45162
G1 F300 X35.50461 Y30.22381
G1 F300 X38.51418 Y27.21424
G1 F300 X38.57885 Y27.11899
G1 F300 X38.60496 Y26.99501
G1 F300 X38.59988 Y7.99037
G1 F300 X38.57885 Y7.92106
G1 F300 X38.51418 Y7.82581
G1 F300 X35.50461 Y4.81624
G1 F300 X35.58238 Y4.60067
G1 F300 X35.60466 Y4.40128
G1 F300 X35.58500 Y4.20163
G1 F300 X35.52198 Y4.00455
G1 F300 X35.42165 Y3.83074
G1 F300 X35.29178 Y3.68604
G1 F300 X35.12498 Y3.56364
G1 F300 X34.94751 Y3.48426
G1 F300 X34.73905 Y3.43994
G1 F300 X34.53844 Y3.44126
G1 F300 X34.34832 Y3.48200
G1 F300 X34.16499 Y3.56364
G1 F300 X34.00751 Y3.67763
G1 F300 X33.86834 Y3.83074
G1 F300 X33.76572 Y4.01040
G1 F300 X33.70758 Y4.18934
G1 F300 X33.68531 Y4.38873
G1 F300 X33.70758 Y4.60067
G1 F300 X33.76799 Y4.78548
G1 F300 X33.86491 Y4.95403
G1 F300 X34.00751 Y5.11238
G1 F300 X34.16499 Y5.22640
G1 F300 X34.35439 Y5.30966
G1 F300 X34.55091 Y5.35009
G1 F300 X34.73905 Y5.35009
G1 F300 X34.94164 Y5.30803
G1 F300 X35.06501 Y5.25347
G1 F300 X37.98497 Y8.17343
G1 F300 X37.98497 Y26.86661
G1 F300 X35.06504 Y29.78657
G1 F300 X34.94164 Y29.73201
G1 F300 X34.75155 Y29.69124
G1 F300 X34.53844 Y29.69124
G1 F300 X34.34832 Y29.73201
G1 F300 X34.17058 Y29.81078
G1 F300 X33.99819 Y29.93602
G1 F300 X33.86834 Y30.08073
G1 F300 X33.77083 Y30.24895
G1 F300 X33.70499 Y30.45162
G1 F300 X33.68531 Y30.63874
G1 F300 X33.70499 Y30.83841
G1 F300 X33.78536 Y31.06625
G1 F300 X33.22737 Y31.62423
G1 F300 X13.31258 Y31.62423
G1 F300 X11.30547 Y29.61713
G1 F300 X11.31771 Y29.53783
G1 F300 X11.31027 Y29.41479
G1 F300 X11.28126 Y29.30783
G1 F300 X11.22444 Y29.19846
G1 F300 X11.15444 Y29.11256
G1 F300 X10.45498 Y28.41307
G1 F300 X10.45378 Y26.12049
G1 F300 X10.43966 Y26.04947
G1 F300 X10.38066 Y25.94398
G1 F300 X10.29618 Y25.87464
G1 F300 X10.20496 Y25.84325
G1 F300 X10.20496 Y23.05501
G1 F300 X10.50087 Y23.05473
G1 F300 X10.61497 Y23.03083
G1 F300 X10.69165 Y22.98465
G1 F300 X10.75274 Y22.91724
G1 F300 X10.80379 Y22.76959
G1 F300 X10.80496 Y21.84508
G1 F300 X10.79206 Y21.75644
G1 F300 X10.73814 Y21.65308
G1 F300 X10.68693 Y21.60188
G1 F300 X10.56397 Y21.54333
G1 F300 X10.47994 Y21.53502
G1 F300 X10.47994 Y21.05502
G1 F300 X10.60806 Y21.03340
G1 F300 X10.70984 Y20.96817
G1 F300 X10.75708 Y20.90955
G1 F300 X10.80379 Y20.76960
G1 F300 X10.80496 Y19.84509
G1 F300 X10.79206 Y19.75644
G1 F300 X10.73814 Y19.65309
G1 F300 X10.64616 Y19.57465
G1 F300 X10.57926 Y19.54694
G1 F300 X10.45498 Y19.53559
G1 F300 X10.45498 Y18.85502
G1 F300 X10.65670 Y18.85385
G1 F300 X10.68741 Y18.83744
G1 F300 X10.70385 Y18.80671
G1 F300 X10.70499 Y17.79500
G1 F300 X10.68741 Y17.75258
G1 F300 X10.64499 Y17.73501
G1 F300 X9.64500 Y17.73501
G1 F300 X9.61162 Y17.74512
G1 F300 X9.58612 Y17.78332
G1 F300 X9.58612 Y18.80671
G1 F300 X9.60255 Y18.83744
G1 F300 X9.63326 Y18.85385
G1 F300 X9.83499 Y18.85502
G1 F300 X9.83499 Y19.53785
G1 F300 X9.73189 Y19.55662
G1 F300 X9.63014 Y19.62185
G1 F300 X9.58419 Y19.67783
G1 F300 X9.54235 Y19.77882
G1 F300 X9.53524 Y20.75090
G1 F300 X9.56110 Y20.86896
G1 F300 X9.64832 Y20.98466
G1 F300 X9.73189 Y21.03340
G1 F300 X9.85998 Y21.05502
G1 F300 X9.85998 Y21.53574
G1 F300 X9.71845 Y21.56258
G1 F300 X9.64395 Y21.60935
G1 F300 X9.57461 Y21.69383
G1 F300 X9.53618 Y21.82029
G1 F300 X9.53522 Y22.08504
G1 F300 X9.05467 Y22.08504
G1 F300 X9.05264 Y21.90881
G1 F300 X9.01536 Y21.79383
G1 F300 X8.91721 Y21.68725
G1 F300 X8.76958 Y21.63622
G1 F300 X8.09509 Y21.63502
G1 F300 X8.00499 Y21.64836
G1 F300 X7.91802 Y21.69075
G1 F300 X7.84073 Y21.76804
G1 F300 X7.79834 Y21.85501
G1 F300 X7.78564 Y21.93622
G1 F300 X7.78732 Y22.88122
G1 F300 X7.83723 Y23.01724
G1 F300 X7.94381 Y23.11539
G1 F300 X8.09496 Y23.15501
G1 F300 X8.74500 Y23.15501
G1 F300 X8.85808 Y23.13340
G1 F300 X8.95983 Y23.06817
G1 F300 X9.03194 Y22.96228
G1 F300 X9.05330 Y22.87703
G1 F300 X9.05467 Y22.70502
G1 F300 X9.53499 Y22.70502
G1 F300 X9.54235 Y22.81120
G1 F300 X9.58498 Y22.91051
G1 F300 X9.58498 Y25.84116
G1 F300 X9.47779 Y25.88424
G1 F300 X9.42183 Y25.93016
G1 F300 X9.35660 Y26.03192
G1 F300 X9.33496 Y26.14502
G1 F300 X9.33496 Y30.49360
G1 F300 X9.10111 Y30.72789
G1 F300 X9.02612 Y30.86175
G1 F300 X8.35287 Y31.53503
G1 F300 X3.40998 Y31.53503
G1 F300 X3.10498 Y31.23003
G1 F300 X3.09759 Y24.83888
G1 F300 X3.05578 Y24.73789
G1 F300 X3.01415 Y24.68584
G1 F300 X0.92998 Y22.60180
G1 F300 X0.92998 Y11.27342
G1 F300 X1.29937 Y10.90406
G1 F300 X1.94491 Y10.90502
G1 F300 X2.03495 Y10.89166
G1 F300 X2.10953 Y10.85712
G1 F300 X2.20356 Y10.76601
G1 F300 X2.24161 Y10.68501
G1 F300 X2.25499 Y10.59502
G1 F300 X2.25499 Y9.69502
G1 F300 X2.24204 Y9.60645
G1 F300 X2.18814 Y9.50307
G1 F300 X2.13691 Y9.45186
G1 F300 X2.01397 Y9.39332
G1 F300 X1.92997 Y9.38501
G1 F300 X1.92997 Y8.40500
G1 F300 X2.01397 Y8.39670
G1 F300 X2.14600 Y8.33068
G1 F300 X2.22088 Y8.23581
G1 F300 X2.25433 Y8.10381
G1 F300 X2.24989 Y7.14036
G1 F300 X2.18458 Y6.99835
G1 F300 X2.11722 Y6.93726
G1 F300 X2.04321 Y6.90153
G1 F300 X1.94499 Y6.88502
G1 F300 X1.65497 Y6.88502
G1 F300 X1.65497 Y5.60501
G1 F300 X1.85667 Y5.60387
G1 F300 X1.89487 Y5.57834
G1 F300 X1.90498 Y5.54501
G1 F300 X1.90384 Y4.53331
G1 F300 X1.88740 Y4.50260
G1 F300 X1.85667 Y4.48616
G1 F300 X1.65497 Y4.48502
G1 F300 X1.65497 Y4.28563
G1 F300 X1.82418 Y4.10918
G1 F300 X1.87488 Y3.98688
G1 F300 X1.87996 Y2.80501
G1 F300 X2.00805 Y2.78340
G1 F300 X2.10983 Y2.71817
G1 F300 X2.17887 Y2.61896
G1 F300 X2.20470 Y2.50090
G1 F300 X2.20198 Y1.55592
G1 F300 X2.18138 Y1.47639
G1 F300 X2.13460 Y1.39836
G1 F300 X2.06213 Y1.33423
G1 F300 X1.94963 Y1.29011
G1 F300 X1.24499 Y1.28500
G1 F300 X1.15642 Y1.29796
G1 F300 X1.05306 Y1.35188
G1 F300 X0.99266 Y1.41584
G1 F300 X0.93734 Y1.55881
G1 F300 X0.93620 Y2.51952
G1 F300 X0.94689 Y2.57928
G1 F300 X0.98644 Y2.66600
G1 F300 X1.06803 Y2.74926
G1 F300 X1.17879 Y2.79762
G1 F300 X1.25995 Y2.80501
G1 F300 X1.25995 Y3.80382
G1 F300 X1.12182 Y3.94238
G1 F300 X1.05660 Y4.04413
G1 F300 X1.03526 Y4.15134
G1 F300 X1.03498 Y4.48502
G1 F300 X0.83328 Y4.48616
G1 F300 X0.80257 Y4.50260
G1 F300 X0.78614 Y4.53331
G1 F300 X0.78499 Y5.54501
G1 F300 X0.79510 Y5.57834
G1 F300 X0.83328 Y5.60387
G1 F300 X1.03498 Y5.60501
G1 F300 X1.03498 Y7.02781
G1 F300 X0.99792 Y7.10643
G1 F300 X0.98499 Y7.19510
G1 F300 X0.98619 Y8.11961
G1 F300 X1.03287 Y8.25956
G1 F300 X1.08014 Y8.31816
G1 F300 X1.18187 Y8.38339
G1 F300 X1.30999 Y8.40500
G1 F300 X1.30999 Y9.38572
G1 F300 X1.18471 Y9.40584
G1 F300 X1.09947 Y9.45445
G1 F300 X1.05185 Y9.50307
G1 F300 X0.99792 Y9.60645
G1 F300 X0.98499 Y9.69502
G1 F300 X0.98499 Y10.34160
G1 F300 X0.39683 Y10.93017
G1 F300 X0.33160 Y11.03192
G1 F300 X0.30999 Y11.14500
;G04 P0 ; dwell for no time -- G64 should not smooth over this point 
G1 F3000 Z3.00000 ; retract 

G1 F3000 X3.03498 Y10.59494 ; rapid move to begin. 
G1 F300 F300.00000
G1 F300 Z-0.07000
;G04 P0 ; dwell for no time -- G64 should not smooth over this point 
G1 F300 F600.00000
G1 F300 X3.03498 Y10.59494
G1 F300 X3.03734 Y9.65880
G1 F300 X3.05151 Y9.59680
G1 F300 X3.12182 Y9.48016
G1 F300 X3.17396 Y9.43645
G1 F300 X3.26360 Y9.39642
G1 F300 X3.34498 Y9.38501
G1 F300 X3.99497 Y9.38501
G1 F300 X4.13579 Y9.41910
G1 F300 X4.23063 Y9.49398
G1 F300 X4.29205 Y9.60645
G1 F300 X4.30498 Y9.93540
G1 F300 X10.03864 Y9.93540
G1 F300 X10.76613 Y9.20790
G1 F300 X10.84111 Y9.15677
G1 F300 X10.89869 Y9.13932
G1 F300 X14.61064 Y9.13541
G1 F300 X15.15967 Y8.58641
G1 F300 X15.16358 Y8.30256
G1 F300 X15.18103 Y8.24498
G1 F300 X15.23653 Y8.16606
G1 F300 X15.30714 Y8.11887
G1 F300 X15.36472 Y8.10142
G1 F300 X15.73500 Y8.09751
G1 F300 X15.73498 Y7.69502
G1 F300 X15.76165 Y7.64514
G1 F300 X16.39499 Y7.63500
G1 F300 X16.43741 Y7.65258
G1 F300 X16.45385 Y7.68331
G1 F300 X16.45499 Y8.99502
G1 F300 X16.43741 Y9.03744
G1 F300 X16.39499 Y9.05501
G1 F300 X15.76165 Y9.04490
G1 F300 X15.73498 Y8.99502
G1 F300 X15.73498 Y8.59253
G1 F300 X15.65469 Y8.59253
G1 F300 X15.64849 Y8.74292
G1 F300 X15.58613 Y8.85959
G1 F300 X14.88817 Y9.55793
G1 F300 X14.76716 Y9.62423
G1 F300 X11.04367 Y9.63043
G1 F300 X10.31182 Y10.36187
G1 F300 X10.24121 Y10.40906
G1 F300 X10.14705 Y10.43012
G1 F300 X4.30470 Y10.43042
G1 F300 X4.30332 Y10.62699
G1 F300 X4.25192 Y10.76845
G1 F300 X4.13579 Y10.87094
G1 F300 X3.99489 Y10.90502
G1 F300 X3.32034 Y10.90380
G1 F300 X3.25359 Y10.89123
G1 F300 X3.16800 Y10.84927
G1 F300 X3.09070 Y10.77198
G1 F300 X3.04834 Y10.68501
G1 F300 X3.03498 Y10.59494
;G04 P0 ; dwell for no time -- G64 should not smooth over this point 
G1 F3000 Z3.00000 ; retract 

G1 F3000 X3.03498 Y7.19510 ; rapid move to begin. 
G1 F300 F300.00000
G1 F300 Z-0.07000
;G04 P0 ; dwell for no time -- G64 should not smooth over this point 
G1 F300 F600.00000
G1 F300 X3.03498 Y7.19510
G1 F300 X3.03663 Y8.12690
G1 F300 X3.05857 Y8.21364
G1 F300 X3.11143 Y8.29807
G1 F300 X3.22103 Y8.37889
G1 F300 X3.34506 Y8.40500
G1 F300 X4.01961 Y8.40381
G1 F300 X4.09052 Y8.38969
G1 F300 X4.18692 Y8.33815
G1 F300 X4.27089 Y8.23581
G1 F300 X4.30434 Y8.10381
G1 F300 X4.30498 Y7.19502
G1 F300 X4.29873 Y7.13310
G1 F300 X4.26365 Y7.04143
G1 F300 X4.20752 Y6.97006
G1 F300 X4.09245 Y6.90114
G1 F300 X4.09245 Y5.60501
G1 F300 X4.34498 Y5.60501
G1 F300 X4.38742 Y5.58743
G1 F300 X4.40498 Y5.54501
G1 F300 X4.40498 Y5.29254
G1 F300 X4.77521 Y5.28863
G1 F300 X4.83279 Y5.27118
G1 F300 X4.90340 Y5.22398
G1 F300 X6.98531 Y3.14253
G1 F300 X7.48498 Y3.14253
G1 F300 X7.48498 Y3.34502
G1 F300 X7.50149 Y3.44324
G1 F300 X7.58015 Y3.56818
G1 F300 X7.70499 Y3.64166
G1 F300 X7.79499 Y3.65502
G1 F300 X8.44500 Y3.65502
G1 F300 X8.53494 Y3.64166
G1 F300 X8.61597 Y3.60356
G1 F300 X8.70354 Y3.51601
G1 F300 X8.75264 Y3.38121
G1 F300 X8.75493 Y2.61007
G1 F300 X9.31429 Y2.05074
G1 F300 X10.74365 Y2.05074
G1 F300 X12.16295 Y3.47004
G1 F300 X12.23793 Y3.52117
G1 F300 X12.33795 Y3.54253
G1 F300 X14.14466 Y3.54253
G1 F300 X14.19350 Y3.62620
G1 F300 X14.27346 Y3.71367
G1 F300 X14.36228 Y3.77811
G1 F300 X14.45913 Y3.82320
G1 F300 X14.62037 Y3.85441
G1 F300 X15.10493 Y3.85497
G1 F300 X15.81996 Y4.57003
G1 F300 X15.89495 Y4.62116
G1 F300 X15.95253 Y4.63861
G1 F300 X21.02120 Y4.64253
G1 F300 X21.06799 Y4.78548
G1 F300 X21.16834 Y4.95929
G1 F300 X21.29819 Y5.10399
G1 F300 X21.45973 Y5.22297
G1 F300 X21.65439 Y5.30966
G1 F300 X21.85091 Y5.35009
G1 F300 X22.03905 Y5.35009
G1 F300 X22.24164 Y5.30803
G1 F300 X22.42498 Y5.22640
G1 F300 X22.59178 Y5.10399
G1 F300 X22.72165 Y4.95929
G1 F300 X22.82198 Y4.78548
G1 F300 X22.88238 Y4.60067
G1 F300 X22.90466 Y4.40128
G1 F300 X22.88500 Y4.20163
G1 F300 X22.81914 Y3.99894
G1 F300 X22.72165 Y3.83074
G1 F300 X22.58246 Y3.67763
G1 F300 X22.42498 Y3.56364
G1 F300 X22.24751 Y3.48426
G1 F300 X22.03905 Y3.43994
G1 F300 X21.85091 Y3.43994
G1 F300 X21.65439 Y3.48037
G1 F300 X21.45973 Y3.56704
G1 F300 X21.29819 Y3.68604
G1 F300 X21.16834 Y3.83074
G1 F300 X21.06799 Y4.00455
G1 F300 X21.02117 Y4.14751
G1 F300 X16.09751 Y4.14751
G1 F300 X15.58743 Y3.63742
G1 F300 X15.65347 Y3.52902
G1 F300 X15.69942 Y3.37278
G1 F300 X15.70498 Y2.79501
G1 F300 X15.69487 Y2.76168
G1 F300 X15.66795 Y2.73958
G1 F300 X14.13328 Y2.73615
G1 F300 X14.10257 Y2.75259
G1 F300 X14.08613 Y2.78330
G1 F300 X14.08499 Y3.04753
G1 F300 X12.44049 Y3.04751
G1 F300 X11.02119 Y1.62821
G1 F300 X10.94621 Y1.57708
G1 F300 X10.84619 Y1.55571
G1 F300 X9.16933 Y1.55963
G1 F300 X9.11172 Y1.57708
G1 F300 X9.03677 Y1.62821
G1 F300 X8.51993 Y2.14502
G1 F300 X7.79499 Y2.13501
G1 F300 X7.70499 Y2.14837
G1 F300 X7.62399 Y2.18645
G1 F300 X7.54073 Y2.26806
G1 F300 X7.49237 Y2.37883
G1 F300 X7.48498 Y2.64751
G1 F300 X6.87690 Y2.64781
G1 F300 X6.79359 Y2.66437
G1 F300 X6.74053 Y2.69275
G1 F300 X4.63022 Y4.79752
G1 F300 X4.40498 Y4.79752
G1 F300 X4.40383 Y4.53331
G1 F300 X4.38742 Y4.50260
G1 F300 X4.35669 Y4.48616
G1 F300 X3.34498 Y4.48502
G1 F300 X3.30256 Y4.50260
G1 F300 X3.28499 Y4.54502
G1 F300 X3.28611 Y5.55672
G1 F300 X3.30256 Y5.58743
G1 F300 X3.33325 Y5.60387
G1 F300 X3.59746 Y5.60501
G1 F300 X3.59746 Y6.88502
G1 F300 X3.29032 Y6.89010
G1 F300 X3.17780 Y6.93424
G1 F300 X3.07463 Y7.04382
G1 F300 X3.03498 Y7.19510
;G04 P0 ; dwell for no time -- G64 should not smooth over this point 
G1 F3000 Z3.00000 ; retract 

G1 F3000 X0.35997 Y1.15932 ; rapid move to begin. 
G1 F300 F300.00000
G1 F300 Z-0.07000
;G04 P0 ; dwell for no time -- G64 should not smooth over this point 
G1 F300 F600.00000
G1 F300 X0.35997 Y1.15932
G1 F300 X0.37717 Y0.99514
G1 F300 X0.42088 Y0.84886
G1 F300 X0.48908 Y0.71818
G1 F300 X0.60277 Y0.58074
G1 F300 X0.71837 Y0.48927
G1 F300 X0.85385 Y0.41889
G1 F300 X1.00044 Y0.37619
G1 F300 X1.16465 Y0.36001
G1 F300 X38.38068 Y0.36001
G1 F300 X38.57110 Y0.38282
G1 F300 X38.71489 Y0.43103
G1 F300 X38.82693 Y0.49290
G1 F300 X38.96348 Y0.60763
G1 F300 X39.05073 Y0.71843
G1 F300 X39.11118 Y0.83009
G1 F300 X39.16091 Y0.98607
G1 F300 X39.17999 Y1.16468
G1 F300 X39.17999 Y31.38070
G1 F300 X39.15751 Y31.57018
G1 F300 X39.11905 Y31.69121
G1 F300 X39.04710 Y31.82700
G1 F300 X38.93236 Y31.96353
G1 F300 X38.82157 Y32.05078
G1 F300 X38.70991 Y32.11123
G1 F300 X38.55393 Y32.16096
G1 F300 X38.37534 Y32.18004
G1 F300 X34.18371 Y32.18004
G1 F300 X34.11213 Y32.16579
G1 F300 X34.05361 Y32.12728
G1 F300 X34.00029 Y32.02952
G1 F300 X34.00029 Y31.95654
G1 F300 X34.02801 Y31.88946
G1 F300 X34.16580 Y31.74648
G1 F300 X34.22701 Y31.70539
G1 F300 X34.30446 Y31.69144
G1 F300 X34.53763 Y31.73503
G1 F300 X34.75231 Y31.73503
G1 F300 X34.96290 Y31.69312
G1 F300 X35.16130 Y31.61098
G1 F300 X35.33979 Y31.49170
G1 F300 X35.49163 Y31.33986
G1 F300 X35.61091 Y31.16135
G1 F300 X35.69308 Y30.96297
G1 F300 X35.73496 Y30.75241
G1 F300 X35.73496 Y30.53734
G1 F300 X35.69107 Y30.29833
G1 F300 X35.72429 Y30.19231
G1 F300 X38.60572 Y27.30997
G1 F300 X38.70346 Y27.16422
G1 F300 X38.73739 Y26.99209
G1 F300 X38.72861 Y7.95880
G1 F300 X38.66262 Y7.79942
G1 F300 X38.60575 Y7.73010
G1 F300 X35.72429 Y4.84771
G1 F300 X35.69107 Y4.74171
G1 F300 X35.73496 Y4.50270
G1 F300 X35.73496 Y4.28766
G1 F300 X35.69308 Y4.07710
G1 F300 X35.61091 Y3.87872
G1 F300 X35.49163 Y3.70021
G1 F300 X35.33976 Y3.54834
G1 F300 X35.16128 Y3.42909
G1 F300 X34.96288 Y3.34692
G1 F300 X34.75234 Y3.30504
G1 F300 X34.53761 Y3.30504
G1 F300 X34.32706 Y3.34692
G1 F300 X34.12867 Y3.42909
G1 F300 X33.95015 Y3.54837
G1 F300 X33.79831 Y3.70021
G1 F300 X33.67903 Y3.87870
G1 F300 X33.59687 Y4.07707
G1 F300 X33.55498 Y4.28766
G1 F300 X33.55498 Y4.50239
G1 F300 X33.59687 Y4.71299
G1 F300 X33.67903 Y4.91136
G1 F300 X33.79831 Y5.08985
G1 F300 X33.95015 Y5.24169
G1 F300 X34.12867 Y5.36097
G1 F300 X34.32706 Y5.44313
G1 F300 X34.53763 Y5.48502
G1 F300 X34.75259 Y5.48502
G1 F300 X34.99171 Y5.44113
G1 F300 X35.09768 Y5.47433
G1 F300 X37.80016 Y8.17249
G1 F300 X37.85187 Y8.27114
G1 F300 X37.85497 Y26.73529
G1 F300 X37.84072 Y26.80687
G1 F300 X37.80016 Y26.86755
G1 F300 X35.09526 Y29.56739
G1 F300 X34.98876 Y29.59884
G1 F300 X34.75262 Y29.55502
G1 F300 X34.53763 Y29.55502
G1 F300 X34.32704 Y29.59691
G1 F300 X34.12867 Y29.67905
G1 F300 X33.95015 Y29.79836
G1 F300 X33.79834 Y29.95017
G1 F300 X33.67903 Y30.12871
G1 F300 X33.59687 Y30.32711
G1 F300 X33.55498 Y30.53765
G1 F300 X33.55498 Y30.75238
G1 F300 X33.59643 Y30.96665
G1 F300 X33.58343 Y31.06569
G1 F300 X33.54408 Y31.12365
G1 F300 X33.22829 Y31.43945
G1 F300 X33.16763 Y31.47999
G1 F300 X33.09608 Y31.49424
G1 F300 X23.03836 Y31.49424
G1 F300 X22.93448 Y31.46272
G1 F300 X22.86811 Y31.38415
G1 F300 X22.85165 Y31.30140
G1 F300 X22.87730 Y31.21377
G1 F300 X22.99308 Y30.96295
G1 F300 X23.03496 Y30.75241
G1 F300 X23.03496 Y30.53765
G1 F300 X22.97253 Y30.26729
G1 F300 X22.97278 Y30.19564
G1 F300 X23.00420 Y30.12353
G1 F300 X23.26145 Y29.86536
G1 F300 X23.34543 Y29.74019
G1 F300 X23.37458 Y29.59208
G1 F300 X23.37563 Y29.23331
G1 F300 X23.40021 Y29.16950
G1 F300 X23.44611 Y29.11880
G1 F300 X23.62747 Y29.05614
G1 F300 X23.80415 Y29.08685
G1 F300 X24.28639 Y29.08685
G1 F300 X24.46854 Y29.06341
G1 F300 X24.59556 Y29.01675
G1 F300 X24.75429 Y28.91068
G1 F300 X24.89033 Y28.74494
G1 F300 X24.97712 Y28.55955
G1 F300 X25.05642 Y28.49701
G1 F300 X25.12818 Y28.48251
G1 F300 X25.87659 Y28.48251
G1 F300 X25.94811 Y28.49676
G1 F300 X26.00666 Y28.53524
G1 F300 X26.17831 Y28.79988
G1 F300 X26.33013 Y28.95170
G1 F300 X26.50864 Y29.07098
G1 F300 X26.70701 Y29.15312
G1 F300 X26.91763 Y29.19503
G1 F300 X27.13234 Y29.19503
G1 F300 X27.34293 Y29.15312
G1 F300 X27.54130 Y29.07098
G1 F300 X27.71981 Y28.95170
G1 F300 X27.87163 Y28.79988
G1 F300 X27.99091 Y28.62132
G1 F300 X28.07308 Y28.42295
G1 F300 X28.11496 Y28.21238
G1 F300 X28.11496 Y27.99767
G1 F300 X28.07308 Y27.78708
G1 F300 X27.99093 Y27.58876
G1 F300 X27.87163 Y27.41020
G1 F300 X27.71981 Y27.25836
G1 F300 X27.54128 Y27.13908
G1 F300 X27.34288 Y27.05691
G1 F300 X27.13231 Y27.01502
G1 F300 X26.91763 Y27.01502
G1 F300 X26.70706 Y27.05691
G1 F300 X26.50867 Y27.13908
G1 F300 X26.33013 Y27.25836
G1 F300 X26.17831 Y27.41020
G1 F300 X26.03130 Y27.64553
G1 F300 X25.98954 Y27.68858
G1 F300 X25.87659 Y27.72754
G1 F300 X25.09678 Y27.72754
G1 F300 X25.02520 Y27.71330
G1 F300 X24.94479 Y27.64916
G1 F300 X24.84611 Y27.47893
G1 F300 X24.75426 Y27.37934
G1 F300 X24.64489 Y27.29968
G1 F300 X24.42307 Y27.18973
G1 F300 X21.45178 Y24.21500
G1 F300 X21.41642 Y24.13852
G1 F300 X21.41642 Y24.06555
G1 F300 X21.44276 Y24.00063
G1 F300 X21.52828 Y23.92925
G1 F300 X21.59920 Y23.91503
G1 F300 X21.71805 Y23.93502
G1 F300 X22.07129 Y23.93502
G1 F300 X22.41711 Y23.86624
G1 F300 X22.74289 Y23.73129
G1 F300 X23.03603 Y23.53540
G1 F300 X23.28535 Y23.28610
G1 F300 X23.48126 Y22.99291
G1 F300 X23.61619 Y22.66715
G1 F300 X23.68497 Y22.32131
G1 F300 X23.68497 Y21.96873
G1 F300 X23.61619 Y21.62291
G1 F300 X23.48124 Y21.29715
G1 F300 X23.28535 Y21.00396
G1 F300 X23.03605 Y20.75464
G1 F300 X22.74286 Y20.55875
G1 F300 X22.41711 Y20.42383
G1 F300 X22.07129 Y20.35504
G1 F300 X21.71866 Y20.35504
G1 F300 X21.37286 Y20.42383
G1 F300 X21.04711 Y20.55875
G1 F300 X20.75391 Y20.75464
G1 F300 X20.50461 Y21.00396
G1 F300 X20.30870 Y21.29715
G1 F300 X20.17378 Y21.62291
G1 F300 X20.10497 Y21.96870
G1 F300 X20.11795 Y22.48793
G1 F300 X20.08597 Y22.55316
G1 F300 X20.01485 Y22.61044
G1 F300 X19.93796 Y22.62720
G1 F300 X19.85602 Y22.60741
G1 F300 X19.80568 Y22.57239
G1 F300 X17.53078 Y20.30485
G1 F300 X17.49692 Y20.24183
G1 F300 X17.48923 Y20.17023
G1 F300 X17.53680 Y19.93584
G1 F300 X17.53680 Y19.30422
G1 F300 X17.50233 Y19.12627
G1 F300 X17.40675 Y18.98326
G1 F300 X17.33993 Y18.92840
G1 F300 X17.18102 Y18.86256
G1 F300 X16.48948 Y18.85322
G1 F300 X16.41791 Y18.83897
G1 F300 X16.35723 Y18.79843
G1 F300 X15.89032 Y18.32551
G1 F300 X15.86281 Y18.24895
G1 F300 X15.86038 Y16.47557
G1 F300 X15.87356 Y16.40666
G1 F300 X15.93439 Y16.32747
G1 F300 X16.01090 Y16.29208
G1 F300 X16.08387 Y16.29208
G1 F300 X16.15601 Y16.32350
G1 F300 X17.76659 Y17.93503
G1 F300 X17.87198 Y18.02152
G1 F300 X17.99187 Y18.08560
G1 F300 X18.12192 Y18.12505
G1 F300 X18.25760 Y18.13838
G1 F300 X28.43223 Y18.13229
G1 F300 X28.52997 Y18.08004
G1 F300 X28.58222 Y17.98230
G1 F300 X28.58702 Y16.85312
G1 F300 X28.71869 Y16.64248
G1 F300 X28.77937 Y16.50585
G1 F300 X28.76726 Y16.48904
G1 F300 X28.35715 Y16.48904
G1 F300 X28.27414 Y16.58672
G1 F300 X28.17498 Y16.65998
G1 F300 X28.06805 Y16.70760
G1 F300 X27.94725 Y16.73227
G1 F300 X27.83025 Y16.73097
G1 F300 X27.72195 Y16.70760
G1 F300 X27.62058 Y16.66285
G1 F300 X27.51583 Y16.58672
G1 F300 X27.43282 Y16.48904
G1 F300 X27.02269 Y16.48904
G1 F300 X27.00927 Y16.50763
G1 F300 X27.02053 Y16.56719
G1 F300 X27.01067 Y16.62546
G1 F300 X26.98867 Y16.67237
G1 F300 X26.92817 Y16.72838
G1 F300 X26.83356 Y16.75502
G1 F300 X18.58394 Y16.75142
G1 F300 X18.48813 Y16.70019
G1 F300 X17.39009 Y15.59777
G1 F300 X17.35730 Y15.49978
G1 F300 X17.38679 Y15.33582
G1 F300 X17.38679 Y14.75422
G1 F300 X17.37137 Y14.67197
G1 F300 X17.32999 Y14.61004
G1 F300 X17.23218 Y14.55777
G1 F300 X17.03723 Y14.54225
G1 F300 X16.81031 Y14.40446
G1 F300 X16.68024 Y14.36501
G1 F300 X16.54498 Y14.35168
G1 F300 X16.40973 Y14.36501
G1 F300 X16.27996 Y14.40438
G1 F300 X16.12860 Y14.48708
G1 F300 X16.06695 Y14.50463
G1 F300 X15.97955 Y14.49290
G1 F300 X15.89858 Y14.43176
G1 F300 X15.86071 Y14.32503
G1 F300 X15.86248 Y13.59453
G1 F300 X15.83332 Y13.44645
G1 F300 X15.74920 Y13.32110
G1 F300 X15.47181 Y13.05442
G1 F300 X15.33510 Y12.99778
G1 F300 X15.25814 Y12.99021
G1 F300 X12.63397 Y12.99778
G1 F300 X12.49724 Y13.05442
G1 F300 X12.12175 Y13.42219
G1 F300 X12.06089 Y13.46290
G1 F300 X11.99226 Y13.47708
G1 F300 X11.91349 Y13.45904
G1 F300 X11.55497 Y13.45904
G1 F300 X11.55383 Y13.60672
G1 F300 X11.51794 Y13.65043
G1 F300 X10.98500 Y13.65500
G1 F300 X10.60446 Y14.03557
G1 F300 X10.72968 Y14.04510
G1 F300 X10.84482 Y13.93159
G1 F300 X10.89640 Y13.89851
G1 F300 X10.95627 Y13.88543
G1 F300 X11.06148 Y13.91025
G1 F300 X11.12503 Y13.96986
G1 F300 X11.15363 Y14.07479
G1 F300 X11.22221 Y14.15846
G1 F300 X11.23222 Y14.26938
G1 F300 X11.18563 Y14.35790
G1 F300 X10.92716 Y14.60872
G1 F300 X10.85404 Y14.63415
G1 F300 X10.77692 Y14.62775
G1 F300 X10.61802 Y14.51863
G1 F300 X10.53577 Y14.50321
G1 F300 X9.75414 Y14.50321
G1 F300 X9.67189 Y14.51863
G1 F300 X9.60997 Y14.56003
G1 F300 X9.56859 Y14.62201
G1 F300 X9.55312 Y14.70423
G1 F300 X9.55312 Y15.58581
G1 F300 X9.58622 Y15.70108
G1 F300 X9.67189 Y15.77141
G1 F300 X9.75414 Y15.78685
G1 F300 X10.53577 Y15.78685
G1 F300 X10.65104 Y15.75376
G1 F300 X10.70374 Y15.70108
G1 F300 X10.76138 Y15.58883
G1 F300 X10.81576 Y15.54476
G1 F300 X11.07794 Y15.49549
G1 F300 X11.20329 Y15.41139
G1 F300 X12.80953 Y13.80212
G1 F300 X12.87024 Y13.76156
G1 F300 X12.94181 Y13.74731
G1 F300 X13.41616 Y13.74731
G1 F300 X13.48771 Y13.76156
G1 F300 X13.54837 Y13.80210
G1 F300 X13.58890 Y13.86275
G1 F300 X13.60315 Y13.93430
G1 F300 X13.60315 Y14.33242
G1 F300 X13.59160 Y14.39717
G1 F300 X13.55878 Y14.45335
G1 F300 X11.51426 Y16.48680
G1 F300 X11.41027 Y16.51832
G1 F300 X9.97413 Y16.51621
G1 F300 X9.89714 Y16.52378
G1 F300 X9.76041 Y16.58042
G1 F300 X6.10360 Y20.22652
G1 F300 X6.05453 Y20.28628
G1 F300 X5.99791 Y20.42301
G1 F300 X5.99248 Y21.36357
G1 F300 X5.98122 Y21.42748
G1 F300 X5.92123 Y21.51056
G1 F300 X5.73319 Y21.63327
G1 F300 X5.67833 Y21.70007
G1 F300 X5.61249 Y21.85895
G1 F300 X5.61249 Y22.93108
G1 F300 X5.67833 Y23.08999
G1 F300 X5.73319 Y23.15679
G1 F300 X5.80002 Y23.21165
G1 F300 X5.95895 Y23.27746
G1 F300 X6.78099 Y23.27746
G1 F300 X6.86370 Y23.25239
G1 F300 X7.00677 Y23.15679
G1 F300 X7.06156 Y23.09001
G1 F300 X7.12740 Y22.93103
G1 F300 X7.13680 Y21.95425
G1 F300 X7.12740 Y21.85900
G1 F300 X7.06161 Y21.70007
G1 F300 X6.93964 Y21.57818
G1 F300 X6.81871 Y21.51056
G1 F300 X6.75872 Y21.42748
G1 F300 X6.74747 Y21.36370
G1 F300 X6.74747 Y20.73084
G1 F300 X6.76725 Y20.64892
G1 F300 X6.80225 Y20.59863
G1 F300 X9.13390 Y18.26696
G1 F300 X9.19455 Y18.22642
G1 F300 X9.27781 Y18.21334
G1 F300 X9.34804 Y18.23196
G1 F300 X9.39836 Y18.26696
G1 F300 X9.43336 Y18.31725
G1 F300 X9.45312 Y18.39919
G1 F300 X9.45772 Y18.83224
G1 F300 X9.50997 Y18.93003
G1 F300 X9.63230 Y19.00249
G1 F300 X9.67763 Y19.05314
G1 F300 X9.70260 Y19.12195
G1 F300 X9.70499 Y19.31021
G1 F300 X9.69300 Y19.37608
G1 F300 X9.65853 Y19.43358
G1 F300 X9.53278 Y19.53373
G1 F300 X9.47837 Y19.60005
G1 F300 X9.41253 Y19.75898
G1 F300 X9.40316 Y20.73584
G1 F300 X9.41253 Y20.83106
G1 F300 X9.47832 Y20.98999
G1 F300 X9.53313 Y21.05679
G1 F300 X9.66702 Y21.15413
G1 F300 X9.71586 Y21.22235
G1 F300 X9.72978 Y21.29781
G1 F300 X9.70339 Y21.39299
G1 F300 X9.66001 Y21.44270
G1 F300 X9.53313 Y21.53327
G1 F300 X9.38777 Y21.74026
G1 F300 X9.31922 Y21.77617
G1 F300 X9.22938 Y21.77859
G1 F300 X9.16361 Y21.75052
G1 F300 X8.98993 Y21.57841
G1 F300 X8.83095 Y21.51257
G1 F300 X8.10418 Y21.50320
G1 F300 X8.00893 Y21.51257
G1 F300 X7.85003 Y21.57841
G1 F300 X7.72834 Y21.70007
G1 F300 X7.66250 Y21.85900
G1 F300 X7.66250 Y22.93103
G1 F300 X7.72836 Y23.08999
G1 F300 X7.85000 Y23.21163
G1 F300 X8.00891 Y23.27746
G1 F300 X8.10418 Y23.28684
G1 F300 X8.73580 Y23.28684
G1 F300 X8.83100 Y23.27746
G1 F300 X8.98993 Y23.21165
G1 F300 X9.14855 Y23.05024
G1 F300 X9.22402 Y23.01254
G1 F300 X9.33659 Y23.02037
G1 F300 X9.39110 Y23.05361
G1 F300 X9.43679 Y23.11419
G1 F300 X9.45498 Y23.19408
G1 F300 X9.45498 Y25.64485
G1 F300 X9.44342 Y25.70957
G1 F300 X9.41629 Y25.75767
G1 F300 X9.27835 Y25.90004
G1 F300 X9.17949 Y26.12272
G1 F300 X9.11076 Y26.17672
G1 F300 X9.01147 Y26.19250
G1 F300 X8.92945 Y26.16245
G1 F300 X8.86382 Y26.08625
G1 F300 X8.84622 Y26.01287
G1 F300 X8.83649 Y25.80718
G1 F300 X8.81089 Y25.72277
G1 F300 X8.71325 Y25.57670
G1 F300 X8.56725 Y25.47911
G1 F300 X8.48279 Y25.45351
G1 F300 X8.25930 Y25.44591
G1 F300 X8.20898 Y25.49623
G1 F300 X8.20898 Y25.84195
G1 F300 X8.31216 Y25.88424
G1 F300 X8.39923 Y25.96806
G1 F300 X8.43336 Y26.03192
G1 F300 X8.45498 Y26.14502
G1 F300 X8.45333 Y31.17686
G1 F300 X8.43138 Y31.26366
G1 F300 X8.38462 Y31.34169
G1 F300 X8.31719 Y31.40277
G1 F300 X8.23497 Y31.44166
G1 F300 X8.14500 Y31.45502
G1 F300 X7.63911 Y31.45472
G1 F300 X7.50693 Y31.42197
G1 F300 X7.42684 Y31.36526
G1 F300 X7.36108 Y31.26897
G1 F300 X7.33664 Y31.17686
G1 F300 X7.33497 Y28.43509
G1 F300 X7.12199 Y28.21655
G1 F300 X7.08066 Y28.11677
G1 F300 X7.07675 Y26.17685
G1 F300 X6.94078 Y26.04088
G1 F300 X6.88986 Y26.13827
G1 F300 X6.81559 Y26.18432
G1 F300 X6.71516 Y26.18897
G1 F300 X6.63695 Y26.14998
G1 F300 X6.59166 Y26.09415
G1 F300 X6.51160 Y25.90007
G1 F300 X6.45674 Y25.83324
G1 F300 X6.38996 Y25.77845
G1 F300 X6.25407 Y25.70476
G1 F300 X6.16133 Y25.59354
G1 F300 X3.92093 Y23.35610
G1 F300 X3.86972 Y23.26035
G1 F300 X3.86972 Y23.18737
G1 F300 X3.89210 Y23.13035
G1 F300 X3.97625 Y23.05361
G1 F300 X4.05313 Y23.03685
G1 F300 X4.33099 Y23.02748
G1 F300 X4.48991 Y22.96164
G1 F300 X4.61160 Y22.83998
G1 F300 X4.67742 Y22.68107
G1 F300 X4.67742 Y21.60899
G1 F300 X4.61160 Y21.45009
G1 F300 X4.48994 Y21.32842
G1 F300 X4.34597 Y21.23939
G1 F300 X4.30018 Y21.14526
G1 F300 X4.30104 Y19.25885
G1 F300 X4.35227 Y19.16307
G1 F300 X6.41130 Y17.10702
G1 F300 X6.49540 Y16.98172
G1 F300 X6.52458 Y16.83354
G1 F300 X6.52247 Y14.62892
G1 F300 X6.53670 Y14.55729
G1 F300 X6.57726 Y14.49663
G1 F300 X7.49659 Y13.57731
G1 F300 X7.58661 Y13.52755
G1 F300 X8.46964 Y13.52562
G1 F300 X8.53301 Y13.54980
G1 F300 X8.58183 Y13.59288
G1 F300 X8.65998 Y13.73004
G1 F300 X8.75770 Y13.78228
G1 F300 X9.58576 Y13.78683
G1 F300 X9.70103 Y13.75379
G1 F300 X9.77136 Y13.66811
G1 F300 X9.78680 Y13.58587
G1 F300 X9.78223 Y12.65780
G1 F300 X9.72998 Y12.56004
G1 F300 X9.63222 Y12.50776
G1 F300 X8.80413 Y12.50322
G1 F300 X8.68886 Y12.53629
G1 F300 X8.63623 Y12.58894
G1 F300 X8.58183 Y12.69720
G1 F300 X8.53296 Y12.74025
G1 F300 X8.46964 Y12.76443
G1 F300 X7.39796 Y12.76542
G1 F300 X7.32097 Y12.77299
G1 F300 X7.18419 Y12.82963
G1 F300 X5.82956 Y14.18426
G1 F300 X5.77292 Y14.32102
G1 F300 X5.76532 Y14.39801
G1 F300 X5.76388 Y15.14553
G1 F300 X5.73596 Y15.21294
G1 F300 X5.68435 Y15.26453
G1 F300 X5.61696 Y15.29244
G1 F300 X5.54401 Y15.29244
G1 F300 X5.44640 Y15.23933
G1 F300 X5.28549 Y15.00415
G1 F300 X5.03601 Y14.75465
G1 F300 X4.74285 Y14.55876
G1 F300 X4.41709 Y14.42381
G1 F300 X4.07130 Y14.35503
G1 F300 X3.71867 Y14.35503
G1 F300 X3.26477 Y14.45048
G1 F300 X3.16673 Y14.41929
G1 F300 X3.11511 Y14.36770
G1 F300 X3.08357 Y14.26377
G1 F300 X3.08357 Y11.21650
G1 F300 X3.11562 Y11.11221
G1 F300 X3.17120 Y11.05836
G1 F300 X3.25222 Y11.03045
G1 F300 X3.98580 Y11.03685
G1 F300 X4.16370 Y11.00238
G1 F300 X4.23995 Y10.96161
G1 F300 X4.36159 Y10.83997
G1 F300 X4.46233 Y10.62491
G1 F300 X4.51526 Y10.58290
G1 F300 X4.59723 Y10.56068
G1 F300 X10.13824 Y10.56253
G1 F300 X10.31751 Y10.53581
G1 F300 X10.39092 Y10.55499
G1 F300 X10.46923 Y10.62857
G1 F300 X10.52902 Y10.91732
G1 F300 X10.62663 Y11.06334
G1 F300 X10.77268 Y11.16093
G1 F300 X10.85711 Y11.18656
G1 F300 X11.03031 Y11.19446
G1 F300 X11.08096 Y11.14381
G1 F300 X11.08096 Y10.80502
G1 F300 X10.92203 Y10.80045
G1 F300 X10.89511 Y10.77835
G1 F300 X10.88500 Y10.74500
G1 F300 X10.88500 Y9.94500
G1 F300 X10.89511 Y9.91168
G1 F300 X10.92203 Y9.88958
G1 F300 X11.85670 Y9.88618
G1 F300 X11.90041 Y9.92204
G1 F300 X11.90499 Y10.03101
G1 F300 X12.24377 Y10.03101
G1 F300 X12.29571 Y9.97907
G1 F300 X12.30067 Y9.90586
G1 F300 X12.32924 Y9.84094
G1 F300 X12.38065 Y9.79090
G1 F300 X12.44707 Y9.76390
G1 F300 X14.45083 Y9.76342
G1 F300 X14.49894 Y9.77869
G1 F300 X14.55959 Y9.82466
G1 F300 X14.59279 Y9.87945
G1 F300 X14.60546 Y9.95448
G1 F300 X14.58715 Y10.02837
G1 F300 X14.50430 Y10.18003
G1 F300 X14.46495 Y10.30975
G1 F300 X14.45164 Y10.44503
G1 F300 X14.46495 Y10.58028
G1 F300 X14.50440 Y10.71033
G1 F300 X14.64222 Y10.93728
G1 F300 X14.65771 Y11.13228
G1 F300 X14.70996 Y11.23002
G1 F300 X14.77193 Y11.27142
G1 F300 X14.85410 Y11.28684
G1 F300 X15.43581 Y11.28684
G1 F300 X15.60175 Y11.25740
G1 F300 X15.69975 Y11.29161
G1 F300 X16.18351 Y11.77165
G1 F300 X16.28560 Y11.83220
G1 F300 X19.96621 Y15.51286
G1 F300 X20.02742 Y15.54560
G1 F300 X20.15750 Y15.58505
G1 F300 X20.29321 Y15.59838
G1 F300 X26.83358 Y15.59501
G1 F300 X26.93353 Y15.62422
G1 F300 X26.99035 Y15.68010
G1 F300 X27.01700 Y15.74586
G1 F300 X27.00927 Y15.84243
G1 F300 X27.02269 Y15.86102
G1 F300 X27.43279 Y15.86102
G1 F300 X27.51583 Y15.76328
G1 F300 X27.62058 Y15.68718
G1 F300 X27.72195 Y15.64243
G1 F300 X27.83025 Y15.61906
G1 F300 X27.94725 Y15.61776
G1 F300 X28.06805 Y15.64243
G1 F300 X28.17498 Y15.69003
G1 F300 X28.27414 Y15.76328
G1 F300 X28.35718 Y15.86102
G1 F300 X28.76726 Y15.86102
G1 F300 X28.77937 Y15.84421
G1 F300 X28.71869 Y15.70758
G1 F300 X28.61138 Y15.55548
G1 F300 X28.50632 Y15.45180
G1 F300 X28.47181 Y15.36407
G1 F300 X28.47808 Y15.28495
G1 F300 X28.53536 Y15.17088
G1 F300 X28.57501 Y15.04030
G1 F300 X28.58832 Y14.90502
G1 F300 X28.57501 Y14.76979
G1 F300 X28.53553 Y14.63971
G1 F300 X28.47145 Y14.51982
G1 F300 X28.38522 Y14.41474
G1 F300 X28.28016 Y14.32851
G1 F300 X28.16033 Y14.26445
G1 F300 X28.03023 Y14.22501
G1 F300 X20.65605 Y14.21502
G1 F300 X20.58447 Y14.20077
G1 F300 X20.52382 Y14.16024
G1 F300 X16.32339 Y9.95506
G1 F300 X16.21798 Y9.86855
G1 F300 X16.09809 Y9.80447
G1 F300 X15.96802 Y9.76499
G1 F300 X15.72228 Y9.75303
G1 F300 X15.65418 Y9.73065
G1 F300 X15.55103 Y9.63627
G1 F300 X15.35766 Y9.56431
G1 F300 X15.30950 Y9.50531
G1 F300 X15.28890 Y9.43200
G1 F300 X15.29926 Y9.35656
G1 F300 X15.33889 Y9.29154
G1 F300 X15.46063 Y9.17074
G1 F300 X15.54300 Y9.12766
G1 F300 X15.63602 Y9.13040
G1 F300 X15.72118 Y9.17119
G1 F300 X15.80422 Y9.18684
G1 F300 X16.38572 Y9.18684
G1 F300 X16.46807 Y9.17140
G1 F300 X16.55372 Y9.10111
G1 F300 X16.58679 Y8.98582
G1 F300 X16.58679 Y7.70422
G1 F300 X16.54999 Y7.51549
G1 F300 X16.59464 Y7.41095
G1 F300 X16.66677 Y7.35961
G1 F300 X16.73596 Y7.34613
G1 F300 X21.24919 Y7.34824
G1 F300 X21.39735 Y7.31908
G1 F300 X21.52267 Y7.23498
G1 F300 X23.50344 Y5.25423
G1 F300 X23.58754 Y5.12889
G1 F300 X23.61670 Y4.98083
G1 F300 X23.61456 Y2.41957
G1 F300 X23.64306 Y2.32069
G1 F300 X23.69767 Y2.26404
G1 F300 X23.80163 Y2.23252
G1 F300 X25.91309 Y2.23613
G1 F300 X25.98045 Y2.26404
G1 F300 X26.02457 Y2.30651
G1 F300 X26.17831 Y2.54985
G1 F300 X26.33013 Y2.70169
G1 F300 X26.50867 Y2.82097
G1 F300 X26.70704 Y2.90313
G1 F300 X26.91761 Y2.94502
G1 F300 X27.13234 Y2.94502
G1 F300 X27.34290 Y2.90313
G1 F300 X27.54128 Y2.82097
G1 F300 X27.71981 Y2.70169
G1 F300 X27.87163 Y2.54987
G1 F300 X27.99091 Y2.37133
G1 F300 X28.07308 Y2.17293
G1 F300 X28.11496 Y1.96234
G1 F300 X28.11496 Y1.74771
G1 F300 X28.07308 Y1.53710
G1 F300 X27.99091 Y1.33872
G1 F300 X27.87163 Y1.16021
G1 F300 X27.71981 Y1.00837
G1 F300 X27.54128 Y0.88909
G1 F300 X27.34293 Y0.80692
G1 F300 X27.13234 Y0.76504
G1 F300 X26.91761 Y0.76504
G1 F300 X26.70701 Y0.80692
G1 F300 X26.50867 Y0.88909
G1 F300 X26.33013 Y1.00837
G1 F300 X26.17831 Y1.16021
G1 F300 X26.02457 Y1.40354
G1 F300 X25.98045 Y1.44601
G1 F300 X25.91306 Y1.47393
G1 F300 X23.38002 Y1.47540
G1 F300 X23.23189 Y1.50456
G1 F300 X23.09607 Y1.59356
G1 F300 X23.00451 Y1.61754
G1 F300 X15.81623 Y1.61754
G1 F300 X15.71715 Y1.58894
G1 F300 X15.56111 Y1.44393
G1 F300 X15.37201 Y1.34286
G1 F300 X15.18466 Y1.30560
G1 F300 X14.81407 Y1.30321
G1 F300 X14.74290 Y1.28896
G1 F300 X14.68202 Y1.24820
G1 F300 X14.33861 Y0.91251
G1 F300 X14.20188 Y0.85589
G1 F300 X14.12497 Y0.84830
G1 F300 X4.44000 Y0.84830
G1 F300 X4.36309 Y0.85589
G1 F300 X4.22629 Y0.91254
G1 F300 X4.03317 Y1.09796
G1 F300 X3.94267 Y1.14817
G1 F300 X3.20899 Y1.16257
G1 F300 X3.05001 Y1.22844
G1 F300 X2.92835 Y1.35008
G1 F300 X2.86254 Y1.50898
G1 F300 X2.85316 Y1.60423
G1 F300 X2.86254 Y2.58106
G1 F300 X2.88761 Y2.66376
G1 F300 X2.98316 Y2.80679
G1 F300 X3.12626 Y2.90240
G1 F300 X3.20894 Y2.92747
G1 F300 X4.03096 Y2.92747
G1 F300 X4.18991 Y2.86166
G1 F300 X4.25674 Y2.80679
G1 F300 X4.35235 Y2.66376
G1 F300 X4.37742 Y2.58106
G1 F300 X4.39377 Y1.84180
G1 F300 X4.43761 Y1.76166
G1 F300 X4.55857 Y1.64375
G1 F300 X4.63441 Y1.60903
G1 F300 X8.42420 Y1.60542
G1 F300 X8.49577 Y1.61965
G1 F300 X8.56039 Y1.66453
G1 F300 X8.60763 Y1.75589
G1 F300 X8.60766 Y1.82884
G1 F300 X8.58046 Y1.89519
G1 F300 X8.53451 Y1.94654
G1 F300 X8.43420 Y2.00009
G1 F300 X7.80431 Y2.00319
G1 F300 X7.62623 Y2.03765
G1 F300 X7.55000 Y2.07842
G1 F300 X7.42836 Y2.20006
G1 F300 X7.38760 Y2.27634
G1 F300 X7.34439 Y2.41477
G1 F300 X7.27327 Y2.49104
G1 F300 X7.18292 Y2.51728
G1 F300 X6.80878 Y2.52297
G1 F300 X6.67203 Y2.57961
G1 F300 X4.78544 Y4.45850
G1 F300 X4.72618 Y4.49823
G1 F300 X4.67665 Y4.51161
G1 F300 X4.59957 Y4.50521
G1 F300 X4.53472 Y4.47100
G1 F300 X4.45103 Y4.38627
G1 F300 X4.33581 Y4.35322
G1 F300 X3.35410 Y4.35322
G1 F300 X3.27191 Y4.36864
G1 F300 X3.20996 Y4.41004
G1 F300 X3.16855 Y4.47197
G1 F300 X3.15316 Y4.55421
G1 F300 X3.15768 Y5.58233
G1 F300 X3.20996 Y5.68001
G1 F300 X3.27120 Y5.72104
G1 F300 X3.39136 Y5.76696
G1 F300 X3.45494 Y5.85014
G1 F300 X3.46749 Y5.91768
G1 F300 X3.46474 Y6.60417
G1 F300 X3.42565 Y6.68933
G1 F300 X3.36695 Y6.73831
G1 F300 X3.17625 Y6.78766
G1 F300 X3.03320 Y6.88324
G1 F300 X2.97833 Y6.95007
G1 F300 X2.91250 Y7.10899
G1 F300 X2.90315 Y8.08588
G1 F300 X2.93759 Y8.26378
G1 F300 X3.03879 Y8.43792
G1 F300 X3.04514 Y8.50769
G1 F300 X3.02398 Y8.57754
G1 F300 X2.36617 Y9.24384
G1 F300 X2.25306 Y9.28648
G1 F300 X2.17831 Y9.27353
G1 F300 X2.12383 Y9.24026
G1 F300 X2.06543 Y9.14371
G1 F300 X2.05997 Y8.64351
G1 F300 X2.07196 Y8.57734
G1 F300 X2.10462 Y8.52200
G1 F300 X2.25672 Y8.40681
G1 F300 X2.31158 Y8.33998
G1 F300 X2.37742 Y8.18105
G1 F300 X2.37742 Y7.10904
G1 F300 X2.31158 Y6.95007
G1 F300 X2.18989 Y6.82840
G1 F300 X2.11369 Y6.78766
G1 F300 X1.88789 Y6.73589
G1 F300 X1.83340 Y6.69444
G1 F300 X1.79751 Y6.63615
G1 F300 X1.78497 Y6.56884
G1 F300 X1.78497 Y5.90046
G1 F300 X1.79723 Y5.83381
G1 F300 X1.83251 Y5.77590
G1 F300 X1.97996 Y5.68004
G1 F300 X2.03223 Y5.58222
G1 F300 X2.03676 Y4.55418
G1 F300 X2.02134 Y4.47194
G1 F300 X1.93211 Y4.34524
G1 F300 X1.91509 Y4.25543
G1 F300 X2.00361 Y4.01847
G1 F300 X2.01240 Y3.92932
G1 F300 X2.01298 Y3.00971
G1 F300 X2.06012 Y2.91596
G1 F300 X2.20671 Y2.80679
G1 F300 X2.26157 Y2.73996
G1 F300 X2.32741 Y2.58104
G1 F300 X2.32741 Y1.50900
G1 F300 X2.26157 Y1.35008
G1 F300 X2.20676 Y1.28325
G1 F300 X2.06371 Y1.18767
G1 F300 X1.98093 Y1.16257
G1 F300 X1.15896 Y1.16257
G1 F300 X1.00000 Y1.22844
G1 F300 X0.87836 Y1.35005
G1 F300 X0.81253 Y1.50900
G1 F300 X0.80315 Y1.60420
G1 F300 X0.81253 Y2.58104
G1 F300 X0.87836 Y2.73999
G1 F300 X0.93318 Y2.80679
G1 F300 X1.07981 Y2.91596
G1 F300 X1.11796 Y2.97730
G1 F300 X1.12998 Y3.04339
G1 F300 X1.12634 Y3.70908
G1 F300 X1.09851 Y3.77634
G1 F300 X0.97737 Y3.91162
G1 F300 X0.93650 Y3.98804
G1 F300 X0.91133 Y4.07095
G1 F300 X0.90191 Y4.22330
G1 F300 X0.86091 Y4.30989
G1 F300 X0.73783 Y4.38718
G1 F300 X0.63772 Y4.47712
G1 F300 X0.59086 Y4.49543
G1 F300 X0.51504 Y4.49790
G1 F300 X0.45492 Y4.47638
G1 F300 X0.39787 Y4.42637
G1 F300 X0.35997 Y4.31385
G1 F300 X0.35997 Y1.15932
;G04 P0 ; dwell for no time -- G64 should not smooth over this point 
G1 F3000 Z3.00000 ; retract 

G1 F3000 X2.98618 Y1.57050 ; rapid move to begin. 
G1 F300 F300.00000
G1 F300 Z-0.07000
;G04 P0 ; dwell for no time -- G64 should not smooth over this point 
G1 F300 F600.00000
G1 F300 X2.98618 Y1.57050
G1 F300 X3.00803 Y1.47774
G1 F300 X3.04074 Y1.41805
G1 F300 X3.11803 Y1.34075
G1 F300 X3.17770 Y1.30806
G1 F300 X3.27036 Y1.28622
G1 F300 X4.01994 Y1.29501
G1 F300 X4.29482 Y1.02564
G1 F300 X4.34788 Y0.99727
G1 F300 X4.43116 Y0.98071
G1 F300 X14.12789 Y0.98040
G1 F300 X14.21705 Y0.99727
G1 F300 X14.27011 Y1.02564
G1 F300 X14.68502 Y1.43504
G1 F300 X15.16960 Y1.43562
G1 F300 X15.33086 Y1.46681
G1 F300 X15.42769 Y1.51190
G1 F300 X15.51651 Y1.57634
G1 F300 X15.59647 Y1.66382
G1 F300 X15.64531 Y1.74751
G1 F300 X23.13455 Y1.74751
G1 F300 X23.24464 Y1.64619
G1 F300 X23.37710 Y1.60751
G1 F300 X26.10117 Y1.60751
G1 F300 X26.14799 Y1.46455
G1 F300 X26.24834 Y1.29074
G1 F300 X26.37819 Y1.14604
G1 F300 X26.53973 Y1.02704
G1 F300 X26.73440 Y0.94037
G1 F300 X26.93091 Y0.89994
G1 F300 X27.11905 Y0.89994
G1 F300 X27.32164 Y0.94200
G1 F300 X27.50498 Y1.02364
G1 F300 X27.66246 Y1.13763
G1 F300 X27.79769 Y1.28587
G1 F300 X27.90424 Y1.47040
G1 F300 X27.96500 Y1.66163
G1 F300 X27.98466 Y1.86128
G1 F300 X27.96238 Y2.06067
G1 F300 X27.90198 Y2.24548
G1 F300 X27.80165 Y2.41929
G1 F300 X27.67178 Y2.56399
G1 F300 X27.50498 Y2.68640
G1 F300 X27.32751 Y2.76577
G1 F300 X27.11905 Y2.81009
G1 F300 X26.93091 Y2.81009
G1 F300 X26.73440 Y2.76966
G1 F300 X26.53973 Y2.68297
G1 F300 X26.37819 Y2.56399
G1 F300 X26.24834 Y2.41929
G1 F300 X26.14799 Y2.24548
G1 F300 X26.10117 Y2.10250
G1 F300 X23.48459 Y2.10253
G1 F300 X23.48459 Y4.98375
G1 F300 X23.46773 Y5.07290
G1 F300 X23.41210 Y5.15876
G1 F300 X21.39440 Y7.17089
G1 F300 X21.34134 Y7.19926
G1 F300 X21.25219 Y7.21613
G1 F300 X15.67391 Y7.21613
G1 F300 X14.55499 Y8.33503
G1 F300 X14.55499 Y8.99502
G1 F300 X14.53742 Y9.03744
G1 F300 X14.49500 Y9.05501
G1 F300 X13.89500 Y9.05501
G1 F300 X13.85256 Y9.03744
G1 F300 X13.83498 Y8.99502
G1 F300 X13.84509 Y7.66167
G1 F300 X13.89500 Y7.63500
G1 F300 X14.49500 Y7.63500
G1 F300 X14.53742 Y7.65258
G1 F300 X15.39637 Y6.79360
G1 F300 X15.48222 Y6.73798
G1 F300 X15.57140 Y6.72111
G1 F300 X21.14965 Y6.72111
G1 F300 X22.98957 Y4.88121
G1 F300 X22.98957 Y2.24253
G1 F300 X15.70498 Y2.24253
G1 F300 X15.70384 Y2.50672
G1 F300 X15.68740 Y2.53745
G1 F300 X15.65669 Y2.55386
G1 F300 X14.14499 Y2.55500
G1 F300 X14.10257 Y2.53745
G1 F300 X14.08613 Y2.50672
G1 F300 X14.08514 Y1.99059
G1 F300 X14.10348 Y1.85330
G1 F300 X14.14153 Y1.75038
G1 F300 X14.20254 Y1.65262
G1 F300 X14.02535 Y1.47543
G1 F300 X4.53954 Y1.47543
G1 F300 X4.25494 Y1.76006
G1 F300 X4.25379 Y2.51962
G1 F300 X4.22090 Y2.63582
G1 F300 X4.18067 Y2.69605
G1 F300 X4.07147 Y2.77745
G1 F300 X3.97688 Y2.80336
G1 F300 X3.29510 Y2.80501
G1 F300 X3.18186 Y2.78340
G1 F300 X3.11580 Y2.74733
G1 F300 X3.05027 Y2.68447
G1 F300 X3.00859 Y2.61365
G1 F300 X2.98799 Y2.53410
G1 F300 X2.98618 Y1.57050
;G04 P0 ; dwell for no time -- G64 should not smooth over this point 
G1 F3000 Z3.00000 ; retract 

G1 F3000 X9.53499 Y6.09492 ; rapid move to begin. 
G1 F300 F300.00000
G1 F300 Z-0.07000
;G04 P0 ; dwell for no time -- G64 should not smooth over this point 
G1 F300 F600.00000
G1 F300 X9.53499 Y6.09492
G1 F300 X9.54832 Y6.18499
G1 F300 X9.59074 Y6.27196
G1 F300 X9.66803 Y6.34925
G1 F300 X9.75361 Y6.39121
G1 F300 X9.82038 Y6.40381
G1 F300 X10.56994 Y6.39500
G1 F300 X11.14746 Y6.97254
G1 F300 X11.14746 Y7.98501
G1 F300 X10.93326 Y7.98616
G1 F300 X10.90255 Y8.00259
G1 F300 X10.88614 Y8.03330
G1 F300 X10.88500 Y8.84501
G1 F300 X10.90255 Y8.88745
G1 F300 X10.94499 Y8.90500
G1 F300 X11.84499 Y8.90500
G1 F300 X11.88741 Y8.88745
G1 F300 X11.90499 Y8.84501
G1 F300 X11.90384 Y8.03330
G1 F300 X11.88741 Y8.00259
G1 F300 X11.85670 Y7.98616
G1 F300 X11.64248 Y7.98501
G1 F300 X11.63628 Y6.81603
G1 F300 X11.56999 Y6.69500
G1 F300 X10.80496 Y5.93003
G1 F300 X10.80430 Y5.18621
G1 F300 X10.78965 Y5.09947
G1 F300 X10.73364 Y4.99721
G1 F300 X10.65952 Y4.93290
G1 F300 X10.51949 Y4.88621
G1 F300 X9.82046 Y4.88621
G1 F300 X9.74677 Y4.90153
G1 F300 X9.63014 Y4.97186
G1 F300 X9.58287 Y5.03046
G1 F300 X9.53618 Y5.17044
G1 F300 X9.53499 Y6.09492
;G04 P0 ; dwell for no time -- G64 should not smooth over this point 
G1 F3000 Z3.00000 ; retract 

G1 F3000 X14.58771 Y10.39276 ; rapid move to begin. 
G1 F300 F300.00000
G1 F300 Z-0.07000
;G04 P0 ; dwell for no time -- G64 should not smooth over this point 
G1 F300 F600.00000
G1 F300 X14.58771 Y10.39276
G1 F300 X14.58903 Y10.50975
G1 F300 X14.61463 Y10.62392
G1 F300 X14.66343 Y10.73027
G1 F300 X14.78499 Y10.87076
G1 F300 X14.78499 Y11.09501
G1 F300 X14.80257 Y11.13743
G1 F300 X14.84499 Y11.15501
G1 F300 X15.45669 Y11.15387
G1 F300 X15.50043 Y11.11798
G1 F300 X15.50498 Y11.00502
G1 F300 X15.60081 Y11.00502
G1 F300 X19.89679 Y15.30100
G1 F300 X19.98671 Y15.37367
G1 F300 X20.08401 Y15.42439
G1 F300 X20.18935 Y15.45513
G1 F300 X20.29278 Y15.46503
G1 F300 X27.89815 Y15.46493
G1 F300 X28.07099 Y15.43656
G1 F300 X28.22665 Y15.35617
G1 F300 X28.34613 Y15.23666
G1 F300 X28.42652 Y15.08104
G1 F300 X28.45217 Y14.96044
G1 F300 X28.45151 Y14.84339
G1 F300 X28.42654 Y14.72902
G1 F300 X28.34983 Y14.57845
G1 F300 X28.27198 Y14.49102
G1 F300 X28.17767 Y14.42168
G1 F300 X28.06500 Y14.37151
G1 F300 X27.95037 Y14.34784
G1 F300 X20.52473 Y14.34502
G1 F300 X16.22875 Y10.04904
G1 F300 X16.13884 Y9.97637
G1 F300 X16.04153 Y9.92565
G1 F300 X15.93619 Y9.89492
G1 F300 X15.50498 Y9.88501
G1 F300 X15.50043 Y9.77206
G1 F300 X15.45669 Y9.73617
G1 F300 X14.83328 Y9.73617
G1 F300 X14.80257 Y9.75257
G1 F300 X14.78613 Y9.78331
G1 F300 X14.78499 Y10.01927
G1 F300 X14.66000 Y10.16502
G1 F300 X14.61237 Y10.27198
G1 F300 X14.58771 Y10.39276
;G04 P0 ; dwell for no time -- G64 should not smooth over this point 
G1 F3000 Z3.00000 ; retract 

G1 F3000 X20.10497 Y9.96873 ; rapid move to begin. 
G1 F300 F300.00000
G1 F300 Z-0.07000
;G04 P0 ; dwell for no time -- G64 should not smooth over this point 
G1 F300 F600.00000
G1 F300 X20.10497 Y9.96873
G1 F300 X20.17378 Y9.62291
G1 F300 X20.30870 Y9.29715
G1 F300 X20.50459 Y9.00399
G1 F300 X20.75391 Y8.75463
G1 F300 X21.04711 Y8.55875
G1 F300 X21.37284 Y8.42382
G1 F300 X21.71868 Y8.35504
G1 F300 X22.07126 Y8.35504
G1 F300 X22.41711 Y8.42382
G1 F300 X22.74286 Y8.55875
G1 F300 X23.03603 Y8.75463
G1 F300 X23.28535 Y9.00399
G1 F300 X23.48124 Y9.29715
G1 F300 X23.61619 Y9.62291
G1 F300 X23.68497 Y9.96873
G1 F300 X23.68497 Y10.32131
G1 F300 X23.61619 Y10.66715
G1 F300 X23.48124 Y10.99291
G1 F300 X23.28535 Y11.28607
G1 F300 X23.03603 Y11.53540
G1 F300 X22.74286 Y11.73131
G1 F300 X22.41711 Y11.86624
G1 F300 X22.07129 Y11.93502
G1 F300 X21.71868 Y11.93502
G1 F300 X21.37286 Y11.86624
G1 F300 X21.04711 Y11.73131
G1 F300 X20.75391 Y11.53540
G1 F300 X20.50459 Y11.28607
G1 F300 X20.30870 Y10.99291
G1 F300 X20.17378 Y10.66715
G1 F300 X20.10497 Y10.32131
G1 F300 X20.10497 Y9.96873
;G04 P0 ; dwell for no time -- G64 should not smooth over this point 
G1 F3000 Z3.00000 ; retract 

G1 F3000 X15.83498 Y14.74502 ; rapid move to begin. 
G1 F300 F300.00000
G1 F300 Z-0.07000
;G04 P0 ; dwell for no time -- G64 should not smooth over this point 
G1 F300 F600.00000
G1 F300 X15.83498 Y14.74502
G1 F300 X15.85255 Y14.70258
G1 F300 X15.88329 Y14.68617
G1 F300 X16.11925 Y14.68503
G1 F300 X16.26497 Y14.56006
G1 F300 X16.37193 Y14.51243
G1 F300 X16.49271 Y14.48777
G1 F300 X16.60970 Y14.48909
G1 F300 X16.72387 Y14.51469
G1 F300 X16.83022 Y14.56349
G1 F300 X16.97069 Y14.68503
G1 F300 X17.22832 Y14.69513
G1 F300 X17.25499 Y14.74502
G1 F300 X17.25385 Y15.35673
G1 F300 X17.21795 Y15.40044
G1 F300 X17.10498 Y15.40501
G1 F300 X17.10498 Y15.50085
G1 F300 X18.48915 Y16.88502
G1 F300 X28.40668 Y16.88616
G1 F300 X28.44488 Y16.91167
G1 F300 X28.45499 Y16.94502
G1 F300 X28.45382 Y17.95672
G1 F300 X28.42832 Y17.99490
G1 F300 X28.39500 Y18.00501
G1 F300 X18.25720 Y18.00503
G1 F300 X18.14221 Y17.99284
G1 F300 X17.95113 Y17.91367
G1 F300 X17.86121 Y17.84100
G1 F300 X16.08285 Y16.04865
G1 F300 X16.02560 Y15.94156
G1 F300 X15.99487 Y15.83623
G1 F300 X15.98496 Y15.40501
G1 F300 X15.87203 Y15.40044
G1 F300 X15.83614 Y15.35673
G1 F300 X15.83498 Y14.74502
;G04 P0 ; dwell for no time -- G64 should not smooth over this point 
G1 F3000 Z3.00000 ; retract 

G1 F3000 X9.68498 Y14.69501 ; rapid move to begin. 
G1 F300 F300.00000
G1 F300 Z-0.07000
;G04 P0 ; dwell for no time -- G64 should not smooth over this point 
G1 F300 F600.00000
G1 F300 X9.68498 Y14.69501
G1 F300 X9.70255 Y14.65259
G1 F300 X9.74500 Y14.63501
G1 F300 X10.55670 Y14.63616
G1 F300 X10.58739 Y14.65259
G1 F300 X10.60385 Y14.68330
G1 F300 X10.60499 Y14.89752
G1 F300 X10.83024 Y14.89752
G1 F300 X12.53295 Y13.19481
G1 F300 X12.65398 Y13.12851
G1 F300 X15.26109 Y13.12232
G1 F300 X15.35024 Y13.13918
G1 F300 X15.40330 Y13.16755
G1 F300 X15.68514 Y13.44939
G1 F300 X15.71351 Y13.50245
G1 F300 X15.73007 Y13.58574
G1 F300 X15.73038 Y18.35540
G1 F300 X16.36002 Y18.98504
G1 F300 X17.12687 Y18.98667
G1 F300 X17.21895 Y19.01113
G1 F300 X17.31813 Y19.08017
G1 F300 X17.38339 Y19.18192
G1 F300 X17.40498 Y19.29513
G1 F300 X17.40332 Y19.97691
G1 F300 X17.38138 Y20.06365
G1 F300 X17.33462 Y20.14168
G1 F300 X17.21895 Y20.22891
G1 F300 X17.09492 Y20.25502
G1 F300 X16.16309 Y20.25334
G1 F300 X16.07635 Y20.23142
G1 F300 X15.99947 Y20.18557
G1 F300 X15.92461 Y20.09619
G1 F300 X15.88735 Y19.98123
G1 F300 X15.89500 Y19.22007
G1 F300 X15.30785 Y18.63295
G1 F300 X15.25222 Y18.54710
G1 F300 X15.23536 Y18.45792
G1 F300 X15.23536 Y13.69415
G1 F300 X15.15855 Y13.61734
G1 F300 X12.81050 Y13.61734
G1 F300 X11.07499 Y15.34731
G1 F300 X11.02193 Y15.37568
G1 F300 X10.93862 Y15.39224
G1 F300 X10.60499 Y15.39254
G1 F300 X10.60385 Y15.60672
G1 F300 X10.58739 Y15.63745
G1 F300 X10.55670 Y15.65386
G1 F300 X9.74500 Y15.65500
G1 F300 X9.70255 Y15.63745
G1 F300 X9.68498 Y15.59501
G1 F300 X9.68498 Y14.69501
;G04 P0 ; dwell for no time -- G64 should not smooth over this point 
G1 F3000 Z3.00000 ; retract 

G1 F3000 X10.24405 Y13.58759 ; rapid move to begin. 
G1 F300 F300.00000
G1 F300 Z-0.07000
;G04 P0 ; dwell for no time -- G64 should not smooth over this point 
G1 F300 F600.00000
G1 F300 X10.24405 Y13.58759
G1 F300 X10.25442 Y13.68559
G1 F300 X10.48096 Y13.45904
G1 F300 X10.29618 Y13.45904
G1 F300 X10.24553 Y13.50969
G1 F300 X10.24405 Y13.58759
;G04 P0 ; dwell for no time -- G64 should not smooth over this point 
G1 F3000 Z3.00000 ; retract 

G1 F3000 X10.24405 Y12.70245 ; rapid move to begin. 
G1 F300 F300.00000
G1 F300 Z-0.07000
;G04 P0 ; dwell for no time -- G64 should not smooth over this point 
G1 F300 F600.00000
G1 F300 X10.24405 Y12.70245
G1 F300 X10.27908 Y12.52280
G1 F300 X10.32069 Y12.44495
G1 F300 X10.44487 Y12.32072
G1 F300 X10.60715 Y12.25351
G1 F300 X10.70164 Y12.24419
G1 F300 X10.72968 Y12.24495
G1 F300 X10.78096 Y12.29623
G1 F300 X10.78096 Y12.63502
G1 F300 X10.68325 Y12.63616
G1 F300 X10.64510 Y12.66169
G1 F300 X10.63499 Y12.83103
G1 F300 X10.29618 Y12.83103
G1 F300 X10.24553 Y12.78038
G1 F300 X10.24405 Y12.70245
;G04 P0 ; dwell for no time -- G64 should not smooth over this point 
G1 F3000 Z3.00000 ; retract 

G1 F3000 X11.40897 Y12.34325 ; rapid move to begin. 
G1 F300 F300.00000
G1 F300 Z-0.07000
;G04 P0 ; dwell for no time -- G64 should not smooth over this point 
G1 F300 F600.00000
G1 F300 X11.40897 Y12.34325
G1 F300 X11.49749 Y12.25473
G1 F300 X11.58677 Y12.25470
G1 F300 X11.74507 Y12.32072
G1 F300 X11.86927 Y12.44492
G1 F300 X11.91088 Y12.52275
G1 F300 X11.93651 Y12.60720
G1 F300 X11.94441 Y12.78038
G1 F300 X11.89376 Y12.83103
G1 F300 X11.55497 Y12.83103
G1 F300 X11.54486 Y12.66169
G1 F300 X11.50669 Y12.63616
G1 F300 X11.40897 Y12.63502
G1 F300 X11.40897 Y12.34325
;G04 P0 ; dwell for no time -- G64 should not smooth over this point 
G1 F3000 Z3.00000 ; retract 

G1 F3000 X11.70897 Y10.80502 ; rapid move to begin. 
G1 F300 F300.00000
G1 F300 Z-0.07000
;G04 P0 ; dwell for no time -- G64 should not smooth over this point 
G1 F300 F600.00000
G1 F300 X11.70897 Y10.80502
G1 F300 X11.87832 Y10.79489
G1 F300 X11.90384 Y10.75671
G1 F300 X11.90499 Y10.65902
G1 F300 X12.24377 Y10.65902
G1 F300 X12.29505 Y10.71031
G1 F300 X12.28649 Y10.83286
G1 F300 X12.21929 Y10.99512
G1 F300 X12.09508 Y11.11932
G1 F300 X11.93280 Y11.18656
G1 F300 X11.75962 Y11.19446
G1 F300 X11.70897 Y11.14381
G1 F300 X11.70897 Y10.80502
;G04 P0 ; dwell for no time -- G64 should not smooth over this point 
G1 F3000 Z3.00000 ; retract 

G1 F3000 X8.88498 Y8.99502 ; rapid move to begin. 
G1 F300 F300.00000
G1 F300 Z-0.07000
;G04 P0 ; dwell for no time -- G64 should not smooth over this point 
G1 F300 F600.00000
G1 F300 X8.88498 Y8.99502
G1 F300 X8.90255 Y8.95258
G1 F300 X8.93326 Y8.93617
G1 F300 X9.14746 Y8.93502
G1 F300 X9.14746 Y8.70973
G1 F300 X8.94749 Y8.50424
G1 F300 X8.91914 Y8.45118
G1 F300 X8.90227 Y8.36200
G1 F300 X8.90847 Y3.86125
G1 F300 X8.97474 Y3.74022
G1 F300 X9.53501 Y3.17997
G1 F300 X9.53664 Y2.41312
G1 F300 X9.56110 Y2.32107
G1 F300 X9.62181 Y2.23016
G1 F300 X9.72104 Y2.16112
G1 F300 X9.81309 Y2.13666
G1 F300 X10.56117 Y2.14240
G1 F300 X10.66214 Y2.18424
G1 F300 X10.73460 Y2.24835
G1 F300 X10.78139 Y2.32638
G1 F300 X10.80334 Y2.41312
G1 F300 X10.80496 Y3.34494
G1 F300 X10.79163 Y3.43501
G1 F300 X10.75355 Y3.51601
G1 F300 X10.66597 Y3.60356
G1 F300 X10.53120 Y3.65266
G1 F300 X9.77001 Y3.64499
G1 F300 X9.39729 Y4.01776
G1 F300 X9.39729 Y8.25951
G1 F300 X9.57395 Y8.43660
G1 F300 X9.62562 Y8.51806
G1 F300 X9.64248 Y8.60721
G1 F300 X9.64248 Y8.93500
G1 F300 X9.85670 Y8.93617
G1 F300 X9.90042 Y8.97206
G1 F300 X9.90499 Y9.79502
G1 F300 X9.88741 Y9.83744
G1 F300 X9.84500 Y9.85501
G1 F300 X8.94500 Y9.85501
G1 F300 X8.90255 Y9.83744
G1 F300 X8.88498 Y9.79502
G1 F300 X8.88498 Y8.99502
;G04 P0 ; dwell for no time -- G64 should not smooth over this point 
G1 F3000 Z3.00000 ; retract 

G1 F3000 X1.61626 Y15.24052 ; rapid move to begin. 
G1 F300 F300.00000
G1 F300 Z-0.07000
;G04 P0 ; dwell for no time -- G64 should not smooth over this point 
G1 F300 F600.00000
G1 F300 X1.61626 Y15.24052
G1 F300 X1.61626 Y17.16282
G1 F300 X1.63312 Y17.25200
G1 F300 X1.68875 Y17.33785
G1 F300 X2.64747 Y18.29655
G1 F300 X2.65367 Y22.91800
G1 F300 X2.71994 Y23.03903
G1 F300 X5.53660 Y25.85567
G1 F300 X5.45303 Y25.90187
G1 F300 X5.40185 Y25.95308
G1 F300 X5.35031 Y26.04947
G1 F300 X5.33619 Y26.12051
G1 F300 X5.33665 Y31.17686
G1 F300 X5.35859 Y31.26366
G1 F300 X5.40535 Y31.34169
G1 F300 X5.47274 Y31.40277
G1 F300 X5.55501 Y31.44166
G1 F300 X5.64511 Y31.45502
G1 F300 X6.16964 Y31.45380
G1 F300 X6.25521 Y31.43419
G1 F300 X6.32194 Y31.39927
G1 F300 X6.39923 Y31.32197
G1 F300 X6.43337 Y31.25809
G1 F300 X6.45498 Y31.14501
G1 F300 X6.45498 Y26.14502
G1 F300 X6.44206 Y26.05643
G1 F300 X6.38813 Y25.95308
G1 F300 X6.33690 Y25.90187
G1 F300 X6.21396 Y25.84332
G1 F300 X6.13934 Y25.83502
G1 F300 X6.12113 Y25.76400
G1 F300 X6.07000 Y25.68902
G1 F300 X3.14249 Y22.76149
G1 F300 X3.13858 Y18.15157
G1 F300 X3.12113 Y18.09398
G1 F300 X3.07000 Y18.01900
G1 F300 X2.11128 Y17.06031
G1 F300 X2.11128 Y15.34304
G1 F300 X2.88108 Y14.57324
G1 F300 X2.93221 Y14.49826
G1 F300 X2.94963 Y14.44068
G1 F300 X2.95357 Y9.53276
G1 F300 X3.28270 Y9.20363
G1 F300 X4.80886 Y9.20363
G1 F300 X4.94130 Y9.16495
G1 F300 X7.72001 Y6.39500
G1 F300 X8.44500 Y6.40501
G1 F300 X8.54053 Y6.38969
G1 F300 X8.63690 Y6.33815
G1 F300 X8.71533 Y6.24621
G1 F300 X8.75264 Y6.13122
G1 F300 X8.75379 Y5.17052
G1 F300 X8.70578 Y5.02784
G1 F300 X8.62193 Y4.94077
G1 F300 X8.47682 Y4.88667
G1 F300 X7.77048 Y4.88621
G1 F300 X7.67771 Y4.90806
G1 F300 X7.58015 Y4.97186
G1 F300 X7.51109 Y5.07105
G1 F300 X7.48666 Y5.16312
G1 F300 X7.48503 Y5.92995
G1 F300 X4.70635 Y8.70861
G1 F300 X3.12616 Y8.71481
G1 F300 X3.00516 Y8.78110
G1 F300 X2.50379 Y9.28801
G1 F300 X2.47541 Y9.34107
G1 F300 X2.45852 Y9.43025
G1 F300 X2.45852 Y14.29569
G1 F300 X1.68479 Y15.06989
G1 F300 X1.63312 Y15.15137
G1 F300 X1.61626 Y15.24052
;G04 P0 ; dwell for no time -- G64 should not smooth over this point 
G1 F3000 Z3.00000 ; retract 

G1 F3000 X3.28616 Y21.67051 ; rapid move to begin. 
G1 F300 F300.00000
G1 F300 Z-0.07000
;G04 P0 ; dwell for no time -- G64 should not smooth over this point 
G1 F300 F600.00000
G1 F300 X3.28616 Y21.67051
G1 F300 X3.28616 Y22.61953
G1 F300 X3.33289 Y22.75956
G1 F300 X3.39192 Y22.82857
G1 F300 X3.49947 Y22.88968
G1 F300 X3.59507 Y22.90502
G1 F300 X4.27688 Y22.90335
G1 F300 X4.36362 Y22.88143
G1 F300 X4.44803 Y22.82857
G1 F300 X4.50271 Y22.76723
G1 F300 X4.53845 Y22.69324
G1 F300 X4.55433 Y22.60381
G1 F300 X4.55433 Y21.68621
G1 F300 X4.51536 Y21.54384
G1 F300 X4.41844 Y21.43810
G1 F300 X4.28405 Y21.38801
G1 F300 X4.16746 Y21.38547
G1 F300 X4.16746 Y19.16406
G1 F300 X6.31996 Y17.01154
G1 F300 X6.37109 Y16.93656
G1 F300 X6.39245 Y16.83651
G1 F300 X6.39245 Y14.49755
G1 F300 X7.49745 Y13.39255
G1 F300 X8.73499 Y13.39255
G1 F300 X8.73613 Y13.60672
G1 F300 X8.75257 Y13.63743
G1 F300 X8.78328 Y13.65386
G1 F300 X9.62833 Y13.64490
G1 F300 X9.65498 Y13.59501
G1 F300 X9.65498 Y12.69501
G1 F300 X9.62833 Y12.64513
G1 F300 X8.78328 Y12.63616
G1 F300 X8.75257 Y12.65259
G1 F300 X8.73613 Y12.68330
G1 F300 X8.73499 Y12.89753
G1 F300 X7.39494 Y12.89753
G1 F300 X7.29489 Y12.91889
G1 F300 X7.21993 Y12.97002
G1 F300 X5.94267 Y14.25279
G1 F300 X5.91429 Y14.30585
G1 F300 X5.89740 Y14.39501
G1 F300 X5.89740 Y16.73399
G1 F300 X3.74493 Y18.88652
G1 F300 X3.69380 Y18.96150
G1 F300 X3.67244 Y19.06155
G1 F300 X3.67244 Y21.38547
G1 F300 X3.51072 Y21.39692
G1 F300 X3.40305 Y21.45187
G1 F300 X3.33289 Y21.53048
G1 F300 X3.28616 Y21.67051
;G04 P0 ; dwell for no time -- G64 should not smooth over this point 
G1 F3000 Z3.00000 ; retract 

G1 F3000 X1.23498 Y22.59494 ; rapid move to begin. 
G1 F300 F300.00000
G1 F300 Z-0.07000
;G04 P0 ; dwell for no time -- G64 should not smooth over this point 
G1 F300 F600.00000
G1 F300 X1.23498 Y22.59494
G1 F300 X1.23620 Y21.67043
G1 F300 X1.28286 Y21.53048
G1 F300 X1.34194 Y21.46147
G1 F300 X1.42500 Y21.40919
G1 F300 X1.54509 Y21.38501
G1 F300 X2.21961 Y21.38621
G1 F300 X2.28639 Y21.39880
G1 F300 X2.37417 Y21.44270
G1 F300 X2.43970 Y21.50556
G1 F300 X2.49990 Y21.64036
G1 F300 X2.50434 Y22.60381
G1 F300 X2.46536 Y22.74620
G1 F300 X2.37417 Y22.84734
G1 F300 X2.30523 Y22.88420
G1 F300 X2.16546 Y22.90421
G1 F300 X4.07000 Y24.80870
G1 F300 X4.12560 Y24.89456
G1 F300 X4.14249 Y24.98371
G1 F300 X4.14249 Y25.83502
G1 F300 X4.28306 Y25.86804
G1 F300 X4.34602 Y25.90934
G1 F300 X4.42090 Y26.00421
G1 F300 X4.45496 Y26.14502
G1 F300 X4.45496 Y31.14501
G1 F300 X4.43337 Y31.25809
G1 F300 X4.38460 Y31.34169
G1 F300 X4.31722 Y31.40277
G1 F300 X4.23497 Y31.44166
G1 F300 X4.14496 Y31.45502
G1 F300 X3.64498 Y31.45502
G1 F300 X3.55499 Y31.44166
G1 F300 X3.47274 Y31.40277
G1 F300 X3.40536 Y31.34169
G1 F300 X3.35857 Y31.26366
G1 F300 X3.33663 Y31.17686
G1 F300 X3.33619 Y26.12051
G1 F300 X3.36111 Y26.02105
G1 F300 X3.43012 Y25.92186
G1 F300 X3.53190 Y25.85663
G1 F300 X3.64747 Y25.83502
G1 F300 X3.64747 Y25.08625
G1 F300 X1.69492 Y23.13375
G1 F300 X1.63932 Y23.04790
G1 F300 X1.62246 Y22.90457
G1 F300 X1.45360 Y22.89121
G1 F300 X1.32180 Y22.80985
G1 F300 X1.25151 Y22.69324
G1 F300 X1.23498 Y22.59494
;G04 P0 ; dwell for no time -- G64 should not smooth over this point 
G1 F3000 Z3.00000 ; retract 

G1 F3000 X0.63498 Y25.14503 ; rapid move to begin. 
G1 F300 F300.00000
G1 F300 Z-0.07000
;G04 P0 ; dwell for no time -- G64 should not smooth over this point 
G1 F300 F600.00000
G1 F300 X0.63498 Y25.14503
G1 F300 X0.63498 Y27.64502
G1 F300 X0.64237 Y27.71121
G1 F300 X0.68421 Y27.81218
G1 F300 X0.77780 Y27.90580
G1 F300 X0.87880 Y27.94764
G1 F300 X0.93909 Y27.95472
G1 F300 X2.06955 Y27.95381
G1 F300 X2.21217 Y27.90580
G1 F300 X2.30577 Y27.81218
G1 F300 X2.35375 Y27.66958
G1 F300 X2.35375 Y25.12046
G1 F300 X2.30577 Y24.97784
G1 F300 X2.22195 Y24.89077
G1 F300 X2.09965 Y24.84010
G1 F300 X0.91311 Y24.83667
G1 F300 X0.82104 Y24.86113
G1 F300 X0.72182 Y24.93017
G1 F300 X0.65660 Y25.03192
G1 F300 X0.63498 Y25.14503
;G04 P0 ; dwell for no time -- G64 should not smooth over this point 
G1 F3000 Z3.00000 ; retract 

G1 F3000 X5.73619 Y21.92050 ; rapid move to begin. 
G1 F300 F300.00000
G1 F300 Z-0.07000
;G04 P0 ; dwell for no time -- G64 should not smooth over this point 
G1 F300 F600.00000
G1 F300 X5.73619 Y21.92050
G1 F300 X5.73662 Y22.87686
G1 F300 X5.76111 Y22.96896
G1 F300 X5.82181 Y23.05986
G1 F300 X5.92103 Y23.12890
G1 F300 X6.02049 Y23.15382
G1 F300 X6.72684 Y23.15336
G1 F300 X6.81361 Y23.13141
G1 F300 X6.89166 Y23.08465
G1 F300 X6.95709 Y23.00957
G1 F300 X6.99164 Y22.93500
G1 F300 X7.00434 Y22.85382
G1 F300 X7.00434 Y21.93622
G1 F300 X6.96535 Y21.79383
G1 F300 X6.86842 Y21.68809
G1 F300 X6.73408 Y21.63802
G1 F300 X6.61749 Y21.63546
G1 F300 X6.61749 Y20.59954
G1 F300 X10.07367 Y17.14334
G1 F300 X11.64418 Y17.14334
G1 F300 X11.74420 Y17.12198
G1 F300 X11.81918 Y17.07085
G1 F300 X13.85969 Y15.03034
G1 F300 X14.45085 Y15.03003
G1 F300 X14.53414 Y15.01347
G1 F300 X14.58720 Y14.98510
G1 F300 X14.65380 Y14.91528
G1 F300 X14.68629 Y14.83682
G1 F300 X14.69248 Y14.45500
G1 F300 X15.09500 Y14.45500
G1 F300 X15.12832 Y14.44489
G1 F300 X15.15042 Y14.41797
G1 F300 X15.15499 Y13.79501
G1 F300 X15.13742 Y13.75259
G1 F300 X15.09500 Y13.73501
G1 F300 X13.76165 Y13.74512
G1 F300 X13.73498 Y13.79501
G1 F300 X13.74509 Y14.42836
G1 F300 X13.79497 Y14.45500
G1 F300 X14.19746 Y14.45500
G1 F300 X14.19746 Y14.53532
G1 F300 X13.75129 Y14.53562
G1 F300 X13.66800 Y14.55218
G1 F300 X13.61494 Y14.58056
G1 F300 X11.54164 Y16.64832
G1 F300 X9.97118 Y16.64832
G1 F300 X9.88200 Y16.66518
G1 F300 X9.80052 Y16.71687
G1 F300 X6.16768 Y20.35479
G1 F300 X6.13934 Y20.40785
G1 F300 X6.12247 Y20.49700
G1 F300 X6.12247 Y21.63546
G1 F300 X5.96070 Y21.64694
G1 F300 X5.85303 Y21.70188
G1 F300 X5.78287 Y21.78046
G1 F300 X5.73619 Y21.92050
;G04 P0 ; dwell for no time -- G64 should not smooth over this point 
G1 F3000 Z3.00000 ; retract 

G1 F3000 X7.13156 Y25.53164 ; rapid move to begin. 
G1 F300 F300.00000
G1 F300 Z-0.07000
;G04 P0 ; dwell for no time -- G64 should not smooth over this point 
G1 F300 F600.00000
G1 F300 X7.13156 Y25.53164
G1 F300 X7.22270 Y25.47911
G1 F300 X7.30713 Y25.45351
G1 F300 X7.53065 Y25.44591
G1 F300 X7.58094 Y25.49623
G1 F300 X7.58094 Y25.84198
G1 F300 X7.48196 Y25.88201
G1 F300 X7.13156 Y25.53164
;G04 P0 ; dwell for no time -- G64 should not smooth over this point 
G1 F3000 Z3.00000 ; retract 

G1 F3000 X10.97537 Y21.29212 ; rapid move to begin. 
G1 F300 F300.00000
G1 F300 Z-0.07000
;G04 P0 ; dwell for no time -- G64 should not smooth over this point 
G1 F300 F600.00000
G1 F300 X10.97537 Y21.29212
G1 F300 X10.98157 Y23.05422
G1 F300 X11.04393 Y23.17089
G1 F300 X11.47075 Y23.59814
G1 F300 X11.54573 Y23.64927
G1 F300 X11.60331 Y23.66672
G1 F300 X15.07087 Y23.66443
G1 F300 X15.19190 Y23.59814
G1 F300 X16.48501 Y22.30500
G1 F300 X16.80493 Y22.30503
G1 F300 X22.43501 Y27.93509
G1 F300 X22.43560 Y28.41962
G1 F300 X22.46679 Y28.58088
G1 F300 X22.51187 Y28.67771
G1 F300 X22.57631 Y28.76653
G1 F300 X22.66382 Y28.84652
G1 F300 X22.74746 Y28.89533
G1 F300 X22.74746 Y29.49249
G1 F300 X22.42582 Y29.81415
G1 F300 X22.23557 Y29.73039
G1 F300 X22.05155 Y29.69124
G1 F300 X21.85091 Y29.68995
G1 F300 X21.64832 Y29.73201
G1 F300 X21.45973 Y29.81705
G1 F300 X21.29819 Y29.93602
G1 F300 X21.17228 Y30.07585
G1 F300 X21.07083 Y30.24895
G1 F300 X21.00758 Y30.43935
G1 F300 X20.98531 Y30.65129
G1 F300 X21.00758 Y30.85068
G1 F300 X21.06572 Y31.02962
G1 F300 X21.16834 Y31.20927
G1 F300 X21.30751 Y31.36239
G1 F300 X21.46499 Y31.47641
G1 F300 X21.64832 Y31.55802
G1 F300 X21.85091 Y31.60008
G1 F300 X22.05155 Y31.59876
G1 F300 X22.24164 Y31.55802
G1 F300 X22.43026 Y31.47298
G1 F300 X22.58246 Y31.36239
G1 F300 X22.71769 Y31.21418
G1 F300 X22.82424 Y31.02962
G1 F300 X22.88500 Y30.83841
G1 F300 X22.90466 Y30.65129
G1 F300 X22.88238 Y30.43935
G1 F300 X22.82198 Y30.25454
G1 F300 X22.77225 Y30.16775
G1 F300 X23.16999 Y29.77003
G1 F300 X23.22561 Y29.68418
G1 F300 X23.24248 Y29.59503
G1 F300 X23.24248 Y28.95503
G1 F300 X23.50669 Y28.95386
G1 F300 X23.53742 Y28.93745
G1 F300 X23.55383 Y28.90671
G1 F300 X23.54487 Y27.36168
G1 F300 X23.49498 Y27.33501
G1 F300 X22.91721 Y27.34058
G1 F300 X22.76100 Y27.38652
G1 F300 X22.65256 Y27.45259
G1 F300 X17.35799 Y22.15804
G1 F300 X17.40378 Y22.01953
G1 F300 X17.40378 Y21.32050
G1 F300 X17.35710 Y21.18047
G1 F300 X17.29164 Y21.10538
G1 F300 X17.20807 Y21.05662
G1 F300 X17.10086 Y21.03531
G1 F300 X16.19500 Y21.03500
G1 F300 X16.08189 Y21.05662
G1 F300 X15.98014 Y21.12184
G1 F300 X15.91110 Y21.22106
G1 F300 X15.88499 Y21.34511
G1 F300 X15.88618 Y22.01963
G1 F300 X15.93198 Y22.15801
G1 F300 X14.91435 Y23.17561
G1 F300 X11.74829 Y23.17561
G1 F300 X11.47039 Y22.89771
G1 F300 X11.47039 Y21.39466
G1 F300 X11.82002 Y21.04501
G1 F300 X12.58121 Y21.05265
G1 F300 X12.71598 Y21.00358
G1 F300 X12.80354 Y20.91600
G1 F300 X12.84164 Y20.83500
G1 F300 X12.85500 Y20.74501
G1 F300 X12.84989 Y19.79035
G1 F300 X12.82889 Y19.72106
G1 F300 X12.76815 Y19.63018
G1 F300 X12.71217 Y19.58423
G1 F300 X12.62977 Y19.54803
G1 F300 X12.82393 Y19.35347
G1 F300 X12.87562 Y19.27199
G1 F300 X12.89249 Y19.18281
G1 F300 X12.89249 Y18.85502
G1 F300 X13.15670 Y18.85385
G1 F300 X13.19487 Y18.82835
G1 F300 X13.20498 Y18.79502
G1 F300 X13.20498 Y17.79500
G1 F300 X13.18741 Y17.75258
G1 F300 X13.14499 Y17.73501
G1 F300 X12.14499 Y17.73501
G1 F300 X12.10257 Y17.75258
G1 F300 X12.08500 Y17.79500
G1 F300 X12.08614 Y18.80671
G1 F300 X12.10257 Y18.83744
G1 F300 X12.13328 Y18.85385
G1 F300 X12.39747 Y18.85502
G1 F300 X12.39747 Y19.08032
G1 F300 X12.04497 Y19.43284
G1 F300 X11.98426 Y19.53538
G1 F300 X11.80359 Y19.54880
G1 F300 X11.71804 Y19.59076
G1 F300 X11.63643 Y19.67402
G1 F300 X11.59833 Y19.75502
G1 F300 X11.58500 Y19.84501
G1 F300 X11.58500 Y20.58001
G1 F300 X11.04393 Y21.12149
G1 F300 X10.99224 Y21.20297
G1 F300 X10.97537 Y21.29212
;G04 P0 ; dwell for no time -- G64 should not smooth over this point 
G1 F3000 Z3.00000 ; retract 

G1 F3000 X11.58500 Y21.84508 ; rapid move to begin. 
G1 F300 F300.00000
G1 F300 Z-0.07000
;G04 P0 ; dwell for no time -- G64 should not smooth over this point 
G1 F300 F600.00000
G1 F300 X11.58500 Y21.84508
G1 F300 X11.58665 Y22.77691
G1 F300 X11.60859 Y22.86365
G1 F300 X11.65535 Y22.94168
G1 F300 X11.72782 Y23.00579
G1 F300 X11.84034 Y23.04993
G1 F300 X12.57689 Y23.05336
G1 F300 X12.66361 Y23.03141
G1 F300 X12.74166 Y22.98465
G1 F300 X12.82889 Y22.86896
G1 F300 X12.85469 Y22.75090
G1 F300 X12.85500 Y22.50924
G1 F300 X14.48794 Y20.89078
G1 F300 X17.24196 Y20.89253
G1 F300 X23.73582 Y27.38642
G1 F300 X23.73499 Y28.89500
G1 F300 X23.76168 Y28.94492
G1 F300 X24.32833 Y28.95376
G1 F300 X24.43669 Y28.93653
G1 F300 X24.58032 Y28.87679
G1 F300 X24.71184 Y28.76884
G1 F300 X24.79846 Y28.63963
G1 F300 X24.84842 Y28.48007
G1 F300 X24.85469 Y28.35254
G1 F300 X26.10120 Y28.35254
G1 F300 X26.14799 Y28.49549
G1 F300 X26.24834 Y28.66927
G1 F300 X26.37819 Y28.81398
G1 F300 X26.53973 Y28.93298
G1 F300 X26.73440 Y29.01964
G1 F300 X26.93091 Y29.06008
G1 F300 X27.13155 Y29.05876
G1 F300 X27.32751 Y29.01578
G1 F300 X27.50498 Y28.93641
G1 F300 X27.66246 Y28.82239
G1 F300 X27.80165 Y28.66927
G1 F300 X27.90198 Y28.49549
G1 F300 X27.96500 Y28.29841
G1 F300 X27.98466 Y28.09874
G1 F300 X27.96238 Y27.89935
G1 F300 X27.89914 Y27.70895
G1 F300 X27.79769 Y27.53585
G1 F300 X27.67178 Y27.39602
G1 F300 X27.51026 Y27.27705
G1 F300 X27.32164 Y27.19201
G1 F300 X27.13155 Y27.15124
G1 F300 X26.91844 Y27.15124
G1 F300 X26.72832 Y27.19201
G1 F300 X26.53973 Y27.27705
G1 F300 X26.37819 Y27.39602
G1 F300 X26.24834 Y27.54073
G1 F300 X26.14799 Y27.71454
G1 F300 X26.10117 Y27.85752
G1 F300 X24.85170 Y27.85752
G1 F300 X24.82000 Y27.70093
G1 F300 X24.77204 Y27.60222
G1 F300 X24.70575 Y27.51477
G1 F300 X24.53961 Y27.39155
G1 F300 X24.39406 Y27.34461
G1 F300 X17.47693 Y20.43620
G1 F300 X17.34450 Y20.39751
G1 F300 X14.69248 Y20.39751
G1 F300 X14.69248 Y16.35502
G1 F300 X15.09500 Y16.35502
G1 F300 X15.14488 Y16.32835
G1 F300 X15.15499 Y15.69501
G1 F300 X15.14488 Y15.66168
G1 F300 X15.11796 Y15.63958
G1 F300 X13.79500 Y15.63501
G1 F300 X13.76165 Y15.64512
G1 F300 X13.73615 Y15.68330
G1 F300 X13.74509 Y16.32835
G1 F300 X13.79500 Y16.35502
G1 F300 X14.19746 Y16.35502
G1 F300 X14.19746 Y20.48120
G1 F300 X12.85383 Y21.82486
G1 F300 X12.83966 Y21.74948
G1 F300 X12.78812 Y21.65308
G1 F300 X12.73691 Y21.60188
G1 F300 X12.63356 Y21.54795
G1 F300 X12.54489 Y21.53502
G1 F300 X11.87037 Y21.53622
G1 F300 X11.77103 Y21.56114
G1 F300 X11.67184 Y21.63017
G1 F300 X11.60661 Y21.73193
G1 F300 X11.58500 Y21.84508
;G04 P0 ; dwell for no time -- G64 should not smooth over this point 
G1 F3000 Z3.00000 ; retract 

G1 F3000 X11.43498 Y25.14503 ; rapid move to begin. 
G1 F300 F300.00000
G1 F300 Z-0.07000
;G04 P0 ; dwell for no time -- G64 should not smooth over this point 
G1 F300 F600.00000
G1 F300 X11.43498 Y25.14503
G1 F300 X11.43498 Y27.64502
G1 F300 X11.44238 Y27.71121
G1 F300 X11.48421 Y27.81218
G1 F300 X11.57781 Y27.90580
G1 F300 X11.67880 Y27.94764
G1 F300 X11.73910 Y27.95472
G1 F300 X12.86955 Y27.95381
G1 F300 X13.01217 Y27.90580
G1 F300 X13.10577 Y27.81218
G1 F300 X13.15378 Y27.66958
G1 F300 X13.15378 Y25.12046
G1 F300 X13.10577 Y24.97784
G1 F300 X13.02195 Y24.89077
G1 F300 X12.89965 Y24.84010
G1 F300 X11.71311 Y24.83667
G1 F300 X11.62104 Y24.86113
G1 F300 X11.52183 Y24.93017
G1 F300 X11.45660 Y25.03192
G1 F300 X11.43498 Y25.14503
;G04 P0 ; dwell for no time -- G64 should not smooth over this point 
G1 F3000 Z3.00000 ; retract 

G1 F3000 X32.10497 Y9.96873 ; rapid move to begin. 
G1 F300 F300.00000
G1 F300 Z-0.07000
;G04 P0 ; dwell for no time -- G64 should not smooth over this point 
G1 F300 F600.00000
G1 F300 X32.10497 Y9.96873
G1 F300 X32.10497 Y10.32131
G1 F300 X32.17378 Y10.66715
G1 F300 X32.30870 Y10.99293
G1 F300 X32.50459 Y11.28607
G1 F300 X32.75392 Y11.53540
G1 F300 X33.04711 Y11.73131
G1 F300 X33.37286 Y11.86624
G1 F300 X33.71868 Y11.93502
G1 F300 X34.07126 Y11.93502
G1 F300 X34.41711 Y11.86624
G1 F300 X34.74286 Y11.73131
G1 F300 X35.03603 Y11.53540
G1 F300 X35.28536 Y11.28607
G1 F300 X35.48124 Y10.99291
G1 F300 X35.61619 Y10.66715
G1 F300 X35.68497 Y10.32133
G1 F300 X35.68497 Y9.96873
G1 F300 X35.61619 Y9.62291
G1 F300 X35.48124 Y9.29715
G1 F300 X35.28536 Y9.00396
G1 F300 X35.03603 Y8.75463
G1 F300 X34.74289 Y8.55875
G1 F300 X34.41713 Y8.42382
G1 F300 X34.07126 Y8.35504
G1 F300 X33.71868 Y8.35504
G1 F300 X33.37286 Y8.42382
G1 F300 X33.04711 Y8.55875
G1 F300 X32.75392 Y8.75463
G1 F300 X32.50459 Y9.00396
G1 F300 X32.30870 Y9.29713
G1 F300 X32.17378 Y9.62291
G1 F300 X32.10497 Y9.96873
;G04 P0 ; dwell for no time -- G64 should not smooth over this point 
G1 F3000 Z3.00000 ; retract 

G1 F3000 X32.10497 Y21.96873 ; rapid move to begin. 
G1 F300 F300.00000
G1 F300 Z-0.07000
;G04 P0 ; dwell for no time -- G64 should not smooth over this point 
G1 F300 F600.00000
G1 F300 X32.10497 Y21.96873
G1 F300 X32.10497 Y22.32131
G1 F300 X32.17378 Y22.66715
G1 F300 X32.30870 Y22.99293
G1 F300 X32.50459 Y23.28608
G1 F300 X32.75392 Y23.53540
G1 F300 X33.04711 Y23.73129
G1 F300 X33.37286 Y23.86624
G1 F300 X33.71868 Y23.93502
G1 F300 X34.07126 Y23.93502
G1 F300 X34.41711 Y23.86624
G1 F300 X34.74286 Y23.73129
G1 F300 X35.03603 Y23.53540
G1 F300 X35.28536 Y23.28608
G1 F300 X35.48124 Y22.99291
G1 F300 X35.61619 Y22.66715
G1 F300 X35.68497 Y22.32133
G1 F300 X35.68497 Y21.96873
G1 F300 X35.61619 Y21.62291
G1 F300 X35.48124 Y21.29715
G1 F300 X35.28533 Y21.00396
G1 F300 X35.03603 Y20.75464
G1 F300 X34.74286 Y20.55875
G1 F300 X34.41711 Y20.42383
G1 F300 X34.07126 Y20.35504
G1 F300 X33.71868 Y20.35504
G1 F300 X33.37286 Y20.42383
G1 F300 X33.04708 Y20.55875
G1 F300 X32.75392 Y20.75464
G1 F300 X32.50461 Y21.00396
G1 F300 X32.30870 Y21.29713
G1 F300 X32.17378 Y21.62291
G1 F300 X32.10497 Y21.96873

;G04 P0 ; dwell for no time -- G64 should not smooth over this point 
G1 F3000 Z3.000 ; retract 

; Drill centres

G1 F3000 X27.89500 Y17.44500
G1 F300 Z-0.07
G1 F300 Z3.00000
G1 F3000 X27.89500 Y16.17500
G1 F300 Z-0.07
G1 F300 Z3.00000
G1 F3000 X27.89500 Y14.90500
G1 F300 Z-0.07
G1 F300 Z3.00000










;M5 ; Spindle off. 
;G04 P1.000000
;M9 ; Coolant off. 
M0 ; Program end. 

